(Block-name: Header)
(Block-expand: 0)
(Block-enable: 1)
(G-CODE GENERATED BY FLATCAM vUnstable - www.flatcam.org - Version Date: 2021/2/7)

(Name: digiMatex_DS410-B_Cu.gbr_iso_combined_1_cnc)
(Type: G-code from Geometry)
(Units: MM)

(Created on Saturday, 12 February 2022 at 19:11)

(This preprocessor is the default preprocessor used by FlatCAM.)
(It is made to work with MACH3 compatible motion controllers.)

(TOOL DIAMETER: 0.1536 mm)
(Feedrate_XY: 120.0 mm/min)
(Feedrate_Z: 60.0 mm/min)
(Feedrate rapids 1500.0 mm/min)

(Z_Cut: -0.1 mm)
(DepthPerCut: 0.025 mm <=>4 passes)
(Z_Move: 2.0 mm)
(Z Start: None mm)
(Z End: 15.0 mm)
(X,Y End: None mm)
(Steps per circle: 16)
(Preprocessor Geometry: default)

(X range: -180.5688 ...   -1.4312  mm)
(Y range: -115.5688 ...   -1.4312  mm)

(Spindle Speed: 300.0 RPM)
G21
G90
G94

G01 F120.00
G00 Z2.0000
M03 S300.0
G01 F120.00
(Block-name: block)
(Block-expand: 0)
(Block-enable: 1)
G00 X-133.3621 Y-76.2136
G01 F60.00
G01 Z-0.0250
G01 F120.00
G01 X-133.3750 Y-76.3015
G01 X-133.3750 Y-76.4585
G01 X-133.3415 Y-76.6271
G01 X-133.3134 Y-76.7044
G01 X-133.2395 Y-76.8428
G01 X-133.1304 Y-76.9757
G01 X-133.0091 Y-77.0753
G01 X-132.9320 Y-77.1215
G01 X-132.7871 Y-77.1815
G01 X-132.7064 Y-77.2021
G01 X-132.6185 Y-77.2150
G01 X-132.4615 Y-77.2150
G01 X-132.3727 Y-77.2019
G01 X-132.2251 Y-77.1572
G01 X-129.3998 Y-79.9825
G01 X-129.3471 Y-80.0252
G01 X-129.2902 Y-80.0547
G01 X-129.2287 Y-80.0726
G01 X-129.1686 Y-80.0783
G01 X-123.3018 Y-80.0782
G01 X-123.2399 Y-80.0716
G01 X-123.1802 Y-80.0533
G01 X-123.1232 Y-80.0227
G01 X-123.0743 Y-79.9825
G01 X-118.3336 Y-75.2418
G01 X-108.1405 Y-75.2418
G01 X-107.3172 Y-76.0651
G01 X-107.3619 Y-76.2127
G01 X-107.3750 Y-76.3015
G01 X-107.3750 Y-76.4585
G01 X-107.3619 Y-76.5473
G01 X-107.3163 Y-76.6975
G01 X-107.2779 Y-76.7787
G01 X-107.1907 Y-76.9092
G01 X-107.1331 Y-76.9731
G01 X-107.0692 Y-77.0307
G01 X-106.9387 Y-77.1179
G01 X-106.8575 Y-77.1563
G01 X-106.7064 Y-77.2021
G01 X-106.6185 Y-77.2150
G01 X-106.4615 Y-77.2150
G01 X-106.3727 Y-77.2019
G01 X-106.2251 Y-77.1572
G01 X-103.3998 Y-79.9825
G01 X-103.3534 Y-80.0210
G01 X-103.2972 Y-80.0519
G01 X-103.2361 Y-80.0712
G01 X-103.1686 Y-80.0783
G01 X-97.4555 Y-80.0783
G01 X-97.3881 Y-80.0712
G01 X-97.3270 Y-80.0519
G01 X-97.2708 Y-80.0210
G01 X-97.2243 Y-79.9825
G01 X-92.4688 Y-75.2269
G01 X-82.1554 Y-75.2269
G01 X-81.3172 Y-76.0651
G01 X-81.3619 Y-76.2127
G01 X-81.3750 Y-76.3015
G01 X-81.3750 Y-76.4585
G01 X-81.3619 Y-76.5473
G01 X-81.3163 Y-76.6975
G01 X-81.2779 Y-76.7787
G01 X-81.1907 Y-76.9092
G01 X-81.1331 Y-76.9731
G01 X-81.0692 Y-77.0307
G01 X-80.9387 Y-77.1179
G01 X-80.8575 Y-77.1563
G01 X-80.7064 Y-77.2021
G01 X-80.6185 Y-77.2150
G01 X-80.4615 Y-77.2150
G01 X-80.3727 Y-77.2019
G01 X-80.2251 Y-77.1572
G01 X-77.3998 Y-79.9825
G01 X-77.3534 Y-80.0210
G01 X-77.2972 Y-80.0519
G01 X-77.2361 Y-80.0712
G01 X-77.1686 Y-80.0783
G01 X-71.4555 Y-80.0783
G01 X-71.3899 Y-80.0716
G01 X-71.3302 Y-80.0533
G01 X-71.2732 Y-80.0227
G01 X-71.2243 Y-79.9825
G01 X-66.4688 Y-75.2269
G01 X-56.1554 Y-75.2269
G01 X-55.3172 Y-76.0651
G01 X-55.3621 Y-76.2136
G01 X-55.3787 Y-76.3838
G01 X-55.3619 Y-76.5473
G01 X-55.3134 Y-76.7044
G01 X-55.2353 Y-76.8491
G01 X-55.1331 Y-76.9731
G01 X-55.0091 Y-77.0753
G01 X-54.8669 Y-77.1522
G01 X-54.8669 Y-81.3100
G01 X-54.8611 Y-81.3710
G01 X-54.8434 Y-81.4316
G01 X-54.8138 Y-81.4884
G01 X-54.7712 Y-81.5412
G01 X-52.7812 Y-83.5312
G01 X-52.7007 Y-83.5900
G01 X-52.6175 Y-83.6198
G01 X-52.5500 Y-83.6269
G01 X-37.2354 Y-83.6269
G01 X-35.4769 Y-85.3854
G01 X-35.4769 Y-89.4000
G01 X-35.4698 Y-89.4675
G01 X-35.4400 Y-89.5507
G01 X-35.3812 Y-89.6312
G01 X-33.0812 Y-91.9312
G01 X-33.0284 Y-91.9738
G01 X-32.9413 Y-92.0139
G01 X-32.8500 Y-92.0269
G01 X-28.2000 Y-92.0269
G01 X-28.1325 Y-92.0198
G01 X-28.0493 Y-91.9900
G01 X-27.9716 Y-91.9338
G01 X-26.5838 Y-90.5462
G01 X-26.5250 Y-90.4657
G01 X-26.5033 Y-90.4135
G01 X-26.4901 Y-90.3508
G01 X-26.4881 Y-89.6668
G01 X-26.4491 Y-89.5944
G01 X-26.4382 Y-89.5250
G01 X-26.4421 Y-87.7335
G01 X-26.4633 Y-87.6715
G01 X-26.4921 Y-87.6283
G01 X-26.5359 Y-87.5886
G01 X-26.5956 Y-87.5591
G01 X-26.6650 Y-87.5482
G01 X-27.0068 Y-87.5521
G01 X-27.0752 Y-87.5768
G01 X-27.1379 Y-87.6283
G01 X-27.1759 Y-87.6917
G01 X-27.1910 Y-87.7565
G01 X-27.1918 Y-89.5250
G01 X-27.1809 Y-89.5944
G01 X-27.1419 Y-89.6668
G01 X-27.1419 Y-90.1796
G01 X-28.3354 Y-91.3731
G01 X-32.7146 Y-91.3731
G01 X-34.8231 Y-89.2646
G01 X-34.8231 Y-85.2500
G01 X-34.8302 Y-85.1825
G01 X-34.8600 Y-85.0993
G01 X-34.9188 Y-85.0188
G01 X-36.8688 Y-83.0688
G01 X-36.9426 Y-83.0135
G01 X-37.0087 Y-82.9861
G01 X-37.1000 Y-82.9731
G01 X-52.4146 Y-82.9731
G01 X-54.2131 Y-81.1746
G01 X-54.2131 Y-77.1522
G01 X-54.0709 Y-77.0753
G01 X-53.9469 Y-76.9731
G01 X-53.8405 Y-76.8428
G01 X-53.7637 Y-76.6975
G01 X-53.7179 Y-76.5464
G01 X-53.7013 Y-76.3762
G01 X-53.7181 Y-76.2127
G01 X-53.7666 Y-76.0556
G01 X-53.8447 Y-75.9109
G01 X-53.9469 Y-75.7869
G01 X-54.0709 Y-75.6847
G01 X-54.2156 Y-75.6066
G01 X-54.3736 Y-75.5579
G01 X-54.5362 Y-75.5413
G01 X-54.6999 Y-75.5567
G01 X-54.8549 Y-75.6028
G01 X-55.7916 Y-74.6662
G01 X-55.8353 Y-74.6303
G01 X-55.8914 Y-74.5995
G01 X-55.9842 Y-74.5751
G01 X-66.6042 Y-74.5731
G01 X-66.6984 Y-74.5869
G01 X-66.7616 Y-74.6135
G01 X-66.8353 Y-74.6688
G01 X-71.5909 Y-79.4244
G01 X-77.0332 Y-79.4244
G01 X-79.7628 Y-76.6949
G01 X-79.7181 Y-76.5473
G01 X-79.7050 Y-76.4585
G01 X-79.7050 Y-76.3015
G01 X-79.7181 Y-76.2127
G01 X-79.7637 Y-76.0625
G01 X-79.8021 Y-75.9813
G01 X-79.8893 Y-75.8508
G01 X-79.9469 Y-75.7869
G01 X-80.0108 Y-75.7293
G01 X-80.1413 Y-75.6421
G01 X-80.2225 Y-75.6037
G01 X-80.3736 Y-75.5579
G01 X-80.4615 Y-75.5450
G01 X-80.6185 Y-75.5450
G01 X-80.7073 Y-75.5581
G01 X-80.8549 Y-75.6028
G01 X-81.8097 Y-74.6497
G01 X-81.8984 Y-74.5966
G01 X-81.9917 Y-74.5744
G01 X-92.6042 Y-74.5731
G01 X-92.7026 Y-74.5883
G01 X-92.7826 Y-74.6262
G01 X-92.8353 Y-74.6688
G01 X-97.5909 Y-79.4244
G01 X-103.0332 Y-79.4244
G01 X-105.7628 Y-76.6949
G01 X-105.7181 Y-76.5473
G01 X-105.7050 Y-76.4585
G01 X-105.7050 Y-76.3015
G01 X-105.7181 Y-76.2127
G01 X-105.7637 Y-76.0625
G01 X-105.8021 Y-75.9813
G01 X-105.8893 Y-75.8508
G01 X-105.9469 Y-75.7869
G01 X-106.0108 Y-75.7293
G01 X-106.1413 Y-75.6421
G01 X-106.2225 Y-75.6037
G01 X-106.3736 Y-75.5579
G01 X-106.4615 Y-75.5450
G01 X-106.6185 Y-75.5450
G01 X-106.7073 Y-75.5581
G01 X-106.8549 Y-75.6028
G01 X-107.7949 Y-74.6646
G01 X-107.8835 Y-74.6115
G01 X-107.9768 Y-74.5893
G01 X-118.4691 Y-74.5880
G01 X-118.5648 Y-74.6023
G01 X-118.6475 Y-74.6410
G01 X-118.7002 Y-74.6837
G01 X-123.4409 Y-79.4244
G01 X-129.0332 Y-79.4244
G01 X-131.7628 Y-76.6949
G01 X-131.7179 Y-76.5464
G01 X-131.7013 Y-76.3838
G01 X-131.7057 Y-76.2940
G01 X-131.7363 Y-76.1401
G01 X-131.7666 Y-76.0556
G01 X-131.8447 Y-75.9109
G01 X-131.9443 Y-75.7896
G01 X-132.0108 Y-75.7293
G01 X-132.0772 Y-75.6805
G01 X-132.2156 Y-75.6066
G01 X-132.3801 Y-75.5567
G01 X-132.5362 Y-75.5413
G01 X-132.6260 Y-75.5457
G01 X-132.7799 Y-75.5763
G01 X-132.8575 Y-75.6037
G01 X-133.0091 Y-75.6847
G01 X-133.1304 Y-75.7843
G01 X-133.1859 Y-75.8450
G01 X-133.2815 Y-75.9880
G01 X-133.3415 Y-76.1329
G01 X-133.3621 Y-76.2136
G00 X-133.3621 Y-76.2136
G01 F60.00
G01 Z-0.0500
G01 F120.00
G01 X-133.3750 Y-76.3015
G01 X-133.3750 Y-76.4585
G01 X-133.3415 Y-76.6271
G01 X-133.3134 Y-76.7044
G01 X-133.2395 Y-76.8428
G01 X-133.1304 Y-76.9757
G01 X-133.0091 Y-77.0753
G01 X-132.9320 Y-77.1215
G01 X-132.7871 Y-77.1815
G01 X-132.7064 Y-77.2021
G01 X-132.6185 Y-77.2150
G01 X-132.4615 Y-77.2150
G01 X-132.3727 Y-77.2019
G01 X-132.2251 Y-77.1572
G01 X-129.3998 Y-79.9825
G01 X-129.3471 Y-80.0252
G01 X-129.2902 Y-80.0547
G01 X-129.2287 Y-80.0726
G01 X-129.1686 Y-80.0783
G01 X-123.3018 Y-80.0782
G01 X-123.2399 Y-80.0716
G01 X-123.1802 Y-80.0533
G01 X-123.1232 Y-80.0227
G01 X-123.0743 Y-79.9825
G01 X-118.3336 Y-75.2418
G01 X-108.1405 Y-75.2418
G01 X-107.3172 Y-76.0651
G01 X-107.3619 Y-76.2127
G01 X-107.3750 Y-76.3015
G01 X-107.3750 Y-76.4585
G01 X-107.3619 Y-76.5473
G01 X-107.3163 Y-76.6975
G01 X-107.2779 Y-76.7787
G01 X-107.1907 Y-76.9092
G01 X-107.1331 Y-76.9731
G01 X-107.0692 Y-77.0307
G01 X-106.9387 Y-77.1179
G01 X-106.8575 Y-77.1563
G01 X-106.7064 Y-77.2021
G01 X-106.6185 Y-77.2150
G01 X-106.4615 Y-77.2150
G01 X-106.3727 Y-77.2019
G01 X-106.2251 Y-77.1572
G01 X-103.3998 Y-79.9825
G01 X-103.3534 Y-80.0210
G01 X-103.2972 Y-80.0519
G01 X-103.2361 Y-80.0712
G01 X-103.1686 Y-80.0783
G01 X-97.4555 Y-80.0783
G01 X-97.3881 Y-80.0712
G01 X-97.3270 Y-80.0519
G01 X-97.2708 Y-80.0210
G01 X-97.2243 Y-79.9825
G01 X-92.4688 Y-75.2269
G01 X-82.1554 Y-75.2269
G01 X-81.3172 Y-76.0651
G01 X-81.3619 Y-76.2127
G01 X-81.3750 Y-76.3015
G01 X-81.3750 Y-76.4585
G01 X-81.3619 Y-76.5473
G01 X-81.3163 Y-76.6975
G01 X-81.2779 Y-76.7787
G01 X-81.1907 Y-76.9092
G01 X-81.1331 Y-76.9731
G01 X-81.0692 Y-77.0307
G01 X-80.9387 Y-77.1179
G01 X-80.8575 Y-77.1563
G01 X-80.7064 Y-77.2021
G01 X-80.6185 Y-77.2150
G01 X-80.4615 Y-77.2150
G01 X-80.3727 Y-77.2019
G01 X-80.2251 Y-77.1572
G01 X-77.3998 Y-79.9825
G01 X-77.3534 Y-80.0210
G01 X-77.2972 Y-80.0519
G01 X-77.2361 Y-80.0712
G01 X-77.1686 Y-80.0783
G01 X-71.4555 Y-80.0783
G01 X-71.3899 Y-80.0716
G01 X-71.3302 Y-80.0533
G01 X-71.2732 Y-80.0227
G01 X-71.2243 Y-79.9825
G01 X-66.4688 Y-75.2269
G01 X-56.1554 Y-75.2269
G01 X-55.3172 Y-76.0651
G01 X-55.3621 Y-76.2136
G01 X-55.3787 Y-76.3838
G01 X-55.3619 Y-76.5473
G01 X-55.3134 Y-76.7044
G01 X-55.2353 Y-76.8491
G01 X-55.1331 Y-76.9731
G01 X-55.0091 Y-77.0753
G01 X-54.8669 Y-77.1522
G01 X-54.8669 Y-81.3100
G01 X-54.8611 Y-81.3710
G01 X-54.8434 Y-81.4316
G01 X-54.8138 Y-81.4884
G01 X-54.7712 Y-81.5412
G01 X-52.7812 Y-83.5312
G01 X-52.7007 Y-83.5900
G01 X-52.6175 Y-83.6198
G01 X-52.5500 Y-83.6269
G01 X-37.2354 Y-83.6269
G01 X-35.4769 Y-85.3854
G01 X-35.4769 Y-89.4000
G01 X-35.4698 Y-89.4675
G01 X-35.4400 Y-89.5507
G01 X-35.3812 Y-89.6312
G01 X-33.0812 Y-91.9312
G01 X-33.0284 Y-91.9738
G01 X-32.9413 Y-92.0139
G01 X-32.8500 Y-92.0269
G01 X-28.2000 Y-92.0269
G01 X-28.1325 Y-92.0198
G01 X-28.0493 Y-91.9900
G01 X-27.9716 Y-91.9338
G01 X-26.5838 Y-90.5462
G01 X-26.5250 Y-90.4657
G01 X-26.5033 Y-90.4135
G01 X-26.4901 Y-90.3508
G01 X-26.4881 Y-89.6668
G01 X-26.4491 Y-89.5944
G01 X-26.4382 Y-89.5250
G01 X-26.4421 Y-87.7335
G01 X-26.4633 Y-87.6715
G01 X-26.4921 Y-87.6283
G01 X-26.5359 Y-87.5886
G01 X-26.5956 Y-87.5591
G01 X-26.6650 Y-87.5482
G01 X-27.0068 Y-87.5521
G01 X-27.0752 Y-87.5768
G01 X-27.1379 Y-87.6283
G01 X-27.1759 Y-87.6917
G01 X-27.1910 Y-87.7565
G01 X-27.1918 Y-89.5250
G01 X-27.1809 Y-89.5944
G01 X-27.1419 Y-89.6668
G01 X-27.1419 Y-90.1796
G01 X-28.3354 Y-91.3731
G01 X-32.7146 Y-91.3731
G01 X-34.8231 Y-89.2646
G01 X-34.8231 Y-85.2500
G01 X-34.8302 Y-85.1825
G01 X-34.8600 Y-85.0993
G01 X-34.9188 Y-85.0188
G01 X-36.8688 Y-83.0688
G01 X-36.9426 Y-83.0135
G01 X-37.0087 Y-82.9861
G01 X-37.1000 Y-82.9731
G01 X-52.4146 Y-82.9731
G01 X-54.2131 Y-81.1746
G01 X-54.2131 Y-77.1522
G01 X-54.0709 Y-77.0753
G01 X-53.9469 Y-76.9731
G01 X-53.8405 Y-76.8428
G01 X-53.7637 Y-76.6975
G01 X-53.7179 Y-76.5464
G01 X-53.7013 Y-76.3762
G01 X-53.7181 Y-76.2127
G01 X-53.7666 Y-76.0556
G01 X-53.8447 Y-75.9109
G01 X-53.9469 Y-75.7869
G01 X-54.0709 Y-75.6847
G01 X-54.2156 Y-75.6066
G01 X-54.3736 Y-75.5579
G01 X-54.5362 Y-75.5413
G01 X-54.6999 Y-75.5567
G01 X-54.8549 Y-75.6028
G01 X-55.7916 Y-74.6662
G01 X-55.8353 Y-74.6303
G01 X-55.8914 Y-74.5995
G01 X-55.9842 Y-74.5751
G01 X-66.6042 Y-74.5731
G01 X-66.6984 Y-74.5869
G01 X-66.7616 Y-74.6135
G01 X-66.8353 Y-74.6688
G01 X-71.5909 Y-79.4244
G01 X-77.0332 Y-79.4244
G01 X-79.7628 Y-76.6949
G01 X-79.7181 Y-76.5473
G01 X-79.7050 Y-76.4585
G01 X-79.7050 Y-76.3015
G01 X-79.7181 Y-76.2127
G01 X-79.7637 Y-76.0625
G01 X-79.8021 Y-75.9813
G01 X-79.8893 Y-75.8508
G01 X-79.9469 Y-75.7869
G01 X-80.0108 Y-75.7293
G01 X-80.1413 Y-75.6421
G01 X-80.2225 Y-75.6037
G01 X-80.3736 Y-75.5579
G01 X-80.4615 Y-75.5450
G01 X-80.6185 Y-75.5450
G01 X-80.7073 Y-75.5581
G01 X-80.8549 Y-75.6028
G01 X-81.8097 Y-74.6497
G01 X-81.8984 Y-74.5966
G01 X-81.9917 Y-74.5744
G01 X-92.6042 Y-74.5731
G01 X-92.7026 Y-74.5883
G01 X-92.7826 Y-74.6262
G01 X-92.8353 Y-74.6688
G01 X-97.5909 Y-79.4244
G01 X-103.0332 Y-79.4244
G01 X-105.7628 Y-76.6949
G01 X-105.7181 Y-76.5473
G01 X-105.7050 Y-76.4585
G01 X-105.7050 Y-76.3015
G01 X-105.7181 Y-76.2127
G01 X-105.7637 Y-76.0625
G01 X-105.8021 Y-75.9813
G01 X-105.8893 Y-75.8508
G01 X-105.9469 Y-75.7869
G01 X-106.0108 Y-75.7293
G01 X-106.1413 Y-75.6421
G01 X-106.2225 Y-75.6037
G01 X-106.3736 Y-75.5579
G01 X-106.4615 Y-75.5450
G01 X-106.6185 Y-75.5450
G01 X-106.7073 Y-75.5581
G01 X-106.8549 Y-75.6028
G01 X-107.7949 Y-74.6646
G01 X-107.8835 Y-74.6115
G01 X-107.9768 Y-74.5893
G01 X-118.4691 Y-74.5880
G01 X-118.5648 Y-74.6023
G01 X-118.6475 Y-74.6410
G01 X-118.7002 Y-74.6837
G01 X-123.4409 Y-79.4244
G01 X-129.0332 Y-79.4244
G01 X-131.7628 Y-76.6949
G01 X-131.7179 Y-76.5464
G01 X-131.7013 Y-76.3838
G01 X-131.7057 Y-76.2940
G01 X-131.7363 Y-76.1401
G01 X-131.7666 Y-76.0556
G01 X-131.8447 Y-75.9109
G01 X-131.9443 Y-75.7896
G01 X-132.0108 Y-75.7293
G01 X-132.0772 Y-75.6805
G01 X-132.2156 Y-75.6066
G01 X-132.3801 Y-75.5567
G01 X-132.5362 Y-75.5413
G01 X-132.6260 Y-75.5457
G01 X-132.7799 Y-75.5763
G01 X-132.8575 Y-75.6037
G01 X-133.0091 Y-75.6847
G01 X-133.1304 Y-75.7843
G01 X-133.1859 Y-75.8450
G01 X-133.2815 Y-75.9880
G01 X-133.3415 Y-76.1329
G01 X-133.3621 Y-76.2136
G00 X-133.3621 Y-76.2136
G01 F60.00
G01 Z-0.0750
G01 F120.00
G01 X-133.3750 Y-76.3015
G01 X-133.3750 Y-76.4585
G01 X-133.3415 Y-76.6271
G01 X-133.3134 Y-76.7044
G01 X-133.2395 Y-76.8428
G01 X-133.1304 Y-76.9757
G01 X-133.0091 Y-77.0753
G01 X-132.9320 Y-77.1215
G01 X-132.7871 Y-77.1815
G01 X-132.7064 Y-77.2021
G01 X-132.6185 Y-77.2150
G01 X-132.4615 Y-77.2150
G01 X-132.3727 Y-77.2019
G01 X-132.2251 Y-77.1572
G01 X-129.3998 Y-79.9825
G01 X-129.3471 Y-80.0252
G01 X-129.2902 Y-80.0547
G01 X-129.2287 Y-80.0726
G01 X-129.1686 Y-80.0783
G01 X-123.3018 Y-80.0782
G01 X-123.2399 Y-80.0716
G01 X-123.1802 Y-80.0533
G01 X-123.1232 Y-80.0227
G01 X-123.0743 Y-79.9825
G01 X-118.3336 Y-75.2418
G01 X-108.1405 Y-75.2418
G01 X-107.3172 Y-76.0651
G01 X-107.3619 Y-76.2127
G01 X-107.3750 Y-76.3015
G01 X-107.3750 Y-76.4585
G01 X-107.3619 Y-76.5473
G01 X-107.3163 Y-76.6975
G01 X-107.2779 Y-76.7787
G01 X-107.1907 Y-76.9092
G01 X-107.1331 Y-76.9731
G01 X-107.0692 Y-77.0307
G01 X-106.9387 Y-77.1179
G01 X-106.8575 Y-77.1563
G01 X-106.7064 Y-77.2021
G01 X-106.6185 Y-77.2150
G01 X-106.4615 Y-77.2150
G01 X-106.3727 Y-77.2019
G01 X-106.2251 Y-77.1572
G01 X-103.3998 Y-79.9825
G01 X-103.3534 Y-80.0210
G01 X-103.2972 Y-80.0519
G01 X-103.2361 Y-80.0712
G01 X-103.1686 Y-80.0783
G01 X-97.4555 Y-80.0783
G01 X-97.3881 Y-80.0712
G01 X-97.3270 Y-80.0519
G01 X-97.2708 Y-80.0210
G01 X-97.2243 Y-79.9825
G01 X-92.4688 Y-75.2269
G01 X-82.1554 Y-75.2269
G01 X-81.3172 Y-76.0651
G01 X-81.3619 Y-76.2127
G01 X-81.3750 Y-76.3015
G01 X-81.3750 Y-76.4585
G01 X-81.3619 Y-76.5473
G01 X-81.3163 Y-76.6975
G01 X-81.2779 Y-76.7787
G01 X-81.1907 Y-76.9092
G01 X-81.1331 Y-76.9731
G01 X-81.0692 Y-77.0307
G01 X-80.9387 Y-77.1179
G01 X-80.8575 Y-77.1563
G01 X-80.7064 Y-77.2021
G01 X-80.6185 Y-77.2150
G01 X-80.4615 Y-77.2150
G01 X-80.3727 Y-77.2019
G01 X-80.2251 Y-77.1572
G01 X-77.3998 Y-79.9825
G01 X-77.3534 Y-80.0210
G01 X-77.2972 Y-80.0519
G01 X-77.2361 Y-80.0712
G01 X-77.1686 Y-80.0783
G01 X-71.4555 Y-80.0783
G01 X-71.3899 Y-80.0716
G01 X-71.3302 Y-80.0533
G01 X-71.2732 Y-80.0227
G01 X-71.2243 Y-79.9825
G01 X-66.4688 Y-75.2269
G01 X-56.1554 Y-75.2269
G01 X-55.3172 Y-76.0651
G01 X-55.3621 Y-76.2136
G01 X-55.3787 Y-76.3838
G01 X-55.3619 Y-76.5473
G01 X-55.3134 Y-76.7044
G01 X-55.2353 Y-76.8491
G01 X-55.1331 Y-76.9731
G01 X-55.0091 Y-77.0753
G01 X-54.8669 Y-77.1522
G01 X-54.8669 Y-81.3100
G01 X-54.8611 Y-81.3710
G01 X-54.8434 Y-81.4316
G01 X-54.8138 Y-81.4884
G01 X-54.7712 Y-81.5412
G01 X-52.7812 Y-83.5312
G01 X-52.7007 Y-83.5900
G01 X-52.6175 Y-83.6198
G01 X-52.5500 Y-83.6269
G01 X-37.2354 Y-83.6269
G01 X-35.4769 Y-85.3854
G01 X-35.4769 Y-89.4000
G01 X-35.4698 Y-89.4675
G01 X-35.4400 Y-89.5507
G01 X-35.3812 Y-89.6312
G01 X-33.0812 Y-91.9312
G01 X-33.0284 Y-91.9738
G01 X-32.9413 Y-92.0139
G01 X-32.8500 Y-92.0269
G01 X-28.2000 Y-92.0269
G01 X-28.1325 Y-92.0198
G01 X-28.0493 Y-91.9900
G01 X-27.9716 Y-91.9338
G01 X-26.5838 Y-90.5462
G01 X-26.5250 Y-90.4657
G01 X-26.5033 Y-90.4135
G01 X-26.4901 Y-90.3508
G01 X-26.4881 Y-89.6668
G01 X-26.4491 Y-89.5944
G01 X-26.4382 Y-89.5250
G01 X-26.4421 Y-87.7335
G01 X-26.4633 Y-87.6715
G01 X-26.4921 Y-87.6283
G01 X-26.5359 Y-87.5886
G01 X-26.5956 Y-87.5591
G01 X-26.6650 Y-87.5482
G01 X-27.0068 Y-87.5521
G01 X-27.0752 Y-87.5768
G01 X-27.1379 Y-87.6283
G01 X-27.1759 Y-87.6917
G01 X-27.1910 Y-87.7565
G01 X-27.1918 Y-89.5250
G01 X-27.1809 Y-89.5944
G01 X-27.1419 Y-89.6668
G01 X-27.1419 Y-90.1796
G01 X-28.3354 Y-91.3731
G01 X-32.7146 Y-91.3731
G01 X-34.8231 Y-89.2646
G01 X-34.8231 Y-85.2500
G01 X-34.8302 Y-85.1825
G01 X-34.8600 Y-85.0993
G01 X-34.9188 Y-85.0188
G01 X-36.8688 Y-83.0688
G01 X-36.9426 Y-83.0135
G01 X-37.0087 Y-82.9861
G01 X-37.1000 Y-82.9731
G01 X-52.4146 Y-82.9731
G01 X-54.2131 Y-81.1746
G01 X-54.2131 Y-77.1522
G01 X-54.0709 Y-77.0753
G01 X-53.9469 Y-76.9731
G01 X-53.8405 Y-76.8428
G01 X-53.7637 Y-76.6975
G01 X-53.7179 Y-76.5464
G01 X-53.7013 Y-76.3762
G01 X-53.7181 Y-76.2127
G01 X-53.7666 Y-76.0556
G01 X-53.8447 Y-75.9109
G01 X-53.9469 Y-75.7869
G01 X-54.0709 Y-75.6847
G01 X-54.2156 Y-75.6066
G01 X-54.3736 Y-75.5579
G01 X-54.5362 Y-75.5413
G01 X-54.6999 Y-75.5567
G01 X-54.8549 Y-75.6028
G01 X-55.7916 Y-74.6662
G01 X-55.8353 Y-74.6303
G01 X-55.8914 Y-74.5995
G01 X-55.9842 Y-74.5751
G01 X-66.6042 Y-74.5731
G01 X-66.6984 Y-74.5869
G01 X-66.7616 Y-74.6135
G01 X-66.8353 Y-74.6688
G01 X-71.5909 Y-79.4244
G01 X-77.0332 Y-79.4244
G01 X-79.7628 Y-76.6949
G01 X-79.7181 Y-76.5473
G01 X-79.7050 Y-76.4585
G01 X-79.7050 Y-76.3015
G01 X-79.7181 Y-76.2127
G01 X-79.7637 Y-76.0625
G01 X-79.8021 Y-75.9813
G01 X-79.8893 Y-75.8508
G01 X-79.9469 Y-75.7869
G01 X-80.0108 Y-75.7293
G01 X-80.1413 Y-75.6421
G01 X-80.2225 Y-75.6037
G01 X-80.3736 Y-75.5579
G01 X-80.4615 Y-75.5450
G01 X-80.6185 Y-75.5450
G01 X-80.7073 Y-75.5581
G01 X-80.8549 Y-75.6028
G01 X-81.8097 Y-74.6497
G01 X-81.8984 Y-74.5966
G01 X-81.9917 Y-74.5744
G01 X-92.6042 Y-74.5731
G01 X-92.7026 Y-74.5883
G01 X-92.7826 Y-74.6262
G01 X-92.8353 Y-74.6688
G01 X-97.5909 Y-79.4244
G01 X-103.0332 Y-79.4244
G01 X-105.7628 Y-76.6949
G01 X-105.7181 Y-76.5473
G01 X-105.7050 Y-76.4585
G01 X-105.7050 Y-76.3015
G01 X-105.7181 Y-76.2127
G01 X-105.7637 Y-76.0625
G01 X-105.8021 Y-75.9813
G01 X-105.8893 Y-75.8508
G01 X-105.9469 Y-75.7869
G01 X-106.0108 Y-75.7293
G01 X-106.1413 Y-75.6421
G01 X-106.2225 Y-75.6037
G01 X-106.3736 Y-75.5579
G01 X-106.4615 Y-75.5450
G01 X-106.6185 Y-75.5450
G01 X-106.7073 Y-75.5581
G01 X-106.8549 Y-75.6028
G01 X-107.7949 Y-74.6646
G01 X-107.8835 Y-74.6115
G01 X-107.9768 Y-74.5893
G01 X-118.4691 Y-74.5880
G01 X-118.5648 Y-74.6023
G01 X-118.6475 Y-74.6410
G01 X-118.7002 Y-74.6837
G01 X-123.4409 Y-79.4244
G01 X-129.0332 Y-79.4244
G01 X-131.7628 Y-76.6949
G01 X-131.7179 Y-76.5464
G01 X-131.7013 Y-76.3838
G01 X-131.7057 Y-76.2940
G01 X-131.7363 Y-76.1401
G01 X-131.7666 Y-76.0556
G01 X-131.8447 Y-75.9109
G01 X-131.9443 Y-75.7896
G01 X-132.0108 Y-75.7293
G01 X-132.0772 Y-75.6805
G01 X-132.2156 Y-75.6066
G01 X-132.3801 Y-75.5567
G01 X-132.5362 Y-75.5413
G01 X-132.6260 Y-75.5457
G01 X-132.7799 Y-75.5763
G01 X-132.8575 Y-75.6037
G01 X-133.0091 Y-75.6847
G01 X-133.1304 Y-75.7843
G01 X-133.1859 Y-75.8450
G01 X-133.2815 Y-75.9880
G01 X-133.3415 Y-76.1329
G01 X-133.3621 Y-76.2136
G00 X-133.3621 Y-76.2136
G01 F60.00
G01 Z-0.1000
G01 F120.00
G01 X-133.3750 Y-76.3015
G01 X-133.3750 Y-76.4585
G01 X-133.3415 Y-76.6271
G01 X-133.3134 Y-76.7044
G01 X-133.2395 Y-76.8428
G01 X-133.1304 Y-76.9757
G01 X-133.0091 Y-77.0753
G01 X-132.9320 Y-77.1215
G01 X-132.7871 Y-77.1815
G01 X-132.7064 Y-77.2021
G01 X-132.6185 Y-77.2150
G01 X-132.4615 Y-77.2150
G01 X-132.3727 Y-77.2019
G01 X-132.2251 Y-77.1572
G01 X-129.3998 Y-79.9825
G01 X-129.3471 Y-80.0252
G01 X-129.2902 Y-80.0547
G01 X-129.2287 Y-80.0726
G01 X-129.1686 Y-80.0783
G01 X-123.3018 Y-80.0782
G01 X-123.2399 Y-80.0716
G01 X-123.1802 Y-80.0533
G01 X-123.1232 Y-80.0227
G01 X-123.0743 Y-79.9825
G01 X-118.3336 Y-75.2418
G01 X-108.1405 Y-75.2418
G01 X-107.3172 Y-76.0651
G01 X-107.3619 Y-76.2127
G01 X-107.3750 Y-76.3015
G01 X-107.3750 Y-76.4585
G01 X-107.3619 Y-76.5473
G01 X-107.3163 Y-76.6975
G01 X-107.2779 Y-76.7787
G01 X-107.1907 Y-76.9092
G01 X-107.1331 Y-76.9731
G01 X-107.0692 Y-77.0307
G01 X-106.9387 Y-77.1179
G01 X-106.8575 Y-77.1563
G01 X-106.7064 Y-77.2021
G01 X-106.6185 Y-77.2150
G01 X-106.4615 Y-77.2150
G01 X-106.3727 Y-77.2019
G01 X-106.2251 Y-77.1572
G01 X-103.3998 Y-79.9825
G01 X-103.3534 Y-80.0210
G01 X-103.2972 Y-80.0519
G01 X-103.2361 Y-80.0712
G01 X-103.1686 Y-80.0783
G01 X-97.4555 Y-80.0783
G01 X-97.3881 Y-80.0712
G01 X-97.3270 Y-80.0519
G01 X-97.2708 Y-80.0210
G01 X-97.2243 Y-79.9825
G01 X-92.4688 Y-75.2269
G01 X-82.1554 Y-75.2269
G01 X-81.3172 Y-76.0651
G01 X-81.3619 Y-76.2127
G01 X-81.3750 Y-76.3015
G01 X-81.3750 Y-76.4585
G01 X-81.3619 Y-76.5473
G01 X-81.3163 Y-76.6975
G01 X-81.2779 Y-76.7787
G01 X-81.1907 Y-76.9092
G01 X-81.1331 Y-76.9731
G01 X-81.0692 Y-77.0307
G01 X-80.9387 Y-77.1179
G01 X-80.8575 Y-77.1563
G01 X-80.7064 Y-77.2021
G01 X-80.6185 Y-77.2150
G01 X-80.4615 Y-77.2150
G01 X-80.3727 Y-77.2019
G01 X-80.2251 Y-77.1572
G01 X-77.3998 Y-79.9825
G01 X-77.3534 Y-80.0210
G01 X-77.2972 Y-80.0519
G01 X-77.2361 Y-80.0712
G01 X-77.1686 Y-80.0783
G01 X-71.4555 Y-80.0783
G01 X-71.3899 Y-80.0716
G01 X-71.3302 Y-80.0533
G01 X-71.2732 Y-80.0227
G01 X-71.2243 Y-79.9825
G01 X-66.4688 Y-75.2269
G01 X-56.1554 Y-75.2269
G01 X-55.3172 Y-76.0651
G01 X-55.3621 Y-76.2136
G01 X-55.3787 Y-76.3838
G01 X-55.3619 Y-76.5473
G01 X-55.3134 Y-76.7044
G01 X-55.2353 Y-76.8491
G01 X-55.1331 Y-76.9731
G01 X-55.0091 Y-77.0753
G01 X-54.8669 Y-77.1522
G01 X-54.8669 Y-81.3100
G01 X-54.8611 Y-81.3710
G01 X-54.8434 Y-81.4316
G01 X-54.8138 Y-81.4884
G01 X-54.7712 Y-81.5412
G01 X-52.7812 Y-83.5312
G01 X-52.7007 Y-83.5900
G01 X-52.6175 Y-83.6198
G01 X-52.5500 Y-83.6269
G01 X-37.2354 Y-83.6269
G01 X-35.4769 Y-85.3854
G01 X-35.4769 Y-89.4000
G01 X-35.4698 Y-89.4675
G01 X-35.4400 Y-89.5507
G01 X-35.3812 Y-89.6312
G01 X-33.0812 Y-91.9312
G01 X-33.0284 Y-91.9738
G01 X-32.9413 Y-92.0139
G01 X-32.8500 Y-92.0269
G01 X-28.2000 Y-92.0269
G01 X-28.1325 Y-92.0198
G01 X-28.0493 Y-91.9900
G01 X-27.9716 Y-91.9338
G01 X-26.5838 Y-90.5462
G01 X-26.5250 Y-90.4657
G01 X-26.5033 Y-90.4135
G01 X-26.4901 Y-90.3508
G01 X-26.4881 Y-89.6668
G01 X-26.4491 Y-89.5944
G01 X-26.4382 Y-89.5250
G01 X-26.4421 Y-87.7335
G01 X-26.4633 Y-87.6715
G01 X-26.4921 Y-87.6283
G01 X-26.5359 Y-87.5886
G01 X-26.5956 Y-87.5591
G01 X-26.6650 Y-87.5482
G01 X-27.0068 Y-87.5521
G01 X-27.0752 Y-87.5768
G01 X-27.1379 Y-87.6283
G01 X-27.1759 Y-87.6917
G01 X-27.1910 Y-87.7565
G01 X-27.1918 Y-89.5250
G01 X-27.1809 Y-89.5944
G01 X-27.1419 Y-89.6668
G01 X-27.1419 Y-90.1796
G01 X-28.3354 Y-91.3731
G01 X-32.7146 Y-91.3731
G01 X-34.8231 Y-89.2646
G01 X-34.8231 Y-85.2500
G01 X-34.8302 Y-85.1825
G01 X-34.8600 Y-85.0993
G01 X-34.9188 Y-85.0188
G01 X-36.8688 Y-83.0688
G01 X-36.9426 Y-83.0135
G01 X-37.0087 Y-82.9861
G01 X-37.1000 Y-82.9731
G01 X-52.4146 Y-82.9731
G01 X-54.2131 Y-81.1746
G01 X-54.2131 Y-77.1522
G01 X-54.0709 Y-77.0753
G01 X-53.9469 Y-76.9731
G01 X-53.8405 Y-76.8428
G01 X-53.7637 Y-76.6975
G01 X-53.7179 Y-76.5464
G01 X-53.7013 Y-76.3762
G01 X-53.7181 Y-76.2127
G01 X-53.7666 Y-76.0556
G01 X-53.8447 Y-75.9109
G01 X-53.9469 Y-75.7869
G01 X-54.0709 Y-75.6847
G01 X-54.2156 Y-75.6066
G01 X-54.3736 Y-75.5579
G01 X-54.5362 Y-75.5413
G01 X-54.6999 Y-75.5567
G01 X-54.8549 Y-75.6028
G01 X-55.7916 Y-74.6662
G01 X-55.8353 Y-74.6303
G01 X-55.8914 Y-74.5995
G01 X-55.9842 Y-74.5751
G01 X-66.6042 Y-74.5731
G01 X-66.6984 Y-74.5869
G01 X-66.7616 Y-74.6135
G01 X-66.8353 Y-74.6688
G01 X-71.5909 Y-79.4244
G01 X-77.0332 Y-79.4244
G01 X-79.7628 Y-76.6949
G01 X-79.7181 Y-76.5473
G01 X-79.7050 Y-76.4585
G01 X-79.7050 Y-76.3015
G01 X-79.7181 Y-76.2127
G01 X-79.7637 Y-76.0625
G01 X-79.8021 Y-75.9813
G01 X-79.8893 Y-75.8508
G01 X-79.9469 Y-75.7869
G01 X-80.0108 Y-75.7293
G01 X-80.1413 Y-75.6421
G01 X-80.2225 Y-75.6037
G01 X-80.3736 Y-75.5579
G01 X-80.4615 Y-75.5450
G01 X-80.6185 Y-75.5450
G01 X-80.7073 Y-75.5581
G01 X-80.8549 Y-75.6028
G01 X-81.8097 Y-74.6497
G01 X-81.8984 Y-74.5966
G01 X-81.9917 Y-74.5744
G01 X-92.6042 Y-74.5731
G01 X-92.7026 Y-74.5883
G01 X-92.7826 Y-74.6262
G01 X-92.8353 Y-74.6688
G01 X-97.5909 Y-79.4244
G01 X-103.0332 Y-79.4244
G01 X-105.7628 Y-76.6949
G01 X-105.7181 Y-76.5473
G01 X-105.7050 Y-76.4585
G01 X-105.7050 Y-76.3015
G01 X-105.7181 Y-76.2127
G01 X-105.7637 Y-76.0625
G01 X-105.8021 Y-75.9813
G01 X-105.8893 Y-75.8508
G01 X-105.9469 Y-75.7869
G01 X-106.0108 Y-75.7293
G01 X-106.1413 Y-75.6421
G01 X-106.2225 Y-75.6037
G01 X-106.3736 Y-75.5579
G01 X-106.4615 Y-75.5450
G01 X-106.6185 Y-75.5450
G01 X-106.7073 Y-75.5581
G01 X-106.8549 Y-75.6028
G01 X-107.7949 Y-74.6646
G01 X-107.8835 Y-74.6115
G01 X-107.9768 Y-74.5893
G01 X-118.4691 Y-74.5880
G01 X-118.5648 Y-74.6023
G01 X-118.6475 Y-74.6410
G01 X-118.7002 Y-74.6837
G01 X-123.4409 Y-79.4244
G01 X-129.0332 Y-79.4244
G01 X-131.7628 Y-76.6949
G01 X-131.7179 Y-76.5464
G01 X-131.7013 Y-76.3838
G01 X-131.7057 Y-76.2940
G01 X-131.7363 Y-76.1401
G01 X-131.7666 Y-76.0556
G01 X-131.8447 Y-75.9109
G01 X-131.9443 Y-75.7896
G01 X-132.0108 Y-75.7293
G01 X-132.0772 Y-75.6805
G01 X-132.2156 Y-75.6066
G01 X-132.3801 Y-75.5567
G01 X-132.5362 Y-75.5413
G01 X-132.6260 Y-75.5457
G01 X-132.7799 Y-75.5763
G01 X-132.8575 Y-75.6037
G01 X-133.0091 Y-75.6847
G01 X-133.1304 Y-75.7843
G01 X-133.1859 Y-75.8450
G01 X-133.2815 Y-75.9880
G01 X-133.3415 Y-76.1329
G01 X-133.3621 Y-76.2136
G00 Z2.0000
(Block-name: block)
(Block-expand: 0)
(Block-enable: 1)
G00 X-135.9021 Y-76.2136
G01 F60.00
G01 Z-0.0250
G01 F120.00
G01 X-135.9150 Y-76.3015
G01 X-135.9150 Y-76.4585
G01 X-135.8815 Y-76.6271
G01 X-135.8534 Y-76.7044
G01 X-135.7795 Y-76.8428
G01 X-135.6704 Y-76.9757
G01 X-135.5491 Y-77.0753
G01 X-135.4720 Y-77.1215
G01 X-135.3271 Y-77.1815
G01 X-135.2464 Y-77.2021
G01 X-135.1585 Y-77.2150
G01 X-135.0015 Y-77.2150
G01 X-134.9127 Y-77.2019
G01 X-134.7651 Y-77.1572
G01 X-130.9867 Y-80.9356
G01 X-130.9340 Y-80.9783
G01 X-130.8771 Y-81.0079
G01 X-130.8156 Y-81.0258
G01 X-130.7555 Y-81.0314
G01 X-122.9107 Y-81.0314
G01 X-122.8122 Y-81.0161
G01 X-122.7323 Y-80.9783
G01 X-122.6796 Y-80.9356
G01 X-118.4508 Y-76.7069
G01 X-109.8522 Y-76.7069
G01 X-109.7753 Y-76.8491
G01 X-109.6731 Y-76.9731
G01 X-109.5491 Y-77.0753
G01 X-109.4044 Y-77.1534
G01 X-109.2464 Y-77.2021
G01 X-109.0838 Y-77.2187
G01 X-108.9201 Y-77.2033
G01 X-108.7651 Y-77.1572
G01 X-104.9867 Y-80.9356
G01 X-104.9340 Y-80.9783
G01 X-104.8540 Y-81.0161
G01 X-104.7555 Y-81.0314
G01 X-97.0607 Y-81.0314
G01 X-96.9958 Y-81.0249
G01 X-96.9360 Y-81.0067
G01 X-96.8792 Y-80.9764
G01 X-96.8298 Y-80.9359
G01 X-92.6008 Y-76.7069
G01 X-83.8522 Y-76.7069
G01 X-83.7753 Y-76.8491
G01 X-83.6731 Y-76.9731
G01 X-83.5491 Y-77.0753
G01 X-83.4044 Y-77.1534
G01 X-83.2464 Y-77.2021
G01 X-83.0838 Y-77.2187
G01 X-82.9201 Y-77.2033
G01 X-82.7651 Y-77.1572
G01 X-78.9867 Y-80.9356
G01 X-78.9340 Y-80.9783
G01 X-78.8540 Y-81.0161
G01 X-78.7555 Y-81.0314
G01 X-71.0607 Y-81.0314
G01 X-70.9958 Y-81.0249
G01 X-70.9360 Y-81.0067
G01 X-70.8792 Y-80.9763
G01 X-70.8296 Y-80.9356
G01 X-66.6008 Y-76.7069
G01 X-57.8522 Y-76.7069
G01 X-57.7753 Y-76.8491
G01 X-57.6731 Y-76.9731
G01 X-57.5491 Y-77.0753
G01 X-57.4269 Y-77.1428
G01 X-57.4269 Y-80.1000
G01 X-57.4138 Y-80.1917
G01 X-57.3738 Y-80.2784
G01 X-57.3312 Y-80.3312
G01 X-52.5812 Y-85.0812
G01 X-52.5284 Y-85.1238
G01 X-52.4716 Y-85.1534
G01 X-52.4101 Y-85.1713
G01 X-52.3500 Y-85.1769
G01 X-38.5132 Y-85.1769
G01 X-38.4714 Y-85.2666
G01 X-38.3801 Y-85.4033
G01 X-38.3173 Y-85.4726
G01 X-38.1902 Y-85.5769
G01 X-38.1100 Y-85.6250
G01 X-37.9509 Y-85.6901
G01 X-37.7897 Y-85.7221
G01 X-37.6962 Y-85.7267
G01 X-37.5314 Y-85.7104
G01 X-37.3610 Y-85.6585
G01 X-37.2161 Y-85.5810
G01 X-37.0827 Y-85.4726
G01 X-37.0199 Y-85.4033
G01 X-36.9250 Y-85.2600
G01 X-36.8599 Y-85.1009
G01 X-36.8271 Y-84.9322
G01 X-36.8279 Y-84.7603
G01 X-36.8621 Y-84.5919
G01 X-36.9286 Y-84.4334
G01 X-37.0247 Y-84.2909
G01 X-37.1467 Y-84.1699
G01 X-37.2900 Y-84.0750
G01 X-37.4419 Y-84.0121
G01 X-37.5253 Y-83.9909
G01 X-37.6962 Y-83.9733
G01 X-37.7897 Y-83.9779
G01 X-37.9513 Y-84.0100
G01 X-38.1100 Y-84.0750
G01 X-38.1902 Y-84.1231
G01 X-38.3173 Y-84.2274
G01 X-38.3801 Y-84.2967
G01 X-38.4714 Y-84.4334
G01 X-38.5132 Y-84.5231
G01 X-52.2146 Y-84.5231
G01 X-56.7731 Y-79.9646
G01 X-56.7731 Y-77.1601
G01 X-56.6813 Y-77.1179
G01 X-56.5508 Y-77.0307
G01 X-56.4843 Y-76.9704
G01 X-56.3805 Y-76.8428
G01 X-56.3066 Y-76.7044
G01 X-56.2763 Y-76.6199
G01 X-56.2457 Y-76.4660
G01 X-56.2450 Y-76.3015
G01 X-56.2763 Y-76.1401
G01 X-56.3066 Y-76.0556
G01 X-56.3847 Y-75.9109
G01 X-56.4869 Y-75.7869
G01 X-56.6109 Y-75.6847
G01 X-56.7556 Y-75.6066
G01 X-56.8401 Y-75.5763
G01 X-57.0015 Y-75.5450
G01 X-57.1585 Y-75.5450
G01 X-57.2473 Y-75.5581
G01 X-57.3975 Y-75.6037
G01 X-57.4787 Y-75.6421
G01 X-57.6092 Y-75.7293
G01 X-57.6757 Y-75.7896
G01 X-57.7753 Y-75.9109
G01 X-57.8522 Y-76.0531
G01 X-66.7363 Y-76.0531
G01 X-66.8347 Y-76.0683
G01 X-66.9147 Y-76.1062
G01 X-66.9674 Y-76.1488
G01 X-71.1961 Y-80.3775
G01 X-78.6201 Y-80.3775
G01 X-82.3028 Y-76.6949
G01 X-82.2581 Y-76.5473
G01 X-82.2457 Y-76.4660
G01 X-82.2457 Y-76.2940
G01 X-82.2785 Y-76.1329
G01 X-82.3066 Y-76.0556
G01 X-82.3805 Y-75.9172
G01 X-82.4869 Y-75.7869
G01 X-82.6172 Y-75.6805
G01 X-82.7556 Y-75.6066
G01 X-82.8329 Y-75.5785
G01 X-83.0015 Y-75.5450
G01 X-83.1585 Y-75.5450
G01 X-83.2473 Y-75.5581
G01 X-83.3975 Y-75.6037
G01 X-83.4787 Y-75.6421
G01 X-83.6092 Y-75.7293
G01 X-83.6757 Y-75.7896
G01 X-83.7753 Y-75.9109
G01 X-83.8522 Y-76.0531
G01 X-92.7363 Y-76.0531
G01 X-92.8347 Y-76.0683
G01 X-92.9147 Y-76.1062
G01 X-92.9672 Y-76.1486
G01 X-97.1961 Y-80.3775
G01 X-104.6201 Y-80.3775
G01 X-108.3028 Y-76.6949
G01 X-108.2581 Y-76.5473
G01 X-108.2450 Y-76.4585
G01 X-108.2450 Y-76.3015
G01 X-108.2581 Y-76.2127
G01 X-108.3037 Y-76.0625
G01 X-108.3421 Y-75.9813
G01 X-108.3847 Y-75.9109
G01 X-108.4843 Y-75.7896
G01 X-108.6109 Y-75.6847
G01 X-108.7556 Y-75.6066
G01 X-108.9136 Y-75.5579
G01 X-109.0762 Y-75.5413
G01 X-109.1660 Y-75.5457
G01 X-109.3199 Y-75.5763
G01 X-109.4044 Y-75.6066
G01 X-109.5428 Y-75.6805
G01 X-109.6150 Y-75.7341
G01 X-109.7259 Y-75.8450
G01 X-109.7795 Y-75.9172
G01 X-109.8522 Y-76.0531
G01 X-118.5863 Y-76.0531
G01 X-118.6847 Y-76.0683
G01 X-118.7647 Y-76.1062
G01 X-118.8174 Y-76.1488
G01 X-123.0461 Y-80.3775
G01 X-130.6201 Y-80.3775
G01 X-134.3028 Y-76.6949
G01 X-134.2579 Y-76.5464
G01 X-134.2413 Y-76.3838
G01 X-134.2457 Y-76.2940
G01 X-134.2763 Y-76.1401
G01 X-134.3066 Y-76.0556
G01 X-134.3847 Y-75.9109
G01 X-134.4843 Y-75.7896
G01 X-134.5508 Y-75.7293
G01 X-134.6172 Y-75.6805
G01 X-134.7556 Y-75.6066
G01 X-134.9201 Y-75.5567
G01 X-135.0762 Y-75.5413
G01 X-135.1660 Y-75.5457
G01 X-135.3199 Y-75.5763
G01 X-135.3975 Y-75.6037
G01 X-135.5491 Y-75.6847
G01 X-135.6704 Y-75.7843
G01 X-135.7259 Y-75.8450
G01 X-135.8215 Y-75.9880
G01 X-135.8815 Y-76.1329
G01 X-135.9021 Y-76.2136
G00 X-135.9021 Y-76.2136
G01 F60.00
G01 Z-0.0500
G01 F120.00
G01 X-135.9150 Y-76.3015
G01 X-135.9150 Y-76.4585
G01 X-135.8815 Y-76.6271
G01 X-135.8534 Y-76.7044
G01 X-135.7795 Y-76.8428
G01 X-135.6704 Y-76.9757
G01 X-135.5491 Y-77.0753
G01 X-135.4720 Y-77.1215
G01 X-135.3271 Y-77.1815
G01 X-135.2464 Y-77.2021
G01 X-135.1585 Y-77.2150
G01 X-135.0015 Y-77.2150
G01 X-134.9127 Y-77.2019
G01 X-134.7651 Y-77.1572
G01 X-130.9867 Y-80.9356
G01 X-130.9340 Y-80.9783
G01 X-130.8771 Y-81.0079
G01 X-130.8156 Y-81.0258
G01 X-130.7555 Y-81.0314
G01 X-122.9107 Y-81.0314
G01 X-122.8122 Y-81.0161
G01 X-122.7323 Y-80.9783
G01 X-122.6796 Y-80.9356
G01 X-118.4508 Y-76.7069
G01 X-109.8522 Y-76.7069
G01 X-109.7753 Y-76.8491
G01 X-109.6731 Y-76.9731
G01 X-109.5491 Y-77.0753
G01 X-109.4044 Y-77.1534
G01 X-109.2464 Y-77.2021
G01 X-109.0838 Y-77.2187
G01 X-108.9201 Y-77.2033
G01 X-108.7651 Y-77.1572
G01 X-104.9867 Y-80.9356
G01 X-104.9340 Y-80.9783
G01 X-104.8540 Y-81.0161
G01 X-104.7555 Y-81.0314
G01 X-97.0607 Y-81.0314
G01 X-96.9958 Y-81.0249
G01 X-96.9360 Y-81.0067
G01 X-96.8792 Y-80.9764
G01 X-96.8298 Y-80.9359
G01 X-92.6008 Y-76.7069
G01 X-83.8522 Y-76.7069
G01 X-83.7753 Y-76.8491
G01 X-83.6731 Y-76.9731
G01 X-83.5491 Y-77.0753
G01 X-83.4044 Y-77.1534
G01 X-83.2464 Y-77.2021
G01 X-83.0838 Y-77.2187
G01 X-82.9201 Y-77.2033
G01 X-82.7651 Y-77.1572
G01 X-78.9867 Y-80.9356
G01 X-78.9340 Y-80.9783
G01 X-78.8540 Y-81.0161
G01 X-78.7555 Y-81.0314
G01 X-71.0607 Y-81.0314
G01 X-70.9958 Y-81.0249
G01 X-70.9360 Y-81.0067
G01 X-70.8792 Y-80.9763
G01 X-70.8296 Y-80.9356
G01 X-66.6008 Y-76.7069
G01 X-57.8522 Y-76.7069
G01 X-57.7753 Y-76.8491
G01 X-57.6731 Y-76.9731
G01 X-57.5491 Y-77.0753
G01 X-57.4269 Y-77.1428
G01 X-57.4269 Y-80.1000
G01 X-57.4138 Y-80.1917
G01 X-57.3738 Y-80.2784
G01 X-57.3312 Y-80.3312
G01 X-52.5812 Y-85.0812
G01 X-52.5284 Y-85.1238
G01 X-52.4716 Y-85.1534
G01 X-52.4101 Y-85.1713
G01 X-52.3500 Y-85.1769
G01 X-38.5132 Y-85.1769
G01 X-38.4714 Y-85.2666
G01 X-38.3801 Y-85.4033
G01 X-38.3173 Y-85.4726
G01 X-38.1902 Y-85.5769
G01 X-38.1100 Y-85.6250
G01 X-37.9509 Y-85.6901
G01 X-37.7897 Y-85.7221
G01 X-37.6962 Y-85.7267
G01 X-37.5314 Y-85.7104
G01 X-37.3610 Y-85.6585
G01 X-37.2161 Y-85.5810
G01 X-37.0827 Y-85.4726
G01 X-37.0199 Y-85.4033
G01 X-36.9250 Y-85.2600
G01 X-36.8599 Y-85.1009
G01 X-36.8271 Y-84.9322
G01 X-36.8279 Y-84.7603
G01 X-36.8621 Y-84.5919
G01 X-36.9286 Y-84.4334
G01 X-37.0247 Y-84.2909
G01 X-37.1467 Y-84.1699
G01 X-37.2900 Y-84.0750
G01 X-37.4419 Y-84.0121
G01 X-37.5253 Y-83.9909
G01 X-37.6962 Y-83.9733
G01 X-37.7897 Y-83.9779
G01 X-37.9513 Y-84.0100
G01 X-38.1100 Y-84.0750
G01 X-38.1902 Y-84.1231
G01 X-38.3173 Y-84.2274
G01 X-38.3801 Y-84.2967
G01 X-38.4714 Y-84.4334
G01 X-38.5132 Y-84.5231
G01 X-52.2146 Y-84.5231
G01 X-56.7731 Y-79.9646
G01 X-56.7731 Y-77.1601
G01 X-56.6813 Y-77.1179
G01 X-56.5508 Y-77.0307
G01 X-56.4843 Y-76.9704
G01 X-56.3805 Y-76.8428
G01 X-56.3066 Y-76.7044
G01 X-56.2763 Y-76.6199
G01 X-56.2457 Y-76.4660
G01 X-56.2450 Y-76.3015
G01 X-56.2763 Y-76.1401
G01 X-56.3066 Y-76.0556
G01 X-56.3847 Y-75.9109
G01 X-56.4869 Y-75.7869
G01 X-56.6109 Y-75.6847
G01 X-56.7556 Y-75.6066
G01 X-56.8401 Y-75.5763
G01 X-57.0015 Y-75.5450
G01 X-57.1585 Y-75.5450
G01 X-57.2473 Y-75.5581
G01 X-57.3975 Y-75.6037
G01 X-57.4787 Y-75.6421
G01 X-57.6092 Y-75.7293
G01 X-57.6757 Y-75.7896
G01 X-57.7753 Y-75.9109
G01 X-57.8522 Y-76.0531
G01 X-66.7363 Y-76.0531
G01 X-66.8347 Y-76.0683
G01 X-66.9147 Y-76.1062
G01 X-66.9674 Y-76.1488
G01 X-71.1961 Y-80.3775
G01 X-78.6201 Y-80.3775
G01 X-82.3028 Y-76.6949
G01 X-82.2581 Y-76.5473
G01 X-82.2457 Y-76.4660
G01 X-82.2457 Y-76.2940
G01 X-82.2785 Y-76.1329
G01 X-82.3066 Y-76.0556
G01 X-82.3805 Y-75.9172
G01 X-82.4869 Y-75.7869
G01 X-82.6172 Y-75.6805
G01 X-82.7556 Y-75.6066
G01 X-82.8329 Y-75.5785
G01 X-83.0015 Y-75.5450
G01 X-83.1585 Y-75.5450
G01 X-83.2473 Y-75.5581
G01 X-83.3975 Y-75.6037
G01 X-83.4787 Y-75.6421
G01 X-83.6092 Y-75.7293
G01 X-83.6757 Y-75.7896
G01 X-83.7753 Y-75.9109
G01 X-83.8522 Y-76.0531
G01 X-92.7363 Y-76.0531
G01 X-92.8347 Y-76.0683
G01 X-92.9147 Y-76.1062
G01 X-92.9672 Y-76.1486
G01 X-97.1961 Y-80.3775
G01 X-104.6201 Y-80.3775
G01 X-108.3028 Y-76.6949
G01 X-108.2581 Y-76.5473
G01 X-108.2450 Y-76.4585
G01 X-108.2450 Y-76.3015
G01 X-108.2581 Y-76.2127
G01 X-108.3037 Y-76.0625
G01 X-108.3421 Y-75.9813
G01 X-108.3847 Y-75.9109
G01 X-108.4843 Y-75.7896
G01 X-108.6109 Y-75.6847
G01 X-108.7556 Y-75.6066
G01 X-108.9136 Y-75.5579
G01 X-109.0762 Y-75.5413
G01 X-109.1660 Y-75.5457
G01 X-109.3199 Y-75.5763
G01 X-109.4044 Y-75.6066
G01 X-109.5428 Y-75.6805
G01 X-109.6150 Y-75.7341
G01 X-109.7259 Y-75.8450
G01 X-109.7795 Y-75.9172
G01 X-109.8522 Y-76.0531
G01 X-118.5863 Y-76.0531
G01 X-118.6847 Y-76.0683
G01 X-118.7647 Y-76.1062
G01 X-118.8174 Y-76.1488
G01 X-123.0461 Y-80.3775
G01 X-130.6201 Y-80.3775
G01 X-134.3028 Y-76.6949
G01 X-134.2579 Y-76.5464
G01 X-134.2413 Y-76.3838
G01 X-134.2457 Y-76.2940
G01 X-134.2763 Y-76.1401
G01 X-134.3066 Y-76.0556
G01 X-134.3847 Y-75.9109
G01 X-134.4843 Y-75.7896
G01 X-134.5508 Y-75.7293
G01 X-134.6172 Y-75.6805
G01 X-134.7556 Y-75.6066
G01 X-134.9201 Y-75.5567
G01 X-135.0762 Y-75.5413
G01 X-135.1660 Y-75.5457
G01 X-135.3199 Y-75.5763
G01 X-135.3975 Y-75.6037
G01 X-135.5491 Y-75.6847
G01 X-135.6704 Y-75.7843
G01 X-135.7259 Y-75.8450
G01 X-135.8215 Y-75.9880
G01 X-135.8815 Y-76.1329
G01 X-135.9021 Y-76.2136
G00 X-135.9021 Y-76.2136
G01 F60.00
G01 Z-0.0750
G01 F120.00
G01 X-135.9150 Y-76.3015
G01 X-135.9150 Y-76.4585
G01 X-135.8815 Y-76.6271
G01 X-135.8534 Y-76.7044
G01 X-135.7795 Y-76.8428
G01 X-135.6704 Y-76.9757
G01 X-135.5491 Y-77.0753
G01 X-135.4720 Y-77.1215
G01 X-135.3271 Y-77.1815
G01 X-135.2464 Y-77.2021
G01 X-135.1585 Y-77.2150
G01 X-135.0015 Y-77.2150
G01 X-134.9127 Y-77.2019
G01 X-134.7651 Y-77.1572
G01 X-130.9867 Y-80.9356
G01 X-130.9340 Y-80.9783
G01 X-130.8771 Y-81.0079
G01 X-130.8156 Y-81.0258
G01 X-130.7555 Y-81.0314
G01 X-122.9107 Y-81.0314
G01 X-122.8122 Y-81.0161
G01 X-122.7323 Y-80.9783
G01 X-122.6796 Y-80.9356
G01 X-118.4508 Y-76.7069
G01 X-109.8522 Y-76.7069
G01 X-109.7753 Y-76.8491
G01 X-109.6731 Y-76.9731
G01 X-109.5491 Y-77.0753
G01 X-109.4044 Y-77.1534
G01 X-109.2464 Y-77.2021
G01 X-109.0838 Y-77.2187
G01 X-108.9201 Y-77.2033
G01 X-108.7651 Y-77.1572
G01 X-104.9867 Y-80.9356
G01 X-104.9340 Y-80.9783
G01 X-104.8540 Y-81.0161
G01 X-104.7555 Y-81.0314
G01 X-97.0607 Y-81.0314
G01 X-96.9958 Y-81.0249
G01 X-96.9360 Y-81.0067
G01 X-96.8792 Y-80.9764
G01 X-96.8298 Y-80.9359
G01 X-92.6008 Y-76.7069
G01 X-83.8522 Y-76.7069
G01 X-83.7753 Y-76.8491
G01 X-83.6731 Y-76.9731
G01 X-83.5491 Y-77.0753
G01 X-83.4044 Y-77.1534
G01 X-83.2464 Y-77.2021
G01 X-83.0838 Y-77.2187
G01 X-82.9201 Y-77.2033
G01 X-82.7651 Y-77.1572
G01 X-78.9867 Y-80.9356
G01 X-78.9340 Y-80.9783
G01 X-78.8540 Y-81.0161
G01 X-78.7555 Y-81.0314
G01 X-71.0607 Y-81.0314
G01 X-70.9958 Y-81.0249
G01 X-70.9360 Y-81.0067
G01 X-70.8792 Y-80.9763
G01 X-70.8296 Y-80.9356
G01 X-66.6008 Y-76.7069
G01 X-57.8522 Y-76.7069
G01 X-57.7753 Y-76.8491
G01 X-57.6731 Y-76.9731
G01 X-57.5491 Y-77.0753
G01 X-57.4269 Y-77.1428
G01 X-57.4269 Y-80.1000
G01 X-57.4138 Y-80.1917
G01 X-57.3738 Y-80.2784
G01 X-57.3312 Y-80.3312
G01 X-52.5812 Y-85.0812
G01 X-52.5284 Y-85.1238
G01 X-52.4716 Y-85.1534
G01 X-52.4101 Y-85.1713
G01 X-52.3500 Y-85.1769
G01 X-38.5132 Y-85.1769
G01 X-38.4714 Y-85.2666
G01 X-38.3801 Y-85.4033
G01 X-38.3173 Y-85.4726
G01 X-38.1902 Y-85.5769
G01 X-38.1100 Y-85.6250
G01 X-37.9509 Y-85.6901
G01 X-37.7897 Y-85.7221
G01 X-37.6962 Y-85.7267
G01 X-37.5314 Y-85.7104
G01 X-37.3610 Y-85.6585
G01 X-37.2161 Y-85.5810
G01 X-37.0827 Y-85.4726
G01 X-37.0199 Y-85.4033
G01 X-36.9250 Y-85.2600
G01 X-36.8599 Y-85.1009
G01 X-36.8271 Y-84.9322
G01 X-36.8279 Y-84.7603
G01 X-36.8621 Y-84.5919
G01 X-36.9286 Y-84.4334
G01 X-37.0247 Y-84.2909
G01 X-37.1467 Y-84.1699
G01 X-37.2900 Y-84.0750
G01 X-37.4419 Y-84.0121
G01 X-37.5253 Y-83.9909
G01 X-37.6962 Y-83.9733
G01 X-37.7897 Y-83.9779
G01 X-37.9513 Y-84.0100
G01 X-38.1100 Y-84.0750
G01 X-38.1902 Y-84.1231
G01 X-38.3173 Y-84.2274
G01 X-38.3801 Y-84.2967
G01 X-38.4714 Y-84.4334
G01 X-38.5132 Y-84.5231
G01 X-52.2146 Y-84.5231
G01 X-56.7731 Y-79.9646
G01 X-56.7731 Y-77.1601
G01 X-56.6813 Y-77.1179
G01 X-56.5508 Y-77.0307
G01 X-56.4843 Y-76.9704
G01 X-56.3805 Y-76.8428
G01 X-56.3066 Y-76.7044
G01 X-56.2763 Y-76.6199
G01 X-56.2457 Y-76.4660
G01 X-56.2450 Y-76.3015
G01 X-56.2763 Y-76.1401
G01 X-56.3066 Y-76.0556
G01 X-56.3847 Y-75.9109
G01 X-56.4869 Y-75.7869
G01 X-56.6109 Y-75.6847
G01 X-56.7556 Y-75.6066
G01 X-56.8401 Y-75.5763
G01 X-57.0015 Y-75.5450
G01 X-57.1585 Y-75.5450
G01 X-57.2473 Y-75.5581
G01 X-57.3975 Y-75.6037
G01 X-57.4787 Y-75.6421
G01 X-57.6092 Y-75.7293
G01 X-57.6757 Y-75.7896
G01 X-57.7753 Y-75.9109
G01 X-57.8522 Y-76.0531
G01 X-66.7363 Y-76.0531
G01 X-66.8347 Y-76.0683
G01 X-66.9147 Y-76.1062
G01 X-66.9674 Y-76.1488
G01 X-71.1961 Y-80.3775
G01 X-78.6201 Y-80.3775
G01 X-82.3028 Y-76.6949
G01 X-82.2581 Y-76.5473
G01 X-82.2457 Y-76.4660
G01 X-82.2457 Y-76.2940
G01 X-82.2785 Y-76.1329
G01 X-82.3066 Y-76.0556
G01 X-82.3805 Y-75.9172
G01 X-82.4869 Y-75.7869
G01 X-82.6172 Y-75.6805
G01 X-82.7556 Y-75.6066
G01 X-82.8329 Y-75.5785
G01 X-83.0015 Y-75.5450
G01 X-83.1585 Y-75.5450
G01 X-83.2473 Y-75.5581
G01 X-83.3975 Y-75.6037
G01 X-83.4787 Y-75.6421
G01 X-83.6092 Y-75.7293
G01 X-83.6757 Y-75.7896
G01 X-83.7753 Y-75.9109
G01 X-83.8522 Y-76.0531
G01 X-92.7363 Y-76.0531
G01 X-92.8347 Y-76.0683
G01 X-92.9147 Y-76.1062
G01 X-92.9672 Y-76.1486
G01 X-97.1961 Y-80.3775
G01 X-104.6201 Y-80.3775
G01 X-108.3028 Y-76.6949
G01 X-108.2581 Y-76.5473
G01 X-108.2450 Y-76.4585
G01 X-108.2450 Y-76.3015
G01 X-108.2581 Y-76.2127
G01 X-108.3037 Y-76.0625
G01 X-108.3421 Y-75.9813
G01 X-108.3847 Y-75.9109
G01 X-108.4843 Y-75.7896
G01 X-108.6109 Y-75.6847
G01 X-108.7556 Y-75.6066
G01 X-108.9136 Y-75.5579
G01 X-109.0762 Y-75.5413
G01 X-109.1660 Y-75.5457
G01 X-109.3199 Y-75.5763
G01 X-109.4044 Y-75.6066
G01 X-109.5428 Y-75.6805
G01 X-109.6150 Y-75.7341
G01 X-109.7259 Y-75.8450
G01 X-109.7795 Y-75.9172
G01 X-109.8522 Y-76.0531
G01 X-118.5863 Y-76.0531
G01 X-118.6847 Y-76.0683
G01 X-118.7647 Y-76.1062
G01 X-118.8174 Y-76.1488
G01 X-123.0461 Y-80.3775
G01 X-130.6201 Y-80.3775
G01 X-134.3028 Y-76.6949
G01 X-134.2579 Y-76.5464
G01 X-134.2413 Y-76.3838
G01 X-134.2457 Y-76.2940
G01 X-134.2763 Y-76.1401
G01 X-134.3066 Y-76.0556
G01 X-134.3847 Y-75.9109
G01 X-134.4843 Y-75.7896
G01 X-134.5508 Y-75.7293
G01 X-134.6172 Y-75.6805
G01 X-134.7556 Y-75.6066
G01 X-134.9201 Y-75.5567
G01 X-135.0762 Y-75.5413
G01 X-135.1660 Y-75.5457
G01 X-135.3199 Y-75.5763
G01 X-135.3975 Y-75.6037
G01 X-135.5491 Y-75.6847
G01 X-135.6704 Y-75.7843
G01 X-135.7259 Y-75.8450
G01 X-135.8215 Y-75.9880
G01 X-135.8815 Y-76.1329
G01 X-135.9021 Y-76.2136
G00 X-135.9021 Y-76.2136
G01 F60.00
G01 Z-0.1000
G01 F120.00
G01 X-135.9150 Y-76.3015
G01 X-135.9150 Y-76.4585
G01 X-135.8815 Y-76.6271
G01 X-135.8534 Y-76.7044
G01 X-135.7795 Y-76.8428
G01 X-135.6704 Y-76.9757
G01 X-135.5491 Y-77.0753
G01 X-135.4720 Y-77.1215
G01 X-135.3271 Y-77.1815
G01 X-135.2464 Y-77.2021
G01 X-135.1585 Y-77.2150
G01 X-135.0015 Y-77.2150
G01 X-134.9127 Y-77.2019
G01 X-134.7651 Y-77.1572
G01 X-130.9867 Y-80.9356
G01 X-130.9340 Y-80.9783
G01 X-130.8771 Y-81.0079
G01 X-130.8156 Y-81.0258
G01 X-130.7555 Y-81.0314
G01 X-122.9107 Y-81.0314
G01 X-122.8122 Y-81.0161
G01 X-122.7323 Y-80.9783
G01 X-122.6796 Y-80.9356
G01 X-118.4508 Y-76.7069
G01 X-109.8522 Y-76.7069
G01 X-109.7753 Y-76.8491
G01 X-109.6731 Y-76.9731
G01 X-109.5491 Y-77.0753
G01 X-109.4044 Y-77.1534
G01 X-109.2464 Y-77.2021
G01 X-109.0838 Y-77.2187
G01 X-108.9201 Y-77.2033
G01 X-108.7651 Y-77.1572
G01 X-104.9867 Y-80.9356
G01 X-104.9340 Y-80.9783
G01 X-104.8540 Y-81.0161
G01 X-104.7555 Y-81.0314
G01 X-97.0607 Y-81.0314
G01 X-96.9958 Y-81.0249
G01 X-96.9360 Y-81.0067
G01 X-96.8792 Y-80.9764
G01 X-96.8298 Y-80.9359
G01 X-92.6008 Y-76.7069
G01 X-83.8522 Y-76.7069
G01 X-83.7753 Y-76.8491
G01 X-83.6731 Y-76.9731
G01 X-83.5491 Y-77.0753
G01 X-83.4044 Y-77.1534
G01 X-83.2464 Y-77.2021
G01 X-83.0838 Y-77.2187
G01 X-82.9201 Y-77.2033
G01 X-82.7651 Y-77.1572
G01 X-78.9867 Y-80.9356
G01 X-78.9340 Y-80.9783
G01 X-78.8540 Y-81.0161
G01 X-78.7555 Y-81.0314
G01 X-71.0607 Y-81.0314
G01 X-70.9958 Y-81.0249
G01 X-70.9360 Y-81.0067
G01 X-70.8792 Y-80.9763
G01 X-70.8296 Y-80.9356
G01 X-66.6008 Y-76.7069
G01 X-57.8522 Y-76.7069
G01 X-57.7753 Y-76.8491
G01 X-57.6731 Y-76.9731
G01 X-57.5491 Y-77.0753
G01 X-57.4269 Y-77.1428
G01 X-57.4269 Y-80.1000
G01 X-57.4138 Y-80.1917
G01 X-57.3738 Y-80.2784
G01 X-57.3312 Y-80.3312
G01 X-52.5812 Y-85.0812
G01 X-52.5284 Y-85.1238
G01 X-52.4716 Y-85.1534
G01 X-52.4101 Y-85.1713
G01 X-52.3500 Y-85.1769
G01 X-38.5132 Y-85.1769
G01 X-38.4714 Y-85.2666
G01 X-38.3801 Y-85.4033
G01 X-38.3173 Y-85.4726
G01 X-38.1902 Y-85.5769
G01 X-38.1100 Y-85.6250
G01 X-37.9509 Y-85.6901
G01 X-37.7897 Y-85.7221
G01 X-37.6962 Y-85.7267
G01 X-37.5314 Y-85.7104
G01 X-37.3610 Y-85.6585
G01 X-37.2161 Y-85.5810
G01 X-37.0827 Y-85.4726
G01 X-37.0199 Y-85.4033
G01 X-36.9250 Y-85.2600
G01 X-36.8599 Y-85.1009
G01 X-36.8271 Y-84.9322
G01 X-36.8279 Y-84.7603
G01 X-36.8621 Y-84.5919
G01 X-36.9286 Y-84.4334
G01 X-37.0247 Y-84.2909
G01 X-37.1467 Y-84.1699
G01 X-37.2900 Y-84.0750
G01 X-37.4419 Y-84.0121
G01 X-37.5253 Y-83.9909
G01 X-37.6962 Y-83.9733
G01 X-37.7897 Y-83.9779
G01 X-37.9513 Y-84.0100
G01 X-38.1100 Y-84.0750
G01 X-38.1902 Y-84.1231
G01 X-38.3173 Y-84.2274
G01 X-38.3801 Y-84.2967
G01 X-38.4714 Y-84.4334
G01 X-38.5132 Y-84.5231
G01 X-52.2146 Y-84.5231
G01 X-56.7731 Y-79.9646
G01 X-56.7731 Y-77.1601
G01 X-56.6813 Y-77.1179
G01 X-56.5508 Y-77.0307
G01 X-56.4843 Y-76.9704
G01 X-56.3805 Y-76.8428
G01 X-56.3066 Y-76.7044
G01 X-56.2763 Y-76.6199
G01 X-56.2457 Y-76.4660
G01 X-56.2450 Y-76.3015
G01 X-56.2763 Y-76.1401
G01 X-56.3066 Y-76.0556
G01 X-56.3847 Y-75.9109
G01 X-56.4869 Y-75.7869
G01 X-56.6109 Y-75.6847
G01 X-56.7556 Y-75.6066
G01 X-56.8401 Y-75.5763
G01 X-57.0015 Y-75.5450
G01 X-57.1585 Y-75.5450
G01 X-57.2473 Y-75.5581
G01 X-57.3975 Y-75.6037
G01 X-57.4787 Y-75.6421
G01 X-57.6092 Y-75.7293
G01 X-57.6757 Y-75.7896
G01 X-57.7753 Y-75.9109
G01 X-57.8522 Y-76.0531
G01 X-66.7363 Y-76.0531
G01 X-66.8347 Y-76.0683
G01 X-66.9147 Y-76.1062
G01 X-66.9674 Y-76.1488
G01 X-71.1961 Y-80.3775
G01 X-78.6201 Y-80.3775
G01 X-82.3028 Y-76.6949
G01 X-82.2581 Y-76.5473
G01 X-82.2457 Y-76.4660
G01 X-82.2457 Y-76.2940
G01 X-82.2785 Y-76.1329
G01 X-82.3066 Y-76.0556
G01 X-82.3805 Y-75.9172
G01 X-82.4869 Y-75.7869
G01 X-82.6172 Y-75.6805
G01 X-82.7556 Y-75.6066
G01 X-82.8329 Y-75.5785
G01 X-83.0015 Y-75.5450
G01 X-83.1585 Y-75.5450
G01 X-83.2473 Y-75.5581
G01 X-83.3975 Y-75.6037
G01 X-83.4787 Y-75.6421
G01 X-83.6092 Y-75.7293
G01 X-83.6757 Y-75.7896
G01 X-83.7753 Y-75.9109
G01 X-83.8522 Y-76.0531
G01 X-92.7363 Y-76.0531
G01 X-92.8347 Y-76.0683
G01 X-92.9147 Y-76.1062
G01 X-92.9672 Y-76.1486
G01 X-97.1961 Y-80.3775
G01 X-104.6201 Y-80.3775
G01 X-108.3028 Y-76.6949
G01 X-108.2581 Y-76.5473
G01 X-108.2450 Y-76.4585
G01 X-108.2450 Y-76.3015
G01 X-108.2581 Y-76.2127
G01 X-108.3037 Y-76.0625
G01 X-108.3421 Y-75.9813
G01 X-108.3847 Y-75.9109
G01 X-108.4843 Y-75.7896
G01 X-108.6109 Y-75.6847
G01 X-108.7556 Y-75.6066
G01 X-108.9136 Y-75.5579
G01 X-109.0762 Y-75.5413
G01 X-109.1660 Y-75.5457
G01 X-109.3199 Y-75.5763
G01 X-109.4044 Y-75.6066
G01 X-109.5428 Y-75.6805
G01 X-109.6150 Y-75.7341
G01 X-109.7259 Y-75.8450
G01 X-109.7795 Y-75.9172
G01 X-109.8522 Y-76.0531
G01 X-118.5863 Y-76.0531
G01 X-118.6847 Y-76.0683
G01 X-118.7647 Y-76.1062
G01 X-118.8174 Y-76.1488
G01 X-123.0461 Y-80.3775
G01 X-130.6201 Y-80.3775
G01 X-134.3028 Y-76.6949
G01 X-134.2579 Y-76.5464
G01 X-134.2413 Y-76.3838
G01 X-134.2457 Y-76.2940
G01 X-134.2763 Y-76.1401
G01 X-134.3066 Y-76.0556
G01 X-134.3847 Y-75.9109
G01 X-134.4843 Y-75.7896
G01 X-134.5508 Y-75.7293
G01 X-134.6172 Y-75.6805
G01 X-134.7556 Y-75.6066
G01 X-134.9201 Y-75.5567
G01 X-135.0762 Y-75.5413
G01 X-135.1660 Y-75.5457
G01 X-135.3199 Y-75.5763
G01 X-135.3975 Y-75.6037
G01 X-135.5491 Y-75.6847
G01 X-135.6704 Y-75.7843
G01 X-135.7259 Y-75.8450
G01 X-135.8215 Y-75.9880
G01 X-135.8815 Y-76.1329
G01 X-135.9021 Y-76.2136
G00 Z2.0000
(Block-name: block)
(Block-expand: 0)
(Block-enable: 1)
G00 X-136.9249 Y-75.5642
G01 F60.00
G01 Z-0.0250
G01 F120.00
G01 X-136.9268 Y-77.1038
G01 X-136.9117 Y-77.1985
G01 X-136.8900 Y-77.2507
G01 X-136.8550 Y-77.3044
G01 X-132.2312 Y-81.9312
G01 X-132.1507 Y-81.9900
G01 X-132.0985 Y-82.0117
G01 X-132.0358 Y-82.0249
G01 X-60.0354 Y-82.0269
G01 X-55.7312 Y-86.3312
G01 X-55.6574 Y-86.3865
G01 X-55.5675 Y-86.4198
G01 X-55.5000 Y-86.4269
G01 X-38.6854 Y-86.4269
G01 X-36.4769 Y-88.6354
G01 X-36.4756 Y-89.8283
G01 X-36.4534 Y-89.9216
G01 X-36.4050 Y-90.0044
G01 X-33.3812 Y-93.0312
G01 X-33.3074 Y-93.0865
G01 X-33.2413 Y-93.1139
G01 X-33.1500 Y-93.1269
G01 X-27.2000 Y-93.1269
G01 X-27.1325 Y-93.1198
G01 X-27.0426 Y-93.0865
G01 X-26.9688 Y-93.0312
G01 X-25.3138 Y-91.3762
G01 X-25.2550 Y-91.2957
G01 X-25.2333 Y-91.2435
G01 X-25.2201 Y-91.1808
G01 X-25.2181 Y-89.6668
G01 X-25.1791 Y-89.5944
G01 X-25.1682 Y-89.5250
G01 X-25.1683 Y-87.7712
G01 X-25.1791 Y-87.7056
G01 X-25.2174 Y-87.6341
G01 X-25.2659 Y-87.5886
G01 X-25.3328 Y-87.5570
G01 X-25.3950 Y-87.5482
G01 X-25.6950 Y-87.5482
G01 X-25.7576 Y-87.5571
G01 X-25.8178 Y-87.5844
G01 X-25.8679 Y-87.6283
G01 X-25.8967 Y-87.6715
G01 X-25.9181 Y-87.7345
G01 X-25.9218 Y-89.5250
G01 X-25.9109 Y-89.5944
G01 X-25.8719 Y-89.6668
G01 X-25.8719 Y-91.0096
G01 X-27.3354 Y-92.4731
G01 X-33.0146 Y-92.4731
G01 X-35.8231 Y-89.6646
G01 X-35.8232 Y-88.4962
G01 X-35.8383 Y-88.4015
G01 X-35.8803 Y-88.3153
G01 X-35.9188 Y-88.2688
G01 X-38.3188 Y-85.8688
G01 X-38.3716 Y-85.8262
G01 X-38.4284 Y-85.7966
G01 X-38.4899 Y-85.7787
G01 X-38.5500 Y-85.7731
G01 X-55.3646 Y-85.7731
G01 X-59.6688 Y-81.4688
G01 X-59.7493 Y-81.4100
G01 X-59.8015 Y-81.3883
G01 X-59.8642 Y-81.3751
G01 X-131.8646 Y-81.3731
G01 X-136.2731 Y-76.9646
G01 X-136.2731 Y-75.7354
G01 X-135.7646 Y-75.2269
G01 X-131.6154 Y-75.2269
G01 X-130.7772 Y-76.0651
G01 X-130.8219 Y-76.2127
G01 X-130.8350 Y-76.3015
G01 X-130.8350 Y-76.4585
G01 X-130.8219 Y-76.5473
G01 X-130.7763 Y-76.6975
G01 X-130.7379 Y-76.7787
G01 X-130.6507 Y-76.9092
G01 X-130.5931 Y-76.9731
G01 X-130.5292 Y-77.0307
G01 X-130.3987 Y-77.1179
G01 X-130.3175 Y-77.1563
G01 X-130.1664 Y-77.2021
G01 X-130.0785 Y-77.2150
G01 X-129.9215 Y-77.2150
G01 X-129.8327 Y-77.2019
G01 X-129.6851 Y-77.1572
G01 X-127.8129 Y-79.0294
G01 X-127.7325 Y-79.0882
G01 X-127.6492 Y-79.1180
G01 X-127.5818 Y-79.1252
G01 X-123.6720 Y-79.1239
G01 X-123.5718 Y-79.0987
G01 X-123.5156 Y-79.0679
G01 X-123.4691 Y-79.0294
G01 X-118.7284 Y-74.2887
G01 X-106.5536 Y-74.2887
G01 X-104.7772 Y-76.0651
G01 X-104.8219 Y-76.2127
G01 X-104.8350 Y-76.3015
G01 X-104.8350 Y-76.4585
G01 X-104.8219 Y-76.5473
G01 X-104.7763 Y-76.6975
G01 X-104.7379 Y-76.7787
G01 X-104.6507 Y-76.9092
G01 X-104.5931 Y-76.9731
G01 X-104.5292 Y-77.0307
G01 X-104.3987 Y-77.1179
G01 X-104.3175 Y-77.1563
G01 X-104.1664 Y-77.2021
G01 X-104.0785 Y-77.2150
G01 X-103.9215 Y-77.2150
G01 X-103.8327 Y-77.2019
G01 X-103.6851 Y-77.1572
G01 X-101.8129 Y-79.0294
G01 X-101.7392 Y-79.0847
G01 X-101.6730 Y-79.1121
G01 X-101.5818 Y-79.1252
G01 X-97.8465 Y-79.1251
G01 X-97.7829 Y-79.1180
G01 X-97.7218 Y-79.0987
G01 X-97.6656 Y-79.0679
G01 X-97.6191 Y-79.0294
G01 X-92.8635 Y-74.2738
G01 X-80.5685 Y-74.2738
G01 X-78.7772 Y-76.0651
G01 X-78.8219 Y-76.2127
G01 X-78.8350 Y-76.3015
G01 X-78.8350 Y-76.4585
G01 X-78.8219 Y-76.5473
G01 X-78.7763 Y-76.6975
G01 X-78.7379 Y-76.7787
G01 X-78.6507 Y-76.9092
G01 X-78.5931 Y-76.9731
G01 X-78.5292 Y-77.0307
G01 X-78.3987 Y-77.1179
G01 X-78.3175 Y-77.1563
G01 X-78.1664 Y-77.2021
G01 X-78.0785 Y-77.2150
G01 X-77.9215 Y-77.2150
G01 X-77.8327 Y-77.2019
G01 X-77.6851 Y-77.1572
G01 X-75.8129 Y-79.0294
G01 X-75.7392 Y-79.0847
G01 X-75.6730 Y-79.1121
G01 X-75.5818 Y-79.1252
G01 X-71.8465 Y-79.1251
G01 X-71.7829 Y-79.1180
G01 X-71.7218 Y-79.0987
G01 X-71.6656 Y-79.0679
G01 X-71.6191 Y-79.0294
G01 X-66.8635 Y-74.2738
G01 X-54.5685 Y-74.2738
G01 X-52.7772 Y-76.0651
G01 X-52.8221 Y-76.2136
G01 X-52.8387 Y-76.3762
G01 X-52.8343 Y-76.4660
G01 X-52.8037 Y-76.6199
G01 X-52.7734 Y-76.7044
G01 X-52.6995 Y-76.8428
G01 X-52.6459 Y-76.9150
G01 X-52.5350 Y-77.0259
G01 X-52.4628 Y-77.0795
G01 X-52.3175 Y-77.1563
G01 X-52.1664 Y-77.2021
G01 X-52.0038 Y-77.2187
G01 X-51.9140 Y-77.2143
G01 X-51.7529 Y-77.1815
G01 X-51.6013 Y-77.1179
G01 X-51.4650 Y-77.0259
G01 X-51.3493 Y-76.9092
G01 X-51.2585 Y-76.7720
G01 X-51.1963 Y-76.6199
G01 X-51.1650 Y-76.4585
G01 X-51.1657 Y-76.2940
G01 X-51.1985 Y-76.1329
G01 X-51.2621 Y-75.9813
G01 X-51.3541 Y-75.8450
G01 X-51.4650 Y-75.7341
G01 X-51.5372 Y-75.6805
G01 X-51.6756 Y-75.6066
G01 X-51.7601 Y-75.5763
G01 X-51.9140 Y-75.5457
G01 X-52.0038 Y-75.5413
G01 X-52.1599 Y-75.5567
G01 X-52.3149 Y-75.6028
G01 X-54.2047 Y-73.7131
G01 X-54.2484 Y-73.6772
G01 X-54.3046 Y-73.6464
G01 X-54.3973 Y-73.6220
G01 X-66.9990 Y-73.6200
G01 X-67.0906 Y-73.6331
G01 X-67.1564 Y-73.6604
G01 X-67.2301 Y-73.7157
G01 X-71.9857 Y-78.4713
G01 X-75.4464 Y-78.4713
G01 X-77.2228 Y-76.6949
G01 X-77.1781 Y-76.5473
G01 X-77.1650 Y-76.4585
G01 X-77.1650 Y-76.3015
G01 X-77.1781 Y-76.2127
G01 X-77.2237 Y-76.0625
G01 X-77.2621 Y-75.9813
G01 X-77.3493 Y-75.8508
G01 X-77.4069 Y-75.7869
G01 X-77.4708 Y-75.7293
G01 X-77.6013 Y-75.6421
G01 X-77.6825 Y-75.6037
G01 X-77.8336 Y-75.5579
G01 X-77.9215 Y-75.5450
G01 X-78.0785 Y-75.5450
G01 X-78.1673 Y-75.5581
G01 X-78.3149 Y-75.6028
G01 X-80.2047 Y-73.7131
G01 X-80.2547 Y-73.6730
G01 X-80.3115 Y-73.6435
G01 X-80.3657 Y-73.6271
G01 X-80.4294 Y-73.6200
G01 X-92.9990 Y-73.6200
G01 X-93.0906 Y-73.6331
G01 X-93.1564 Y-73.6604
G01 X-93.2301 Y-73.7157
G01 X-97.9857 Y-78.4713
G01 X-101.4464 Y-78.4713
G01 X-103.2228 Y-76.6949
G01 X-103.1781 Y-76.5473
G01 X-103.1650 Y-76.4585
G01 X-103.1650 Y-76.3015
G01 X-103.1781 Y-76.2127
G01 X-103.2237 Y-76.0625
G01 X-103.2621 Y-75.9813
G01 X-103.3493 Y-75.8508
G01 X-103.4069 Y-75.7869
G01 X-103.4708 Y-75.7293
G01 X-103.6013 Y-75.6421
G01 X-103.6825 Y-75.6037
G01 X-103.8336 Y-75.5579
G01 X-103.9215 Y-75.5450
G01 X-104.0785 Y-75.5450
G01 X-104.1673 Y-75.5581
G01 X-104.3149 Y-75.6028
G01 X-106.1898 Y-73.7280
G01 X-106.2335 Y-73.6921
G01 X-106.2897 Y-73.6613
G01 X-106.3899 Y-73.6361
G01 X-118.8639 Y-73.6348
G01 X-118.9555 Y-73.6480
G01 X-119.0212 Y-73.6753
G01 X-119.0950 Y-73.7306
G01 X-123.8357 Y-78.4713
G01 X-127.4464 Y-78.4713
G01 X-129.2228 Y-76.6949
G01 X-129.1781 Y-76.5473
G01 X-129.1650 Y-76.4585
G01 X-129.1650 Y-76.3015
G01 X-129.1781 Y-76.2127
G01 X-129.2237 Y-76.0625
G01 X-129.2621 Y-75.9813
G01 X-129.3493 Y-75.8508
G01 X-129.4069 Y-75.7869
G01 X-129.4708 Y-75.7293
G01 X-129.6013 Y-75.6421
G01 X-129.6825 Y-75.6037
G01 X-129.8336 Y-75.5579
G01 X-129.9215 Y-75.5450
G01 X-130.0785 Y-75.5450
G01 X-130.1673 Y-75.5581
G01 X-130.3149 Y-75.6028
G01 X-131.2516 Y-74.6662
G01 X-131.3293 Y-74.6100
G01 X-131.4125 Y-74.5802
G01 X-131.4800 Y-74.5731
G01 X-135.9000 Y-74.5731
G01 X-135.9610 Y-74.5789
G01 X-136.0507 Y-74.6100
G01 X-136.1284 Y-74.6662
G01 X-136.8312 Y-75.3688
G01 X-136.8900 Y-75.4493
G01 X-136.9117 Y-75.5015
G01 X-136.9249 Y-75.5642
G00 X-136.9249 Y-75.5642
G01 F60.00
G01 Z-0.0500
G01 F120.00
G01 X-136.9268 Y-77.1038
G01 X-136.9117 Y-77.1985
G01 X-136.8900 Y-77.2507
G01 X-136.8550 Y-77.3044
G01 X-132.2312 Y-81.9312
G01 X-132.1507 Y-81.9900
G01 X-132.0985 Y-82.0117
G01 X-132.0358 Y-82.0249
G01 X-60.0354 Y-82.0269
G01 X-55.7312 Y-86.3312
G01 X-55.6574 Y-86.3865
G01 X-55.5675 Y-86.4198
G01 X-55.5000 Y-86.4269
G01 X-38.6854 Y-86.4269
G01 X-36.4769 Y-88.6354
G01 X-36.4756 Y-89.8283
G01 X-36.4534 Y-89.9216
G01 X-36.4050 Y-90.0044
G01 X-33.3812 Y-93.0312
G01 X-33.3074 Y-93.0865
G01 X-33.2413 Y-93.1139
G01 X-33.1500 Y-93.1269
G01 X-27.2000 Y-93.1269
G01 X-27.1325 Y-93.1198
G01 X-27.0426 Y-93.0865
G01 X-26.9688 Y-93.0312
G01 X-25.3138 Y-91.3762
G01 X-25.2550 Y-91.2957
G01 X-25.2333 Y-91.2435
G01 X-25.2201 Y-91.1808
G01 X-25.2181 Y-89.6668
G01 X-25.1791 Y-89.5944
G01 X-25.1682 Y-89.5250
G01 X-25.1683 Y-87.7712
G01 X-25.1791 Y-87.7056
G01 X-25.2174 Y-87.6341
G01 X-25.2659 Y-87.5886
G01 X-25.3328 Y-87.5570
G01 X-25.3950 Y-87.5482
G01 X-25.6950 Y-87.5482
G01 X-25.7576 Y-87.5571
G01 X-25.8178 Y-87.5844
G01 X-25.8679 Y-87.6283
G01 X-25.8967 Y-87.6715
G01 X-25.9181 Y-87.7345
G01 X-25.9218 Y-89.5250
G01 X-25.9109 Y-89.5944
G01 X-25.8719 Y-89.6668
G01 X-25.8719 Y-91.0096
G01 X-27.3354 Y-92.4731
G01 X-33.0146 Y-92.4731
G01 X-35.8231 Y-89.6646
G01 X-35.8232 Y-88.4962
G01 X-35.8383 Y-88.4015
G01 X-35.8803 Y-88.3153
G01 X-35.9188 Y-88.2688
G01 X-38.3188 Y-85.8688
G01 X-38.3716 Y-85.8262
G01 X-38.4284 Y-85.7966
G01 X-38.4899 Y-85.7787
G01 X-38.5500 Y-85.7731
G01 X-55.3646 Y-85.7731
G01 X-59.6688 Y-81.4688
G01 X-59.7493 Y-81.4100
G01 X-59.8015 Y-81.3883
G01 X-59.8642 Y-81.3751
G01 X-131.8646 Y-81.3731
G01 X-136.2731 Y-76.9646
G01 X-136.2731 Y-75.7354
G01 X-135.7646 Y-75.2269
G01 X-131.6154 Y-75.2269
G01 X-130.7772 Y-76.0651
G01 X-130.8219 Y-76.2127
G01 X-130.8350 Y-76.3015
G01 X-130.8350 Y-76.4585
G01 X-130.8219 Y-76.5473
G01 X-130.7763 Y-76.6975
G01 X-130.7379 Y-76.7787
G01 X-130.6507 Y-76.9092
G01 X-130.5931 Y-76.9731
G01 X-130.5292 Y-77.0307
G01 X-130.3987 Y-77.1179
G01 X-130.3175 Y-77.1563
G01 X-130.1664 Y-77.2021
G01 X-130.0785 Y-77.2150
G01 X-129.9215 Y-77.2150
G01 X-129.8327 Y-77.2019
G01 X-129.6851 Y-77.1572
G01 X-127.8129 Y-79.0294
G01 X-127.7325 Y-79.0882
G01 X-127.6492 Y-79.1180
G01 X-127.5818 Y-79.1252
G01 X-123.6720 Y-79.1239
G01 X-123.5718 Y-79.0987
G01 X-123.5156 Y-79.0679
G01 X-123.4691 Y-79.0294
G01 X-118.7284 Y-74.2887
G01 X-106.5536 Y-74.2887
G01 X-104.7772 Y-76.0651
G01 X-104.8219 Y-76.2127
G01 X-104.8350 Y-76.3015
G01 X-104.8350 Y-76.4585
G01 X-104.8219 Y-76.5473
G01 X-104.7763 Y-76.6975
G01 X-104.7379 Y-76.7787
G01 X-104.6507 Y-76.9092
G01 X-104.5931 Y-76.9731
G01 X-104.5292 Y-77.0307
G01 X-104.3987 Y-77.1179
G01 X-104.3175 Y-77.1563
G01 X-104.1664 Y-77.2021
G01 X-104.0785 Y-77.2150
G01 X-103.9215 Y-77.2150
G01 X-103.8327 Y-77.2019
G01 X-103.6851 Y-77.1572
G01 X-101.8129 Y-79.0294
G01 X-101.7392 Y-79.0847
G01 X-101.6730 Y-79.1121
G01 X-101.5818 Y-79.1252
G01 X-97.8465 Y-79.1251
G01 X-97.7829 Y-79.1180
G01 X-97.7218 Y-79.0987
G01 X-97.6656 Y-79.0679
G01 X-97.6191 Y-79.0294
G01 X-92.8635 Y-74.2738
G01 X-80.5685 Y-74.2738
G01 X-78.7772 Y-76.0651
G01 X-78.8219 Y-76.2127
G01 X-78.8350 Y-76.3015
G01 X-78.8350 Y-76.4585
G01 X-78.8219 Y-76.5473
G01 X-78.7763 Y-76.6975
G01 X-78.7379 Y-76.7787
G01 X-78.6507 Y-76.9092
G01 X-78.5931 Y-76.9731
G01 X-78.5292 Y-77.0307
G01 X-78.3987 Y-77.1179
G01 X-78.3175 Y-77.1563
G01 X-78.1664 Y-77.2021
G01 X-78.0785 Y-77.2150
G01 X-77.9215 Y-77.2150
G01 X-77.8327 Y-77.2019
G01 X-77.6851 Y-77.1572
G01 X-75.8129 Y-79.0294
G01 X-75.7392 Y-79.0847
G01 X-75.6730 Y-79.1121
G01 X-75.5818 Y-79.1252
G01 X-71.8465 Y-79.1251
G01 X-71.7829 Y-79.1180
G01 X-71.7218 Y-79.0987
G01 X-71.6656 Y-79.0679
G01 X-71.6191 Y-79.0294
G01 X-66.8635 Y-74.2738
G01 X-54.5685 Y-74.2738
G01 X-52.7772 Y-76.0651
G01 X-52.8221 Y-76.2136
G01 X-52.8387 Y-76.3762
G01 X-52.8343 Y-76.4660
G01 X-52.8037 Y-76.6199
G01 X-52.7734 Y-76.7044
G01 X-52.6995 Y-76.8428
G01 X-52.6459 Y-76.9150
G01 X-52.5350 Y-77.0259
G01 X-52.4628 Y-77.0795
G01 X-52.3175 Y-77.1563
G01 X-52.1664 Y-77.2021
G01 X-52.0038 Y-77.2187
G01 X-51.9140 Y-77.2143
G01 X-51.7529 Y-77.1815
G01 X-51.6013 Y-77.1179
G01 X-51.4650 Y-77.0259
G01 X-51.3493 Y-76.9092
G01 X-51.2585 Y-76.7720
G01 X-51.1963 Y-76.6199
G01 X-51.1650 Y-76.4585
G01 X-51.1657 Y-76.2940
G01 X-51.1985 Y-76.1329
G01 X-51.2621 Y-75.9813
G01 X-51.3541 Y-75.8450
G01 X-51.4650 Y-75.7341
G01 X-51.5372 Y-75.6805
G01 X-51.6756 Y-75.6066
G01 X-51.7601 Y-75.5763
G01 X-51.9140 Y-75.5457
G01 X-52.0038 Y-75.5413
G01 X-52.1599 Y-75.5567
G01 X-52.3149 Y-75.6028
G01 X-54.2047 Y-73.7131
G01 X-54.2484 Y-73.6772
G01 X-54.3046 Y-73.6464
G01 X-54.3973 Y-73.6220
G01 X-66.9990 Y-73.6200
G01 X-67.0906 Y-73.6331
G01 X-67.1564 Y-73.6604
G01 X-67.2301 Y-73.7157
G01 X-71.9857 Y-78.4713
G01 X-75.4464 Y-78.4713
G01 X-77.2228 Y-76.6949
G01 X-77.1781 Y-76.5473
G01 X-77.1650 Y-76.4585
G01 X-77.1650 Y-76.3015
G01 X-77.1781 Y-76.2127
G01 X-77.2237 Y-76.0625
G01 X-77.2621 Y-75.9813
G01 X-77.3493 Y-75.8508
G01 X-77.4069 Y-75.7869
G01 X-77.4708 Y-75.7293
G01 X-77.6013 Y-75.6421
G01 X-77.6825 Y-75.6037
G01 X-77.8336 Y-75.5579
G01 X-77.9215 Y-75.5450
G01 X-78.0785 Y-75.5450
G01 X-78.1673 Y-75.5581
G01 X-78.3149 Y-75.6028
G01 X-80.2047 Y-73.7131
G01 X-80.2547 Y-73.6730
G01 X-80.3115 Y-73.6435
G01 X-80.3657 Y-73.6271
G01 X-80.4294 Y-73.6200
G01 X-92.9990 Y-73.6200
G01 X-93.0906 Y-73.6331
G01 X-93.1564 Y-73.6604
G01 X-93.2301 Y-73.7157
G01 X-97.9857 Y-78.4713
G01 X-101.4464 Y-78.4713
G01 X-103.2228 Y-76.6949
G01 X-103.1781 Y-76.5473
G01 X-103.1650 Y-76.4585
G01 X-103.1650 Y-76.3015
G01 X-103.1781 Y-76.2127
G01 X-103.2237 Y-76.0625
G01 X-103.2621 Y-75.9813
G01 X-103.3493 Y-75.8508
G01 X-103.4069 Y-75.7869
G01 X-103.4708 Y-75.7293
G01 X-103.6013 Y-75.6421
G01 X-103.6825 Y-75.6037
G01 X-103.8336 Y-75.5579
G01 X-103.9215 Y-75.5450
G01 X-104.0785 Y-75.5450
G01 X-104.1673 Y-75.5581
G01 X-104.3149 Y-75.6028
G01 X-106.1898 Y-73.7280
G01 X-106.2335 Y-73.6921
G01 X-106.2897 Y-73.6613
G01 X-106.3899 Y-73.6361
G01 X-118.8639 Y-73.6348
G01 X-118.9555 Y-73.6480
G01 X-119.0212 Y-73.6753
G01 X-119.0950 Y-73.7306
G01 X-123.8357 Y-78.4713
G01 X-127.4464 Y-78.4713
G01 X-129.2228 Y-76.6949
G01 X-129.1781 Y-76.5473
G01 X-129.1650 Y-76.4585
G01 X-129.1650 Y-76.3015
G01 X-129.1781 Y-76.2127
G01 X-129.2237 Y-76.0625
G01 X-129.2621 Y-75.9813
G01 X-129.3493 Y-75.8508
G01 X-129.4069 Y-75.7869
G01 X-129.4708 Y-75.7293
G01 X-129.6013 Y-75.6421
G01 X-129.6825 Y-75.6037
G01 X-129.8336 Y-75.5579
G01 X-129.9215 Y-75.5450
G01 X-130.0785 Y-75.5450
G01 X-130.1673 Y-75.5581
G01 X-130.3149 Y-75.6028
G01 X-131.2516 Y-74.6662
G01 X-131.3293 Y-74.6100
G01 X-131.4125 Y-74.5802
G01 X-131.4800 Y-74.5731
G01 X-135.9000 Y-74.5731
G01 X-135.9610 Y-74.5789
G01 X-136.0507 Y-74.6100
G01 X-136.1284 Y-74.6662
G01 X-136.8312 Y-75.3688
G01 X-136.8900 Y-75.4493
G01 X-136.9117 Y-75.5015
G01 X-136.9249 Y-75.5642
G00 X-136.9249 Y-75.5642
G01 F60.00
G01 Z-0.0750
G01 F120.00
G01 X-136.9268 Y-77.1038
G01 X-136.9117 Y-77.1985
G01 X-136.8900 Y-77.2507
G01 X-136.8550 Y-77.3044
G01 X-132.2312 Y-81.9312
G01 X-132.1507 Y-81.9900
G01 X-132.0985 Y-82.0117
G01 X-132.0358 Y-82.0249
G01 X-60.0354 Y-82.0269
G01 X-55.7312 Y-86.3312
G01 X-55.6574 Y-86.3865
G01 X-55.5675 Y-86.4198
G01 X-55.5000 Y-86.4269
G01 X-38.6854 Y-86.4269
G01 X-36.4769 Y-88.6354
G01 X-36.4756 Y-89.8283
G01 X-36.4534 Y-89.9216
G01 X-36.4050 Y-90.0044
G01 X-33.3812 Y-93.0312
G01 X-33.3074 Y-93.0865
G01 X-33.2413 Y-93.1139
G01 X-33.1500 Y-93.1269
G01 X-27.2000 Y-93.1269
G01 X-27.1325 Y-93.1198
G01 X-27.0426 Y-93.0865
G01 X-26.9688 Y-93.0312
G01 X-25.3138 Y-91.3762
G01 X-25.2550 Y-91.2957
G01 X-25.2333 Y-91.2435
G01 X-25.2201 Y-91.1808
G01 X-25.2181 Y-89.6668
G01 X-25.1791 Y-89.5944
G01 X-25.1682 Y-89.5250
G01 X-25.1683 Y-87.7712
G01 X-25.1791 Y-87.7056
G01 X-25.2174 Y-87.6341
G01 X-25.2659 Y-87.5886
G01 X-25.3328 Y-87.5570
G01 X-25.3950 Y-87.5482
G01 X-25.6950 Y-87.5482
G01 X-25.7576 Y-87.5571
G01 X-25.8178 Y-87.5844
G01 X-25.8679 Y-87.6283
G01 X-25.8967 Y-87.6715
G01 X-25.9181 Y-87.7345
G01 X-25.9218 Y-89.5250
G01 X-25.9109 Y-89.5944
G01 X-25.8719 Y-89.6668
G01 X-25.8719 Y-91.0096
G01 X-27.3354 Y-92.4731
G01 X-33.0146 Y-92.4731
G01 X-35.8231 Y-89.6646
G01 X-35.8232 Y-88.4962
G01 X-35.8383 Y-88.4015
G01 X-35.8803 Y-88.3153
G01 X-35.9188 Y-88.2688
G01 X-38.3188 Y-85.8688
G01 X-38.3716 Y-85.8262
G01 X-38.4284 Y-85.7966
G01 X-38.4899 Y-85.7787
G01 X-38.5500 Y-85.7731
G01 X-55.3646 Y-85.7731
G01 X-59.6688 Y-81.4688
G01 X-59.7493 Y-81.4100
G01 X-59.8015 Y-81.3883
G01 X-59.8642 Y-81.3751
G01 X-131.8646 Y-81.3731
G01 X-136.2731 Y-76.9646
G01 X-136.2731 Y-75.7354
G01 X-135.7646 Y-75.2269
G01 X-131.6154 Y-75.2269
G01 X-130.7772 Y-76.0651
G01 X-130.8219 Y-76.2127
G01 X-130.8350 Y-76.3015
G01 X-130.8350 Y-76.4585
G01 X-130.8219 Y-76.5473
G01 X-130.7763 Y-76.6975
G01 X-130.7379 Y-76.7787
G01 X-130.6507 Y-76.9092
G01 X-130.5931 Y-76.9731
G01 X-130.5292 Y-77.0307
G01 X-130.3987 Y-77.1179
G01 X-130.3175 Y-77.1563
G01 X-130.1664 Y-77.2021
G01 X-130.0785 Y-77.2150
G01 X-129.9215 Y-77.2150
G01 X-129.8327 Y-77.2019
G01 X-129.6851 Y-77.1572
G01 X-127.8129 Y-79.0294
G01 X-127.7325 Y-79.0882
G01 X-127.6492 Y-79.1180
G01 X-127.5818 Y-79.1252
G01 X-123.6720 Y-79.1239
G01 X-123.5718 Y-79.0987
G01 X-123.5156 Y-79.0679
G01 X-123.4691 Y-79.0294
G01 X-118.7284 Y-74.2887
G01 X-106.5536 Y-74.2887
G01 X-104.7772 Y-76.0651
G01 X-104.8219 Y-76.2127
G01 X-104.8350 Y-76.3015
G01 X-104.8350 Y-76.4585
G01 X-104.8219 Y-76.5473
G01 X-104.7763 Y-76.6975
G01 X-104.7379 Y-76.7787
G01 X-104.6507 Y-76.9092
G01 X-104.5931 Y-76.9731
G01 X-104.5292 Y-77.0307
G01 X-104.3987 Y-77.1179
G01 X-104.3175 Y-77.1563
G01 X-104.1664 Y-77.2021
G01 X-104.0785 Y-77.2150
G01 X-103.9215 Y-77.2150
G01 X-103.8327 Y-77.2019
G01 X-103.6851 Y-77.1572
G01 X-101.8129 Y-79.0294
G01 X-101.7392 Y-79.0847
G01 X-101.6730 Y-79.1121
G01 X-101.5818 Y-79.1252
G01 X-97.8465 Y-79.1251
G01 X-97.7829 Y-79.1180
G01 X-97.7218 Y-79.0987
G01 X-97.6656 Y-79.0679
G01 X-97.6191 Y-79.0294
G01 X-92.8635 Y-74.2738
G01 X-80.5685 Y-74.2738
G01 X-78.7772 Y-76.0651
G01 X-78.8219 Y-76.2127
G01 X-78.8350 Y-76.3015
G01 X-78.8350 Y-76.4585
G01 X-78.8219 Y-76.5473
G01 X-78.7763 Y-76.6975
G01 X-78.7379 Y-76.7787
G01 X-78.6507 Y-76.9092
G01 X-78.5931 Y-76.9731
G01 X-78.5292 Y-77.0307
G01 X-78.3987 Y-77.1179
G01 X-78.3175 Y-77.1563
G01 X-78.1664 Y-77.2021
G01 X-78.0785 Y-77.2150
G01 X-77.9215 Y-77.2150
G01 X-77.8327 Y-77.2019
G01 X-77.6851 Y-77.1572
G01 X-75.8129 Y-79.0294
G01 X-75.7392 Y-79.0847
G01 X-75.6730 Y-79.1121
G01 X-75.5818 Y-79.1252
G01 X-71.8465 Y-79.1251
G01 X-71.7829 Y-79.1180
G01 X-71.7218 Y-79.0987
G01 X-71.6656 Y-79.0679
G01 X-71.6191 Y-79.0294
G01 X-66.8635 Y-74.2738
G01 X-54.5685 Y-74.2738
G01 X-52.7772 Y-76.0651
G01 X-52.8221 Y-76.2136
G01 X-52.8387 Y-76.3762
G01 X-52.8343 Y-76.4660
G01 X-52.8037 Y-76.6199
G01 X-52.7734 Y-76.7044
G01 X-52.6995 Y-76.8428
G01 X-52.6459 Y-76.9150
G01 X-52.5350 Y-77.0259
G01 X-52.4628 Y-77.0795
G01 X-52.3175 Y-77.1563
G01 X-52.1664 Y-77.2021
G01 X-52.0038 Y-77.2187
G01 X-51.9140 Y-77.2143
G01 X-51.7529 Y-77.1815
G01 X-51.6013 Y-77.1179
G01 X-51.4650 Y-77.0259
G01 X-51.3493 Y-76.9092
G01 X-51.2585 Y-76.7720
G01 X-51.1963 Y-76.6199
G01 X-51.1650 Y-76.4585
G01 X-51.1657 Y-76.2940
G01 X-51.1985 Y-76.1329
G01 X-51.2621 Y-75.9813
G01 X-51.3541 Y-75.8450
G01 X-51.4650 Y-75.7341
G01 X-51.5372 Y-75.6805
G01 X-51.6756 Y-75.6066
G01 X-51.7601 Y-75.5763
G01 X-51.9140 Y-75.5457
G01 X-52.0038 Y-75.5413
G01 X-52.1599 Y-75.5567
G01 X-52.3149 Y-75.6028
G01 X-54.2047 Y-73.7131
G01 X-54.2484 Y-73.6772
G01 X-54.3046 Y-73.6464
G01 X-54.3973 Y-73.6220
G01 X-66.9990 Y-73.6200
G01 X-67.0906 Y-73.6331
G01 X-67.1564 Y-73.6604
G01 X-67.2301 Y-73.7157
G01 X-71.9857 Y-78.4713
G01 X-75.4464 Y-78.4713
G01 X-77.2228 Y-76.6949
G01 X-77.1781 Y-76.5473
G01 X-77.1650 Y-76.4585
G01 X-77.1650 Y-76.3015
G01 X-77.1781 Y-76.2127
G01 X-77.2237 Y-76.0625
G01 X-77.2621 Y-75.9813
G01 X-77.3493 Y-75.8508
G01 X-77.4069 Y-75.7869
G01 X-77.4708 Y-75.7293
G01 X-77.6013 Y-75.6421
G01 X-77.6825 Y-75.6037
G01 X-77.8336 Y-75.5579
G01 X-77.9215 Y-75.5450
G01 X-78.0785 Y-75.5450
G01 X-78.1673 Y-75.5581
G01 X-78.3149 Y-75.6028
G01 X-80.2047 Y-73.7131
G01 X-80.2547 Y-73.6730
G01 X-80.3115 Y-73.6435
G01 X-80.3657 Y-73.6271
G01 X-80.4294 Y-73.6200
G01 X-92.9990 Y-73.6200
G01 X-93.0906 Y-73.6331
G01 X-93.1564 Y-73.6604
G01 X-93.2301 Y-73.7157
G01 X-97.9857 Y-78.4713
G01 X-101.4464 Y-78.4713
G01 X-103.2228 Y-76.6949
G01 X-103.1781 Y-76.5473
G01 X-103.1650 Y-76.4585
G01 X-103.1650 Y-76.3015
G01 X-103.1781 Y-76.2127
G01 X-103.2237 Y-76.0625
G01 X-103.2621 Y-75.9813
G01 X-103.3493 Y-75.8508
G01 X-103.4069 Y-75.7869
G01 X-103.4708 Y-75.7293
G01 X-103.6013 Y-75.6421
G01 X-103.6825 Y-75.6037
G01 X-103.8336 Y-75.5579
G01 X-103.9215 Y-75.5450
G01 X-104.0785 Y-75.5450
G01 X-104.1673 Y-75.5581
G01 X-104.3149 Y-75.6028
G01 X-106.1898 Y-73.7280
G01 X-106.2335 Y-73.6921
G01 X-106.2897 Y-73.6613
G01 X-106.3899 Y-73.6361
G01 X-118.8639 Y-73.6348
G01 X-118.9555 Y-73.6480
G01 X-119.0212 Y-73.6753
G01 X-119.0950 Y-73.7306
G01 X-123.8357 Y-78.4713
G01 X-127.4464 Y-78.4713
G01 X-129.2228 Y-76.6949
G01 X-129.1781 Y-76.5473
G01 X-129.1650 Y-76.4585
G01 X-129.1650 Y-76.3015
G01 X-129.1781 Y-76.2127
G01 X-129.2237 Y-76.0625
G01 X-129.2621 Y-75.9813
G01 X-129.3493 Y-75.8508
G01 X-129.4069 Y-75.7869
G01 X-129.4708 Y-75.7293
G01 X-129.6013 Y-75.6421
G01 X-129.6825 Y-75.6037
G01 X-129.8336 Y-75.5579
G01 X-129.9215 Y-75.5450
G01 X-130.0785 Y-75.5450
G01 X-130.1673 Y-75.5581
G01 X-130.3149 Y-75.6028
G01 X-131.2516 Y-74.6662
G01 X-131.3293 Y-74.6100
G01 X-131.4125 Y-74.5802
G01 X-131.4800 Y-74.5731
G01 X-135.9000 Y-74.5731
G01 X-135.9610 Y-74.5789
G01 X-136.0507 Y-74.6100
G01 X-136.1284 Y-74.6662
G01 X-136.8312 Y-75.3688
G01 X-136.8900 Y-75.4493
G01 X-136.9117 Y-75.5015
G01 X-136.9249 Y-75.5642
G00 X-136.9249 Y-75.5642
G01 F60.00
G01 Z-0.1000
G01 F120.00
G01 X-136.9268 Y-77.1038
G01 X-136.9117 Y-77.1985
G01 X-136.8900 Y-77.2507
G01 X-136.8550 Y-77.3044
G01 X-132.2312 Y-81.9312
G01 X-132.1507 Y-81.9900
G01 X-132.0985 Y-82.0117
G01 X-132.0358 Y-82.0249
G01 X-60.0354 Y-82.0269
G01 X-55.7312 Y-86.3312
G01 X-55.6574 Y-86.3865
G01 X-55.5675 Y-86.4198
G01 X-55.5000 Y-86.4269
G01 X-38.6854 Y-86.4269
G01 X-36.4769 Y-88.6354
G01 X-36.4756 Y-89.8283
G01 X-36.4534 Y-89.9216
G01 X-36.4050 Y-90.0044
G01 X-33.3812 Y-93.0312
G01 X-33.3074 Y-93.0865
G01 X-33.2413 Y-93.1139
G01 X-33.1500 Y-93.1269
G01 X-27.2000 Y-93.1269
G01 X-27.1325 Y-93.1198
G01 X-27.0426 Y-93.0865
G01 X-26.9688 Y-93.0312
G01 X-25.3138 Y-91.3762
G01 X-25.2550 Y-91.2957
G01 X-25.2333 Y-91.2435
G01 X-25.2201 Y-91.1808
G01 X-25.2181 Y-89.6668
G01 X-25.1791 Y-89.5944
G01 X-25.1682 Y-89.5250
G01 X-25.1683 Y-87.7712
G01 X-25.1791 Y-87.7056
G01 X-25.2174 Y-87.6341
G01 X-25.2659 Y-87.5886
G01 X-25.3328 Y-87.5570
G01 X-25.3950 Y-87.5482
G01 X-25.6950 Y-87.5482
G01 X-25.7576 Y-87.5571
G01 X-25.8178 Y-87.5844
G01 X-25.8679 Y-87.6283
G01 X-25.8967 Y-87.6715
G01 X-25.9181 Y-87.7345
G01 X-25.9218 Y-89.5250
G01 X-25.9109 Y-89.5944
G01 X-25.8719 Y-89.6668
G01 X-25.8719 Y-91.0096
G01 X-27.3354 Y-92.4731
G01 X-33.0146 Y-92.4731
G01 X-35.8231 Y-89.6646
G01 X-35.8232 Y-88.4962
G01 X-35.8383 Y-88.4015
G01 X-35.8803 Y-88.3153
G01 X-35.9188 Y-88.2688
G01 X-38.3188 Y-85.8688
G01 X-38.3716 Y-85.8262
G01 X-38.4284 Y-85.7966
G01 X-38.4899 Y-85.7787
G01 X-38.5500 Y-85.7731
G01 X-55.3646 Y-85.7731
G01 X-59.6688 Y-81.4688
G01 X-59.7493 Y-81.4100
G01 X-59.8015 Y-81.3883
G01 X-59.8642 Y-81.3751
G01 X-131.8646 Y-81.3731
G01 X-136.2731 Y-76.9646
G01 X-136.2731 Y-75.7354
G01 X-135.7646 Y-75.2269
G01 X-131.6154 Y-75.2269
G01 X-130.7772 Y-76.0651
G01 X-130.8219 Y-76.2127
G01 X-130.8350 Y-76.3015
G01 X-130.8350 Y-76.4585
G01 X-130.8219 Y-76.5473
G01 X-130.7763 Y-76.6975
G01 X-130.7379 Y-76.7787
G01 X-130.6507 Y-76.9092
G01 X-130.5931 Y-76.9731
G01 X-130.5292 Y-77.0307
G01 X-130.3987 Y-77.1179
G01 X-130.3175 Y-77.1563
G01 X-130.1664 Y-77.2021
G01 X-130.0785 Y-77.2150
G01 X-129.9215 Y-77.2150
G01 X-129.8327 Y-77.2019
G01 X-129.6851 Y-77.1572
G01 X-127.8129 Y-79.0294
G01 X-127.7325 Y-79.0882
G01 X-127.6492 Y-79.1180
G01 X-127.5818 Y-79.1252
G01 X-123.6720 Y-79.1239
G01 X-123.5718 Y-79.0987
G01 X-123.5156 Y-79.0679
G01 X-123.4691 Y-79.0294
G01 X-118.7284 Y-74.2887
G01 X-106.5536 Y-74.2887
G01 X-104.7772 Y-76.0651
G01 X-104.8219 Y-76.2127
G01 X-104.8350 Y-76.3015
G01 X-104.8350 Y-76.4585
G01 X-104.8219 Y-76.5473
G01 X-104.7763 Y-76.6975
G01 X-104.7379 Y-76.7787
G01 X-104.6507 Y-76.9092
G01 X-104.5931 Y-76.9731
G01 X-104.5292 Y-77.0307
G01 X-104.3987 Y-77.1179
G01 X-104.3175 Y-77.1563
G01 X-104.1664 Y-77.2021
G01 X-104.0785 Y-77.2150
G01 X-103.9215 Y-77.2150
G01 X-103.8327 Y-77.2019
G01 X-103.6851 Y-77.1572
G01 X-101.8129 Y-79.0294
G01 X-101.7392 Y-79.0847
G01 X-101.6730 Y-79.1121
G01 X-101.5818 Y-79.1252
G01 X-97.8465 Y-79.1251
G01 X-97.7829 Y-79.1180
G01 X-97.7218 Y-79.0987
G01 X-97.6656 Y-79.0679
G01 X-97.6191 Y-79.0294
G01 X-92.8635 Y-74.2738
G01 X-80.5685 Y-74.2738
G01 X-78.7772 Y-76.0651
G01 X-78.8219 Y-76.2127
G01 X-78.8350 Y-76.3015
G01 X-78.8350 Y-76.4585
G01 X-78.8219 Y-76.5473
G01 X-78.7763 Y-76.6975
G01 X-78.7379 Y-76.7787
G01 X-78.6507 Y-76.9092
G01 X-78.5931 Y-76.9731
G01 X-78.5292 Y-77.0307
G01 X-78.3987 Y-77.1179
G01 X-78.3175 Y-77.1563
G01 X-78.1664 Y-77.2021
G01 X-78.0785 Y-77.2150
G01 X-77.9215 Y-77.2150
G01 X-77.8327 Y-77.2019
G01 X-77.6851 Y-77.1572
G01 X-75.8129 Y-79.0294
G01 X-75.7392 Y-79.0847
G01 X-75.6730 Y-79.1121
G01 X-75.5818 Y-79.1252
G01 X-71.8465 Y-79.1251
G01 X-71.7829 Y-79.1180
G01 X-71.7218 Y-79.0987
G01 X-71.6656 Y-79.0679
G01 X-71.6191 Y-79.0294
G01 X-66.8635 Y-74.2738
G01 X-54.5685 Y-74.2738
G01 X-52.7772 Y-76.0651
G01 X-52.8221 Y-76.2136
G01 X-52.8387 Y-76.3762
G01 X-52.8343 Y-76.4660
G01 X-52.8037 Y-76.6199
G01 X-52.7734 Y-76.7044
G01 X-52.6995 Y-76.8428
G01 X-52.6459 Y-76.9150
G01 X-52.5350 Y-77.0259
G01 X-52.4628 Y-77.0795
G01 X-52.3175 Y-77.1563
G01 X-52.1664 Y-77.2021
G01 X-52.0038 Y-77.2187
G01 X-51.9140 Y-77.2143
G01 X-51.7529 Y-77.1815
G01 X-51.6013 Y-77.1179
G01 X-51.4650 Y-77.0259
G01 X-51.3493 Y-76.9092
G01 X-51.2585 Y-76.7720
G01 X-51.1963 Y-76.6199
G01 X-51.1650 Y-76.4585
G01 X-51.1657 Y-76.2940
G01 X-51.1985 Y-76.1329
G01 X-51.2621 Y-75.9813
G01 X-51.3541 Y-75.8450
G01 X-51.4650 Y-75.7341
G01 X-51.5372 Y-75.6805
G01 X-51.6756 Y-75.6066
G01 X-51.7601 Y-75.5763
G01 X-51.9140 Y-75.5457
G01 X-52.0038 Y-75.5413
G01 X-52.1599 Y-75.5567
G01 X-52.3149 Y-75.6028
G01 X-54.2047 Y-73.7131
G01 X-54.2484 Y-73.6772
G01 X-54.3046 Y-73.6464
G01 X-54.3973 Y-73.6220
G01 X-66.9990 Y-73.6200
G01 X-67.0906 Y-73.6331
G01 X-67.1564 Y-73.6604
G01 X-67.2301 Y-73.7157
G01 X-71.9857 Y-78.4713
G01 X-75.4464 Y-78.4713
G01 X-77.2228 Y-76.6949
G01 X-77.1781 Y-76.5473
G01 X-77.1650 Y-76.4585
G01 X-77.1650 Y-76.3015
G01 X-77.1781 Y-76.2127
G01 X-77.2237 Y-76.0625
G01 X-77.2621 Y-75.9813
G01 X-77.3493 Y-75.8508
G01 X-77.4069 Y-75.7869
G01 X-77.4708 Y-75.7293
G01 X-77.6013 Y-75.6421
G01 X-77.6825 Y-75.6037
G01 X-77.8336 Y-75.5579
G01 X-77.9215 Y-75.5450
G01 X-78.0785 Y-75.5450
G01 X-78.1673 Y-75.5581
G01 X-78.3149 Y-75.6028
G01 X-80.2047 Y-73.7131
G01 X-80.2547 Y-73.6730
G01 X-80.3115 Y-73.6435
G01 X-80.3657 Y-73.6271
G01 X-80.4294 Y-73.6200
G01 X-92.9990 Y-73.6200
G01 X-93.0906 Y-73.6331
G01 X-93.1564 Y-73.6604
G01 X-93.2301 Y-73.7157
G01 X-97.9857 Y-78.4713
G01 X-101.4464 Y-78.4713
G01 X-103.2228 Y-76.6949
G01 X-103.1781 Y-76.5473
G01 X-103.1650 Y-76.4585
G01 X-103.1650 Y-76.3015
G01 X-103.1781 Y-76.2127
G01 X-103.2237 Y-76.0625
G01 X-103.2621 Y-75.9813
G01 X-103.3493 Y-75.8508
G01 X-103.4069 Y-75.7869
G01 X-103.4708 Y-75.7293
G01 X-103.6013 Y-75.6421
G01 X-103.6825 Y-75.6037
G01 X-103.8336 Y-75.5579
G01 X-103.9215 Y-75.5450
G01 X-104.0785 Y-75.5450
G01 X-104.1673 Y-75.5581
G01 X-104.3149 Y-75.6028
G01 X-106.1898 Y-73.7280
G01 X-106.2335 Y-73.6921
G01 X-106.2897 Y-73.6613
G01 X-106.3899 Y-73.6361
G01 X-118.8639 Y-73.6348
G01 X-118.9555 Y-73.6480
G01 X-119.0212 Y-73.6753
G01 X-119.0950 Y-73.7306
G01 X-123.8357 Y-78.4713
G01 X-127.4464 Y-78.4713
G01 X-129.2228 Y-76.6949
G01 X-129.1781 Y-76.5473
G01 X-129.1650 Y-76.4585
G01 X-129.1650 Y-76.3015
G01 X-129.1781 Y-76.2127
G01 X-129.2237 Y-76.0625
G01 X-129.2621 Y-75.9813
G01 X-129.3493 Y-75.8508
G01 X-129.4069 Y-75.7869
G01 X-129.4708 Y-75.7293
G01 X-129.6013 Y-75.6421
G01 X-129.6825 Y-75.6037
G01 X-129.8336 Y-75.5579
G01 X-129.9215 Y-75.5450
G01 X-130.0785 Y-75.5450
G01 X-130.1673 Y-75.5581
G01 X-130.3149 Y-75.6028
G01 X-131.2516 Y-74.6662
G01 X-131.3293 Y-74.6100
G01 X-131.4125 Y-74.5802
G01 X-131.4800 Y-74.5731
G01 X-135.9000 Y-74.5731
G01 X-135.9610 Y-74.5789
G01 X-136.0507 Y-74.6100
G01 X-136.1284 Y-74.6662
G01 X-136.8312 Y-75.3688
G01 X-136.8900 Y-75.4493
G01 X-136.9117 Y-75.5015
G01 X-136.9249 Y-75.5642
G00 Z2.0000
(Block-name: block)
(Block-expand: 0)
(Block-enable: 1)
G00 X-137.9249 Y-75.1642
G01 F60.00
G01 Z-0.0250
G01 F120.00
G01 X-137.9269 Y-77.5000
G01 X-137.9117 Y-77.5985
G01 X-137.8697 Y-77.6847
G01 X-137.8312 Y-77.7312
G01 X-132.6312 Y-82.9312
G01 X-132.5507 Y-82.9900
G01 X-132.4985 Y-83.0117
G01 X-132.4358 Y-83.0249
G01 X-60.3854 Y-83.0269
G01 X-56.0812 Y-87.3312
G01 X-56.0074 Y-87.3865
G01 X-55.9175 Y-87.4198
G01 X-55.8500 Y-87.4269
G01 X-42.0354 Y-87.4269
G01 X-34.2312 Y-95.2312
G01 X-34.1574 Y-95.2865
G01 X-34.0675 Y-95.3198
G01 X-34.0000 Y-95.3269
G01 X-26.1000 Y-95.3269
G01 X-26.0083 Y-95.3138
G01 X-25.9426 Y-95.2865
G01 X-25.8688 Y-95.2312
G01 X-22.7738 Y-92.1362
G01 X-22.7150 Y-92.0557
G01 X-22.6933 Y-92.0035
G01 X-22.6801 Y-91.9408
G01 X-22.6781 Y-89.6668
G01 X-22.6441 Y-89.6083
G01 X-22.6283 Y-89.5288
G01 X-22.6298 Y-87.7490
G01 X-22.6470 Y-87.6848
G01 X-22.6774 Y-87.6341
G01 X-22.7141 Y-87.5974
G01 X-22.7717 Y-87.5641
G01 X-22.8512 Y-87.5483
G01 X-23.1810 Y-87.5498
G01 X-23.2585 Y-87.5733
G01 X-23.3180 Y-87.6174
G01 X-23.3659 Y-87.6917
G01 X-23.3817 Y-87.7712
G01 X-23.3817 Y-89.5288
G01 X-23.3659 Y-89.6083
G01 X-23.3319 Y-89.6668
G01 X-23.3319 Y-91.7696
G01 X-26.2354 Y-94.6731
G01 X-33.8646 Y-94.6731
G01 X-41.6688 Y-86.8688
G01 X-41.7153 Y-86.8303
G01 X-41.7714 Y-86.7995
G01 X-41.8325 Y-86.7802
G01 X-41.9000 Y-86.7731
G01 X-55.7146 Y-86.7731
G01 X-60.0188 Y-82.4688
G01 X-60.0993 Y-82.4100
G01 X-60.1515 Y-82.3883
G01 X-60.2142 Y-82.3751
G01 X-132.2646 Y-82.3731
G01 X-137.2731 Y-77.3646
G01 X-137.2731 Y-75.3354
G01 X-136.1646 Y-74.2269
G01 X-130.0354 Y-74.2269
G01 X-128.2249 Y-76.0375
G01 X-128.2637 Y-76.1401
G01 X-128.2950 Y-76.3015
G01 X-128.2943 Y-76.4660
G01 X-128.2637 Y-76.6199
G01 X-128.2334 Y-76.7044
G01 X-128.1553 Y-76.8491
G01 X-128.0531 Y-76.9731
G01 X-127.9228 Y-77.0795
G01 X-127.7775 Y-77.1563
G01 X-127.6999 Y-77.1837
G01 X-127.5460 Y-77.2143
G01 X-127.3740 Y-77.2143
G01 X-127.2927 Y-77.2019
G01 X-127.1451 Y-77.1572
G01 X-126.2233 Y-78.0789
G01 X-126.1523 Y-78.1316
G01 X-126.0862 Y-78.1590
G01 X-125.9949 Y-78.1720
G01 X-124.0951 Y-78.1720
G01 X-124.0277 Y-78.1649
G01 X-123.9377 Y-78.1316
G01 X-123.8639 Y-78.0763
G01 X-119.1232 Y-73.3356
G01 X-104.9668 Y-73.3356
G01 X-102.2372 Y-76.0651
G01 X-102.2819 Y-76.2127
G01 X-102.2950 Y-76.3015
G01 X-102.2950 Y-76.4585
G01 X-102.2819 Y-76.5473
G01 X-102.2363 Y-76.6975
G01 X-102.1979 Y-76.7787
G01 X-102.1107 Y-76.9092
G01 X-102.0531 Y-76.9731
G01 X-101.9892 Y-77.0307
G01 X-101.8587 Y-77.1179
G01 X-101.7775 Y-77.1563
G01 X-101.6264 Y-77.2021
G01 X-101.5385 Y-77.2150
G01 X-101.3815 Y-77.2150
G01 X-101.2927 Y-77.2019
G01 X-101.1451 Y-77.1572
G01 X-100.2051 Y-78.0954
G01 X-100.1165 Y-78.1485
G01 X-100.0232 Y-78.1707
G01 X-98.2413 Y-78.1719
G01 X-98.1466 Y-78.1568
G01 X-98.0604 Y-78.1148
G01 X-98.0139 Y-78.0763
G01 X-93.2583 Y-73.3207
G01 X-78.9817 Y-73.3207
G01 X-76.2372 Y-76.0651
G01 X-76.2821 Y-76.2136
G01 X-76.2987 Y-76.3762
G01 X-76.2943 Y-76.4660
G01 X-76.2615 Y-76.6271
G01 X-76.2015 Y-76.7720
G01 X-76.1553 Y-76.8491
G01 X-76.0531 Y-76.9731
G01 X-75.9291 Y-77.0753
G01 X-75.7775 Y-77.1563
G01 X-75.6999 Y-77.1837
G01 X-75.5460 Y-77.2143
G01 X-75.3740 Y-77.2143
G01 X-75.2927 Y-77.2019
G01 X-75.1451 Y-77.1572
G01 X-74.2233 Y-78.0789
G01 X-74.1523 Y-78.1316
G01 X-74.0862 Y-78.1590
G01 X-73.9949 Y-78.1720
G01 X-72.2451 Y-78.1720
G01 X-72.1777 Y-78.1649
G01 X-72.1166 Y-78.1456
G01 X-72.0604 Y-78.1148
G01 X-72.0139 Y-78.0763
G01 X-67.2583 Y-73.3207
G01 X-52.9817 Y-73.3207
G01 X-50.2372 Y-76.0651
G01 X-50.2819 Y-76.2127
G01 X-50.2950 Y-76.3015
G01 X-50.2950 Y-76.4585
G01 X-50.2819 Y-76.5473
G01 X-50.2363 Y-76.6975
G01 X-50.1979 Y-76.7787
G01 X-50.1107 Y-76.9092
G01 X-50.0504 Y-76.9757
G01 X-49.9228 Y-77.0795
G01 X-49.7775 Y-77.1563
G01 X-49.6264 Y-77.2021
G01 X-49.4638 Y-77.2187
G01 X-49.3740 Y-77.2143
G01 X-49.2129 Y-77.1815
G01 X-49.0613 Y-77.1179
G01 X-48.9250 Y-77.0259
G01 X-48.8093 Y-76.9092
G01 X-48.7185 Y-76.7720
G01 X-48.6563 Y-76.6199
G01 X-48.6250 Y-76.4585
G01 X-48.6257 Y-76.2940
G01 X-48.6585 Y-76.1329
G01 X-48.7221 Y-75.9813
G01 X-48.8141 Y-75.8450
G01 X-48.9250 Y-75.7341
G01 X-48.9972 Y-75.6805
G01 X-49.1356 Y-75.6066
G01 X-49.2201 Y-75.5763
G01 X-49.3740 Y-75.5457
G01 X-49.4638 Y-75.5413
G01 X-49.6199 Y-75.5567
G01 X-49.7749 Y-75.6028
G01 X-52.6151 Y-72.7626
G01 X-52.6955 Y-72.7037
G01 X-52.7478 Y-72.6821
G01 X-52.8105 Y-72.6689
G01 X-67.3938 Y-72.6668
G01 X-67.4612 Y-72.6739
G01 X-67.5512 Y-72.7073
G01 X-67.6249 Y-72.7626
G01 X-72.3805 Y-77.5182
G01 X-73.8595 Y-77.5182
G01 X-74.6828 Y-76.6949
G01 X-74.6381 Y-76.5473
G01 X-74.6250 Y-76.4585
G01 X-74.6250 Y-76.3015
G01 X-74.6381 Y-76.2127
G01 X-74.6837 Y-76.0625
G01 X-74.7221 Y-75.9813
G01 X-74.8093 Y-75.8508
G01 X-74.8669 Y-75.7869
G01 X-74.9308 Y-75.7293
G01 X-75.0613 Y-75.6421
G01 X-75.1425 Y-75.6037
G01 X-75.2936 Y-75.5579
G01 X-75.3815 Y-75.5450
G01 X-75.5385 Y-75.5450
G01 X-75.6273 Y-75.5581
G01 X-75.7749 Y-75.6028
G01 X-78.6151 Y-72.7626
G01 X-78.6615 Y-72.7241
G01 X-78.7177 Y-72.6932
G01 X-78.7788 Y-72.6739
G01 X-78.8425 Y-72.6669
G01 X-93.3938 Y-72.6668
G01 X-93.4612 Y-72.6739
G01 X-93.5512 Y-72.7073
G01 X-93.6249 Y-72.7626
G01 X-98.3805 Y-77.5182
G01 X-99.8595 Y-77.5182
G01 X-100.6828 Y-76.6949
G01 X-100.6381 Y-76.5473
G01 X-100.6250 Y-76.4585
G01 X-100.6250 Y-76.3015
G01 X-100.6381 Y-76.2127
G01 X-100.6837 Y-76.0625
G01 X-100.7221 Y-75.9813
G01 X-100.8093 Y-75.8508
G01 X-100.8669 Y-75.7869
G01 X-100.9308 Y-75.7293
G01 X-101.0613 Y-75.6421
G01 X-101.1425 Y-75.6037
G01 X-101.2936 Y-75.5579
G01 X-101.3815 Y-75.5450
G01 X-101.5385 Y-75.5450
G01 X-101.6273 Y-75.5581
G01 X-101.7749 Y-75.6028
G01 X-104.6002 Y-72.7775
G01 X-104.6466 Y-72.7390
G01 X-104.7028 Y-72.7081
G01 X-104.8031 Y-72.6830
G01 X-119.2586 Y-72.6817
G01 X-119.3261 Y-72.6888
G01 X-119.4160 Y-72.7222
G01 X-119.4898 Y-72.7775
G01 X-124.2305 Y-77.5182
G01 X-125.8595 Y-77.5182
G01 X-126.6828 Y-76.6949
G01 X-126.6381 Y-76.5473
G01 X-126.6250 Y-76.4585
G01 X-126.6250 Y-76.3015
G01 X-126.6381 Y-76.2127
G01 X-126.6837 Y-76.0625
G01 X-126.7221 Y-75.9813
G01 X-126.8093 Y-75.8508
G01 X-126.8669 Y-75.7869
G01 X-126.9308 Y-75.7293
G01 X-127.0613 Y-75.6421
G01 X-127.1425 Y-75.6037
G01 X-127.2936 Y-75.5579
G01 X-127.3815 Y-75.5450
G01 X-127.5385 Y-75.5450
G01 X-127.6273 Y-75.5581
G01 X-127.7454 Y-75.5922
G01 X-129.6688 Y-73.6688
G01 X-129.7493 Y-73.6100
G01 X-129.8399 Y-73.5787
G01 X-129.9000 Y-73.5731
G01 X-136.3000 Y-73.5731
G01 X-136.3610 Y-73.5789
G01 X-136.4507 Y-73.6100
G01 X-136.5284 Y-73.6662
G01 X-137.8312 Y-74.9688
G01 X-137.8900 Y-75.0493
G01 X-137.9117 Y-75.1015
G01 X-137.9249 Y-75.1642
G00 X-137.9249 Y-75.1642
G01 F60.00
G01 Z-0.0500
G01 F120.00
G01 X-137.9269 Y-77.5000
G01 X-137.9117 Y-77.5985
G01 X-137.8697 Y-77.6847
G01 X-137.8312 Y-77.7312
G01 X-132.6312 Y-82.9312
G01 X-132.5507 Y-82.9900
G01 X-132.4985 Y-83.0117
G01 X-132.4358 Y-83.0249
G01 X-60.3854 Y-83.0269
G01 X-56.0812 Y-87.3312
G01 X-56.0074 Y-87.3865
G01 X-55.9175 Y-87.4198
G01 X-55.8500 Y-87.4269
G01 X-42.0354 Y-87.4269
G01 X-34.2312 Y-95.2312
G01 X-34.1574 Y-95.2865
G01 X-34.0675 Y-95.3198
G01 X-34.0000 Y-95.3269
G01 X-26.1000 Y-95.3269
G01 X-26.0083 Y-95.3138
G01 X-25.9426 Y-95.2865
G01 X-25.8688 Y-95.2312
G01 X-22.7738 Y-92.1362
G01 X-22.7150 Y-92.0557
G01 X-22.6933 Y-92.0035
G01 X-22.6801 Y-91.9408
G01 X-22.6781 Y-89.6668
G01 X-22.6441 Y-89.6083
G01 X-22.6283 Y-89.5288
G01 X-22.6298 Y-87.7490
G01 X-22.6470 Y-87.6848
G01 X-22.6774 Y-87.6341
G01 X-22.7141 Y-87.5974
G01 X-22.7717 Y-87.5641
G01 X-22.8512 Y-87.5483
G01 X-23.1810 Y-87.5498
G01 X-23.2585 Y-87.5733
G01 X-23.3180 Y-87.6174
G01 X-23.3659 Y-87.6917
G01 X-23.3817 Y-87.7712
G01 X-23.3817 Y-89.5288
G01 X-23.3659 Y-89.6083
G01 X-23.3319 Y-89.6668
G01 X-23.3319 Y-91.7696
G01 X-26.2354 Y-94.6731
G01 X-33.8646 Y-94.6731
G01 X-41.6688 Y-86.8688
G01 X-41.7153 Y-86.8303
G01 X-41.7714 Y-86.7995
G01 X-41.8325 Y-86.7802
G01 X-41.9000 Y-86.7731
G01 X-55.7146 Y-86.7731
G01 X-60.0188 Y-82.4688
G01 X-60.0993 Y-82.4100
G01 X-60.1515 Y-82.3883
G01 X-60.2142 Y-82.3751
G01 X-132.2646 Y-82.3731
G01 X-137.2731 Y-77.3646
G01 X-137.2731 Y-75.3354
G01 X-136.1646 Y-74.2269
G01 X-130.0354 Y-74.2269
G01 X-128.2249 Y-76.0375
G01 X-128.2637 Y-76.1401
G01 X-128.2950 Y-76.3015
G01 X-128.2943 Y-76.4660
G01 X-128.2637 Y-76.6199
G01 X-128.2334 Y-76.7044
G01 X-128.1553 Y-76.8491
G01 X-128.0531 Y-76.9731
G01 X-127.9228 Y-77.0795
G01 X-127.7775 Y-77.1563
G01 X-127.6999 Y-77.1837
G01 X-127.5460 Y-77.2143
G01 X-127.3740 Y-77.2143
G01 X-127.2927 Y-77.2019
G01 X-127.1451 Y-77.1572
G01 X-126.2233 Y-78.0789
G01 X-126.1523 Y-78.1316
G01 X-126.0862 Y-78.1590
G01 X-125.9949 Y-78.1720
G01 X-124.0951 Y-78.1720
G01 X-124.0277 Y-78.1649
G01 X-123.9377 Y-78.1316
G01 X-123.8639 Y-78.0763
G01 X-119.1232 Y-73.3356
G01 X-104.9668 Y-73.3356
G01 X-102.2372 Y-76.0651
G01 X-102.2819 Y-76.2127
G01 X-102.2950 Y-76.3015
G01 X-102.2950 Y-76.4585
G01 X-102.2819 Y-76.5473
G01 X-102.2363 Y-76.6975
G01 X-102.1979 Y-76.7787
G01 X-102.1107 Y-76.9092
G01 X-102.0531 Y-76.9731
G01 X-101.9892 Y-77.0307
G01 X-101.8587 Y-77.1179
G01 X-101.7775 Y-77.1563
G01 X-101.6264 Y-77.2021
G01 X-101.5385 Y-77.2150
G01 X-101.3815 Y-77.2150
G01 X-101.2927 Y-77.2019
G01 X-101.1451 Y-77.1572
G01 X-100.2051 Y-78.0954
G01 X-100.1165 Y-78.1485
G01 X-100.0232 Y-78.1707
G01 X-98.2413 Y-78.1719
G01 X-98.1466 Y-78.1568
G01 X-98.0604 Y-78.1148
G01 X-98.0139 Y-78.0763
G01 X-93.2583 Y-73.3207
G01 X-78.9817 Y-73.3207
G01 X-76.2372 Y-76.0651
G01 X-76.2821 Y-76.2136
G01 X-76.2987 Y-76.3762
G01 X-76.2943 Y-76.4660
G01 X-76.2615 Y-76.6271
G01 X-76.2015 Y-76.7720
G01 X-76.1553 Y-76.8491
G01 X-76.0531 Y-76.9731
G01 X-75.9291 Y-77.0753
G01 X-75.7775 Y-77.1563
G01 X-75.6999 Y-77.1837
G01 X-75.5460 Y-77.2143
G01 X-75.3740 Y-77.2143
G01 X-75.2927 Y-77.2019
G01 X-75.1451 Y-77.1572
G01 X-74.2233 Y-78.0789
G01 X-74.1523 Y-78.1316
G01 X-74.0862 Y-78.1590
G01 X-73.9949 Y-78.1720
G01 X-72.2451 Y-78.1720
G01 X-72.1777 Y-78.1649
G01 X-72.1166 Y-78.1456
G01 X-72.0604 Y-78.1148
G01 X-72.0139 Y-78.0763
G01 X-67.2583 Y-73.3207
G01 X-52.9817 Y-73.3207
G01 X-50.2372 Y-76.0651
G01 X-50.2819 Y-76.2127
G01 X-50.2950 Y-76.3015
G01 X-50.2950 Y-76.4585
G01 X-50.2819 Y-76.5473
G01 X-50.2363 Y-76.6975
G01 X-50.1979 Y-76.7787
G01 X-50.1107 Y-76.9092
G01 X-50.0504 Y-76.9757
G01 X-49.9228 Y-77.0795
G01 X-49.7775 Y-77.1563
G01 X-49.6264 Y-77.2021
G01 X-49.4638 Y-77.2187
G01 X-49.3740 Y-77.2143
G01 X-49.2129 Y-77.1815
G01 X-49.0613 Y-77.1179
G01 X-48.9250 Y-77.0259
G01 X-48.8093 Y-76.9092
G01 X-48.7185 Y-76.7720
G01 X-48.6563 Y-76.6199
G01 X-48.6250 Y-76.4585
G01 X-48.6257 Y-76.2940
G01 X-48.6585 Y-76.1329
G01 X-48.7221 Y-75.9813
G01 X-48.8141 Y-75.8450
G01 X-48.9250 Y-75.7341
G01 X-48.9972 Y-75.6805
G01 X-49.1356 Y-75.6066
G01 X-49.2201 Y-75.5763
G01 X-49.3740 Y-75.5457
G01 X-49.4638 Y-75.5413
G01 X-49.6199 Y-75.5567
G01 X-49.7749 Y-75.6028
G01 X-52.6151 Y-72.7626
G01 X-52.6955 Y-72.7037
G01 X-52.7478 Y-72.6821
G01 X-52.8105 Y-72.6689
G01 X-67.3938 Y-72.6668
G01 X-67.4612 Y-72.6739
G01 X-67.5512 Y-72.7073
G01 X-67.6249 Y-72.7626
G01 X-72.3805 Y-77.5182
G01 X-73.8595 Y-77.5182
G01 X-74.6828 Y-76.6949
G01 X-74.6381 Y-76.5473
G01 X-74.6250 Y-76.4585
G01 X-74.6250 Y-76.3015
G01 X-74.6381 Y-76.2127
G01 X-74.6837 Y-76.0625
G01 X-74.7221 Y-75.9813
G01 X-74.8093 Y-75.8508
G01 X-74.8669 Y-75.7869
G01 X-74.9308 Y-75.7293
G01 X-75.0613 Y-75.6421
G01 X-75.1425 Y-75.6037
G01 X-75.2936 Y-75.5579
G01 X-75.3815 Y-75.5450
G01 X-75.5385 Y-75.5450
G01 X-75.6273 Y-75.5581
G01 X-75.7749 Y-75.6028
G01 X-78.6151 Y-72.7626
G01 X-78.6615 Y-72.7241
G01 X-78.7177 Y-72.6932
G01 X-78.7788 Y-72.6739
G01 X-78.8425 Y-72.6669
G01 X-93.3938 Y-72.6668
G01 X-93.4612 Y-72.6739
G01 X-93.5512 Y-72.7073
G01 X-93.6249 Y-72.7626
G01 X-98.3805 Y-77.5182
G01 X-99.8595 Y-77.5182
G01 X-100.6828 Y-76.6949
G01 X-100.6381 Y-76.5473
G01 X-100.6250 Y-76.4585
G01 X-100.6250 Y-76.3015
G01 X-100.6381 Y-76.2127
G01 X-100.6837 Y-76.0625
G01 X-100.7221 Y-75.9813
G01 X-100.8093 Y-75.8508
G01 X-100.8669 Y-75.7869
G01 X-100.9308 Y-75.7293
G01 X-101.0613 Y-75.6421
G01 X-101.1425 Y-75.6037
G01 X-101.2936 Y-75.5579
G01 X-101.3815 Y-75.5450
G01 X-101.5385 Y-75.5450
G01 X-101.6273 Y-75.5581
G01 X-101.7749 Y-75.6028
G01 X-104.6002 Y-72.7775
G01 X-104.6466 Y-72.7390
G01 X-104.7028 Y-72.7081
G01 X-104.8031 Y-72.6830
G01 X-119.2586 Y-72.6817
G01 X-119.3261 Y-72.6888
G01 X-119.4160 Y-72.7222
G01 X-119.4898 Y-72.7775
G01 X-124.2305 Y-77.5182
G01 X-125.8595 Y-77.5182
G01 X-126.6828 Y-76.6949
G01 X-126.6381 Y-76.5473
G01 X-126.6250 Y-76.4585
G01 X-126.6250 Y-76.3015
G01 X-126.6381 Y-76.2127
G01 X-126.6837 Y-76.0625
G01 X-126.7221 Y-75.9813
G01 X-126.8093 Y-75.8508
G01 X-126.8669 Y-75.7869
G01 X-126.9308 Y-75.7293
G01 X-127.0613 Y-75.6421
G01 X-127.1425 Y-75.6037
G01 X-127.2936 Y-75.5579
G01 X-127.3815 Y-75.5450
G01 X-127.5385 Y-75.5450
G01 X-127.6273 Y-75.5581
G01 X-127.7454 Y-75.5922
G01 X-129.6688 Y-73.6688
G01 X-129.7493 Y-73.6100
G01 X-129.8399 Y-73.5787
G01 X-129.9000 Y-73.5731
G01 X-136.3000 Y-73.5731
G01 X-136.3610 Y-73.5789
G01 X-136.4507 Y-73.6100
G01 X-136.5284 Y-73.6662
G01 X-137.8312 Y-74.9688
G01 X-137.8900 Y-75.0493
G01 X-137.9117 Y-75.1015
G01 X-137.9249 Y-75.1642
G00 X-137.9249 Y-75.1642
G01 F60.00
G01 Z-0.0750
G01 F120.00
G01 X-137.9269 Y-77.5000
G01 X-137.9117 Y-77.5985
G01 X-137.8697 Y-77.6847
G01 X-137.8312 Y-77.7312
G01 X-132.6312 Y-82.9312
G01 X-132.5507 Y-82.9900
G01 X-132.4985 Y-83.0117
G01 X-132.4358 Y-83.0249
G01 X-60.3854 Y-83.0269
G01 X-56.0812 Y-87.3312
G01 X-56.0074 Y-87.3865
G01 X-55.9175 Y-87.4198
G01 X-55.8500 Y-87.4269
G01 X-42.0354 Y-87.4269
G01 X-34.2312 Y-95.2312
G01 X-34.1574 Y-95.2865
G01 X-34.0675 Y-95.3198
G01 X-34.0000 Y-95.3269
G01 X-26.1000 Y-95.3269
G01 X-26.0083 Y-95.3138
G01 X-25.9426 Y-95.2865
G01 X-25.8688 Y-95.2312
G01 X-22.7738 Y-92.1362
G01 X-22.7150 Y-92.0557
G01 X-22.6933 Y-92.0035
G01 X-22.6801 Y-91.9408
G01 X-22.6781 Y-89.6668
G01 X-22.6441 Y-89.6083
G01 X-22.6283 Y-89.5288
G01 X-22.6298 Y-87.7490
G01 X-22.6470 Y-87.6848
G01 X-22.6774 Y-87.6341
G01 X-22.7141 Y-87.5974
G01 X-22.7717 Y-87.5641
G01 X-22.8512 Y-87.5483
G01 X-23.1810 Y-87.5498
G01 X-23.2585 Y-87.5733
G01 X-23.3180 Y-87.6174
G01 X-23.3659 Y-87.6917
G01 X-23.3817 Y-87.7712
G01 X-23.3817 Y-89.5288
G01 X-23.3659 Y-89.6083
G01 X-23.3319 Y-89.6668
G01 X-23.3319 Y-91.7696
G01 X-26.2354 Y-94.6731
G01 X-33.8646 Y-94.6731
G01 X-41.6688 Y-86.8688
G01 X-41.7153 Y-86.8303
G01 X-41.7714 Y-86.7995
G01 X-41.8325 Y-86.7802
G01 X-41.9000 Y-86.7731
G01 X-55.7146 Y-86.7731
G01 X-60.0188 Y-82.4688
G01 X-60.0993 Y-82.4100
G01 X-60.1515 Y-82.3883
G01 X-60.2142 Y-82.3751
G01 X-132.2646 Y-82.3731
G01 X-137.2731 Y-77.3646
G01 X-137.2731 Y-75.3354
G01 X-136.1646 Y-74.2269
G01 X-130.0354 Y-74.2269
G01 X-128.2249 Y-76.0375
G01 X-128.2637 Y-76.1401
G01 X-128.2950 Y-76.3015
G01 X-128.2943 Y-76.4660
G01 X-128.2637 Y-76.6199
G01 X-128.2334 Y-76.7044
G01 X-128.1553 Y-76.8491
G01 X-128.0531 Y-76.9731
G01 X-127.9228 Y-77.0795
G01 X-127.7775 Y-77.1563
G01 X-127.6999 Y-77.1837
G01 X-127.5460 Y-77.2143
G01 X-127.3740 Y-77.2143
G01 X-127.2927 Y-77.2019
G01 X-127.1451 Y-77.1572
G01 X-126.2233 Y-78.0789
G01 X-126.1523 Y-78.1316
G01 X-126.0862 Y-78.1590
G01 X-125.9949 Y-78.1720
G01 X-124.0951 Y-78.1720
G01 X-124.0277 Y-78.1649
G01 X-123.9377 Y-78.1316
G01 X-123.8639 Y-78.0763
G01 X-119.1232 Y-73.3356
G01 X-104.9668 Y-73.3356
G01 X-102.2372 Y-76.0651
G01 X-102.2819 Y-76.2127
G01 X-102.2950 Y-76.3015
G01 X-102.2950 Y-76.4585
G01 X-102.2819 Y-76.5473
G01 X-102.2363 Y-76.6975
G01 X-102.1979 Y-76.7787
G01 X-102.1107 Y-76.9092
G01 X-102.0531 Y-76.9731
G01 X-101.9892 Y-77.0307
G01 X-101.8587 Y-77.1179
G01 X-101.7775 Y-77.1563
G01 X-101.6264 Y-77.2021
G01 X-101.5385 Y-77.2150
G01 X-101.3815 Y-77.2150
G01 X-101.2927 Y-77.2019
G01 X-101.1451 Y-77.1572
G01 X-100.2051 Y-78.0954
G01 X-100.1165 Y-78.1485
G01 X-100.0232 Y-78.1707
G01 X-98.2413 Y-78.1719
G01 X-98.1466 Y-78.1568
G01 X-98.0604 Y-78.1148
G01 X-98.0139 Y-78.0763
G01 X-93.2583 Y-73.3207
G01 X-78.9817 Y-73.3207
G01 X-76.2372 Y-76.0651
G01 X-76.2821 Y-76.2136
G01 X-76.2987 Y-76.3762
G01 X-76.2943 Y-76.4660
G01 X-76.2615 Y-76.6271
G01 X-76.2015 Y-76.7720
G01 X-76.1553 Y-76.8491
G01 X-76.0531 Y-76.9731
G01 X-75.9291 Y-77.0753
G01 X-75.7775 Y-77.1563
G01 X-75.6999 Y-77.1837
G01 X-75.5460 Y-77.2143
G01 X-75.3740 Y-77.2143
G01 X-75.2927 Y-77.2019
G01 X-75.1451 Y-77.1572
G01 X-74.2233 Y-78.0789
G01 X-74.1523 Y-78.1316
G01 X-74.0862 Y-78.1590
G01 X-73.9949 Y-78.1720
G01 X-72.2451 Y-78.1720
G01 X-72.1777 Y-78.1649
G01 X-72.1166 Y-78.1456
G01 X-72.0604 Y-78.1148
G01 X-72.0139 Y-78.0763
G01 X-67.2583 Y-73.3207
G01 X-52.9817 Y-73.3207
G01 X-50.2372 Y-76.0651
G01 X-50.2819 Y-76.2127
G01 X-50.2950 Y-76.3015
G01 X-50.2950 Y-76.4585
G01 X-50.2819 Y-76.5473
G01 X-50.2363 Y-76.6975
G01 X-50.1979 Y-76.7787
G01 X-50.1107 Y-76.9092
G01 X-50.0504 Y-76.9757
G01 X-49.9228 Y-77.0795
G01 X-49.7775 Y-77.1563
G01 X-49.6264 Y-77.2021
G01 X-49.4638 Y-77.2187
G01 X-49.3740 Y-77.2143
G01 X-49.2129 Y-77.1815
G01 X-49.0613 Y-77.1179
G01 X-48.9250 Y-77.0259
G01 X-48.8093 Y-76.9092
G01 X-48.7185 Y-76.7720
G01 X-48.6563 Y-76.6199
G01 X-48.6250 Y-76.4585
G01 X-48.6257 Y-76.2940
G01 X-48.6585 Y-76.1329
G01 X-48.7221 Y-75.9813
G01 X-48.8141 Y-75.8450
G01 X-48.9250 Y-75.7341
G01 X-48.9972 Y-75.6805
G01 X-49.1356 Y-75.6066
G01 X-49.2201 Y-75.5763
G01 X-49.3740 Y-75.5457
G01 X-49.4638 Y-75.5413
G01 X-49.6199 Y-75.5567
G01 X-49.7749 Y-75.6028
G01 X-52.6151 Y-72.7626
G01 X-52.6955 Y-72.7037
G01 X-52.7478 Y-72.6821
G01 X-52.8105 Y-72.6689
G01 X-67.3938 Y-72.6668
G01 X-67.4612 Y-72.6739
G01 X-67.5512 Y-72.7073
G01 X-67.6249 Y-72.7626
G01 X-72.3805 Y-77.5182
G01 X-73.8595 Y-77.5182
G01 X-74.6828 Y-76.6949
G01 X-74.6381 Y-76.5473
G01 X-74.6250 Y-76.4585
G01 X-74.6250 Y-76.3015
G01 X-74.6381 Y-76.2127
G01 X-74.6837 Y-76.0625
G01 X-74.7221 Y-75.9813
G01 X-74.8093 Y-75.8508
G01 X-74.8669 Y-75.7869
G01 X-74.9308 Y-75.7293
G01 X-75.0613 Y-75.6421
G01 X-75.1425 Y-75.6037
G01 X-75.2936 Y-75.5579
G01 X-75.3815 Y-75.5450
G01 X-75.5385 Y-75.5450
G01 X-75.6273 Y-75.5581
G01 X-75.7749 Y-75.6028
G01 X-78.6151 Y-72.7626
G01 X-78.6615 Y-72.7241
G01 X-78.7177 Y-72.6932
G01 X-78.7788 Y-72.6739
G01 X-78.8425 Y-72.6669
G01 X-93.3938 Y-72.6668
G01 X-93.4612 Y-72.6739
G01 X-93.5512 Y-72.7073
G01 X-93.6249 Y-72.7626
G01 X-98.3805 Y-77.5182
G01 X-99.8595 Y-77.5182
G01 X-100.6828 Y-76.6949
G01 X-100.6381 Y-76.5473
G01 X-100.6250 Y-76.4585
G01 X-100.6250 Y-76.3015
G01 X-100.6381 Y-76.2127
G01 X-100.6837 Y-76.0625
G01 X-100.7221 Y-75.9813
G01 X-100.8093 Y-75.8508
G01 X-100.8669 Y-75.7869
G01 X-100.9308 Y-75.7293
G01 X-101.0613 Y-75.6421
G01 X-101.1425 Y-75.6037
G01 X-101.2936 Y-75.5579
G01 X-101.3815 Y-75.5450
G01 X-101.5385 Y-75.5450
G01 X-101.6273 Y-75.5581
G01 X-101.7749 Y-75.6028
G01 X-104.6002 Y-72.7775
G01 X-104.6466 Y-72.7390
G01 X-104.7028 Y-72.7081
G01 X-104.8031 Y-72.6830
G01 X-119.2586 Y-72.6817
G01 X-119.3261 Y-72.6888
G01 X-119.4160 Y-72.7222
G01 X-119.4898 Y-72.7775
G01 X-124.2305 Y-77.5182
G01 X-125.8595 Y-77.5182
G01 X-126.6828 Y-76.6949
G01 X-126.6381 Y-76.5473
G01 X-126.6250 Y-76.4585
G01 X-126.6250 Y-76.3015
G01 X-126.6381 Y-76.2127
G01 X-126.6837 Y-76.0625
G01 X-126.7221 Y-75.9813
G01 X-126.8093 Y-75.8508
G01 X-126.8669 Y-75.7869
G01 X-126.9308 Y-75.7293
G01 X-127.0613 Y-75.6421
G01 X-127.1425 Y-75.6037
G01 X-127.2936 Y-75.5579
G01 X-127.3815 Y-75.5450
G01 X-127.5385 Y-75.5450
G01 X-127.6273 Y-75.5581
G01 X-127.7454 Y-75.5922
G01 X-129.6688 Y-73.6688
G01 X-129.7493 Y-73.6100
G01 X-129.8399 Y-73.5787
G01 X-129.9000 Y-73.5731
G01 X-136.3000 Y-73.5731
G01 X-136.3610 Y-73.5789
G01 X-136.4507 Y-73.6100
G01 X-136.5284 Y-73.6662
G01 X-137.8312 Y-74.9688
G01 X-137.8900 Y-75.0493
G01 X-137.9117 Y-75.1015
G01 X-137.9249 Y-75.1642
G00 X-137.9249 Y-75.1642
G01 F60.00
G01 Z-0.1000
G01 F120.00
G01 X-137.9269 Y-77.5000
G01 X-137.9117 Y-77.5985
G01 X-137.8697 Y-77.6847
G01 X-137.8312 Y-77.7312
G01 X-132.6312 Y-82.9312
G01 X-132.5507 Y-82.9900
G01 X-132.4985 Y-83.0117
G01 X-132.4358 Y-83.0249
G01 X-60.3854 Y-83.0269
G01 X-56.0812 Y-87.3312
G01 X-56.0074 Y-87.3865
G01 X-55.9175 Y-87.4198
G01 X-55.8500 Y-87.4269
G01 X-42.0354 Y-87.4269
G01 X-34.2312 Y-95.2312
G01 X-34.1574 Y-95.2865
G01 X-34.0675 Y-95.3198
G01 X-34.0000 Y-95.3269
G01 X-26.1000 Y-95.3269
G01 X-26.0083 Y-95.3138
G01 X-25.9426 Y-95.2865
G01 X-25.8688 Y-95.2312
G01 X-22.7738 Y-92.1362
G01 X-22.7150 Y-92.0557
G01 X-22.6933 Y-92.0035
G01 X-22.6801 Y-91.9408
G01 X-22.6781 Y-89.6668
G01 X-22.6441 Y-89.6083
G01 X-22.6283 Y-89.5288
G01 X-22.6298 Y-87.7490
G01 X-22.6470 Y-87.6848
G01 X-22.6774 Y-87.6341
G01 X-22.7141 Y-87.5974
G01 X-22.7717 Y-87.5641
G01 X-22.8512 Y-87.5483
G01 X-23.1810 Y-87.5498
G01 X-23.2585 Y-87.5733
G01 X-23.3180 Y-87.6174
G01 X-23.3659 Y-87.6917
G01 X-23.3817 Y-87.7712
G01 X-23.3817 Y-89.5288
G01 X-23.3659 Y-89.6083
G01 X-23.3319 Y-89.6668
G01 X-23.3319 Y-91.7696
G01 X-26.2354 Y-94.6731
G01 X-33.8646 Y-94.6731
G01 X-41.6688 Y-86.8688
G01 X-41.7153 Y-86.8303
G01 X-41.7714 Y-86.7995
G01 X-41.8325 Y-86.7802
G01 X-41.9000 Y-86.7731
G01 X-55.7146 Y-86.7731
G01 X-60.0188 Y-82.4688
G01 X-60.0993 Y-82.4100
G01 X-60.1515 Y-82.3883
G01 X-60.2142 Y-82.3751
G01 X-132.2646 Y-82.3731
G01 X-137.2731 Y-77.3646
G01 X-137.2731 Y-75.3354
G01 X-136.1646 Y-74.2269
G01 X-130.0354 Y-74.2269
G01 X-128.2249 Y-76.0375
G01 X-128.2637 Y-76.1401
G01 X-128.2950 Y-76.3015
G01 X-128.2943 Y-76.4660
G01 X-128.2637 Y-76.6199
G01 X-128.2334 Y-76.7044
G01 X-128.1553 Y-76.8491
G01 X-128.0531 Y-76.9731
G01 X-127.9228 Y-77.0795
G01 X-127.7775 Y-77.1563
G01 X-127.6999 Y-77.1837
G01 X-127.5460 Y-77.2143
G01 X-127.3740 Y-77.2143
G01 X-127.2927 Y-77.2019
G01 X-127.1451 Y-77.1572
G01 X-126.2233 Y-78.0789
G01 X-126.1523 Y-78.1316
G01 X-126.0862 Y-78.1590
G01 X-125.9949 Y-78.1720
G01 X-124.0951 Y-78.1720
G01 X-124.0277 Y-78.1649
G01 X-123.9377 Y-78.1316
G01 X-123.8639 Y-78.0763
G01 X-119.1232 Y-73.3356
G01 X-104.9668 Y-73.3356
G01 X-102.2372 Y-76.0651
G01 X-102.2819 Y-76.2127
G01 X-102.2950 Y-76.3015
G01 X-102.2950 Y-76.4585
G01 X-102.2819 Y-76.5473
G01 X-102.2363 Y-76.6975
G01 X-102.1979 Y-76.7787
G01 X-102.1107 Y-76.9092
G01 X-102.0531 Y-76.9731
G01 X-101.9892 Y-77.0307
G01 X-101.8587 Y-77.1179
G01 X-101.7775 Y-77.1563
G01 X-101.6264 Y-77.2021
G01 X-101.5385 Y-77.2150
G01 X-101.3815 Y-77.2150
G01 X-101.2927 Y-77.2019
G01 X-101.1451 Y-77.1572
G01 X-100.2051 Y-78.0954
G01 X-100.1165 Y-78.1485
G01 X-100.0232 Y-78.1707
G01 X-98.2413 Y-78.1719
G01 X-98.1466 Y-78.1568
G01 X-98.0604 Y-78.1148
G01 X-98.0139 Y-78.0763
G01 X-93.2583 Y-73.3207
G01 X-78.9817 Y-73.3207
G01 X-76.2372 Y-76.0651
G01 X-76.2821 Y-76.2136
G01 X-76.2987 Y-76.3762
G01 X-76.2943 Y-76.4660
G01 X-76.2615 Y-76.6271
G01 X-76.2015 Y-76.7720
G01 X-76.1553 Y-76.8491
G01 X-76.0531 Y-76.9731
G01 X-75.9291 Y-77.0753
G01 X-75.7775 Y-77.1563
G01 X-75.6999 Y-77.1837
G01 X-75.5460 Y-77.2143
G01 X-75.3740 Y-77.2143
G01 X-75.2927 Y-77.2019
G01 X-75.1451 Y-77.1572
G01 X-74.2233 Y-78.0789
G01 X-74.1523 Y-78.1316
G01 X-74.0862 Y-78.1590
G01 X-73.9949 Y-78.1720
G01 X-72.2451 Y-78.1720
G01 X-72.1777 Y-78.1649
G01 X-72.1166 Y-78.1456
G01 X-72.0604 Y-78.1148
G01 X-72.0139 Y-78.0763
G01 X-67.2583 Y-73.3207
G01 X-52.9817 Y-73.3207
G01 X-50.2372 Y-76.0651
G01 X-50.2819 Y-76.2127
G01 X-50.2950 Y-76.3015
G01 X-50.2950 Y-76.4585
G01 X-50.2819 Y-76.5473
G01 X-50.2363 Y-76.6975
G01 X-50.1979 Y-76.7787
G01 X-50.1107 Y-76.9092
G01 X-50.0504 Y-76.9757
G01 X-49.9228 Y-77.0795
G01 X-49.7775 Y-77.1563
G01 X-49.6264 Y-77.2021
G01 X-49.4638 Y-77.2187
G01 X-49.3740 Y-77.2143
G01 X-49.2129 Y-77.1815
G01 X-49.0613 Y-77.1179
G01 X-48.9250 Y-77.0259
G01 X-48.8093 Y-76.9092
G01 X-48.7185 Y-76.7720
G01 X-48.6563 Y-76.6199
G01 X-48.6250 Y-76.4585
G01 X-48.6257 Y-76.2940
G01 X-48.6585 Y-76.1329
G01 X-48.7221 Y-75.9813
G01 X-48.8141 Y-75.8450
G01 X-48.9250 Y-75.7341
G01 X-48.9972 Y-75.6805
G01 X-49.1356 Y-75.6066
G01 X-49.2201 Y-75.5763
G01 X-49.3740 Y-75.5457
G01 X-49.4638 Y-75.5413
G01 X-49.6199 Y-75.5567
G01 X-49.7749 Y-75.6028
G01 X-52.6151 Y-72.7626
G01 X-52.6955 Y-72.7037
G01 X-52.7478 Y-72.6821
G01 X-52.8105 Y-72.6689
G01 X-67.3938 Y-72.6668
G01 X-67.4612 Y-72.6739
G01 X-67.5512 Y-72.7073
G01 X-67.6249 Y-72.7626
G01 X-72.3805 Y-77.5182
G01 X-73.8595 Y-77.5182
G01 X-74.6828 Y-76.6949
G01 X-74.6381 Y-76.5473
G01 X-74.6250 Y-76.4585
G01 X-74.6250 Y-76.3015
G01 X-74.6381 Y-76.2127
G01 X-74.6837 Y-76.0625
G01 X-74.7221 Y-75.9813
G01 X-74.8093 Y-75.8508
G01 X-74.8669 Y-75.7869
G01 X-74.9308 Y-75.7293
G01 X-75.0613 Y-75.6421
G01 X-75.1425 Y-75.6037
G01 X-75.2936 Y-75.5579
G01 X-75.3815 Y-75.5450
G01 X-75.5385 Y-75.5450
G01 X-75.6273 Y-75.5581
G01 X-75.7749 Y-75.6028
G01 X-78.6151 Y-72.7626
G01 X-78.6615 Y-72.7241
G01 X-78.7177 Y-72.6932
G01 X-78.7788 Y-72.6739
G01 X-78.8425 Y-72.6669
G01 X-93.3938 Y-72.6668
G01 X-93.4612 Y-72.6739
G01 X-93.5512 Y-72.7073
G01 X-93.6249 Y-72.7626
G01 X-98.3805 Y-77.5182
G01 X-99.8595 Y-77.5182
G01 X-100.6828 Y-76.6949
G01 X-100.6381 Y-76.5473
G01 X-100.6250 Y-76.4585
