(G-CODE GENERATED BY FLATCAM vUnstable - www.flatcam.org - Version Date: 2022/3/1)

(Name: digiMatex_DS410-B_Cu.gbr_iso_combined_cnc)
(Type: G-code from Geometry)
(Units: MM)

(Created on Sunday, 06 February 2022 at 18:17)

(This preprocessor is the default preprocessor used by FlatCAM.)
(It is made to work with MACH3 compatible motion controllers.)

(TOOL DIAMETER: 0.4536 mm)
(Feedrate_XY: 120.0 mm/min)
(Feedrate_Z: 60.0 mm/min)
(Feedrate rapids 1500.0 mm/min)

(Z_Cut: -0.1 mm)
(DepthPerCut: 0.025 mm <=>4 passes)
(Z_Move: 2.0 mm)
(Z Start: None mm)
(Z End: 15.0 mm)
(X,Y End: None mm)
(Steps per circle: 16)
(Preprocessor Geometry: default)

(X range: -180.7188 ...   -1.2812  mm)
(Y range: -115.7188 ...   -1.2812  mm)

(Spindle Speed: 300.0 RPM)
G21
G90
G94

G01 F120.00
G00 Z2.0000

M03 S300.0
G01 F120.00
G00 X-10.1475 Y-20.1864
G01 F60.00
G01 Z-0.0250
G01 F120.00
G01 X-10.2073 Y-20.5968
G01 X-10.2265 Y-21.0111
G01 X-10.2051 Y-21.4253
G01 X-10.1431 Y-21.8355
G01 X-10.0413 Y-22.2375
G01 X-9.9005 Y-22.6277
G01 X-9.7222 Y-23.0022
G01 X-9.5080 Y-23.3574
G01 X-9.2601 Y-23.6899
G01 X-8.9888 Y-23.9888
G01 X-8.6899 Y-24.2601
G01 X-8.3559 Y-24.5092
G01 X-8.0022 Y-24.7222
G01 X-7.6277 Y-24.9005
G01 X-7.2375 Y-25.0413
G01 X-6.8341 Y-25.1435
G01 X-6.4253 Y-25.2051
G01 X-6.0111 Y-25.2265
G01 X-5.5968 Y-25.2073
G01 X-5.1864 Y-25.1475
G01 X-4.7838 Y-25.0478
G01 X-4.3929 Y-24.9091
G01 X-4.0174 Y-24.7327
G01 X-3.6611 Y-24.5204
G01 X-3.3273 Y-24.2742
G01 X-3.0112 Y-23.9888
G01 X-2.7399 Y-23.6899
G01 X-2.4908 Y-23.3559
G01 X-2.2778 Y-23.0022
G01 X-2.0995 Y-22.6277
G01 X-1.9587 Y-22.2375
G01 X-1.8565 Y-21.8340
G01 X-1.7949 Y-21.4253
G01 X-1.7735 Y-21.0111
G01 X-1.7927 Y-20.5968
G01 X-1.8525 Y-20.1864
G01 X-1.9522 Y-19.7838
G01 X-2.0909 Y-19.3929
G01 X-2.2673 Y-19.0174
G01 X-2.4796 Y-18.6611
G01 X-2.7258 Y-18.3273
G01 X-3.0112 Y-18.0112
G01 X-3.3101 Y-17.7399
G01 X-3.6441 Y-17.4908
G01 X-3.9978 Y-17.2778
G01 X-4.3723 Y-17.0995
G01 X-4.7625 Y-16.9587
G01 X-5.1659 Y-16.8565
G01 X-5.5968 Y-16.7927
G01 X-6.0111 Y-16.7735
G01 X-6.4253 Y-16.7949
G01 X-6.8355 Y-16.8569
G01 X-7.2375 Y-16.9587
G01 X-7.6277 Y-17.0995
G01 X-8.0022 Y-17.2778
G01 X-8.3574 Y-17.4920
G01 X-8.6899 Y-17.7399
G01 X-8.9888 Y-18.0112
G01 X-9.2601 Y-18.3101
G01 X-9.5092 Y-18.6441
G01 X-9.7327 Y-19.0174
G01 X-9.9091 Y-19.3929
G01 X-10.0478 Y-19.7838
G01 X-10.1475 Y-20.1864
G00 X-10.1475 Y-20.1864
G01 F60.00
G01 Z-0.0500
G01 F120.00
G01 X-10.2073 Y-20.5968
G01 X-10.2265 Y-21.0111
G01 X-10.2051 Y-21.4253
G01 X-10.1431 Y-21.8355
G01 X-10.0413 Y-22.2375
G01 X-9.9005 Y-22.6277
G01 X-9.7222 Y-23.0022
G01 X-9.5080 Y-23.3574
G01 X-9.2601 Y-23.6899
G01 X-8.9888 Y-23.9888
G01 X-8.6899 Y-24.2601
G01 X-8.3559 Y-24.5092
G01 X-8.0022 Y-24.7222
G01 X-7.6277 Y-24.9005
G01 X-7.2375 Y-25.0413
G01 X-6.8341 Y-25.1435
G01 X-6.4253 Y-25.2051
G01 X-6.0111 Y-25.2265
G01 X-5.5968 Y-25.2073
G01 X-5.1864 Y-25.1475
G01 X-4.7838 Y-25.0478
G01 X-4.3929 Y-24.9091
G01 X-4.0174 Y-24.7327
G01 X-3.6611 Y-24.5204
G01 X-3.3273 Y-24.2742
G01 X-3.0112 Y-23.9888
G01 X-2.7399 Y-23.6899
G01 X-2.4908 Y-23.3559
G01 X-2.2778 Y-23.0022
G01 X-2.0995 Y-22.6277
G01 X-1.9587 Y-22.2375
G01 X-1.8565 Y-21.8340
G01 X-1.7949 Y-21.4253
G01 X-1.7735 Y-21.0111
G01 X-1.7927 Y-20.5968
G01 X-1.8525 Y-20.1864
G01 X-1.9522 Y-19.7838
G01 X-2.0909 Y-19.3929
G01 X-2.2673 Y-19.0174
G01 X-2.4796 Y-18.6611
G01 X-2.7258 Y-18.3273
G01 X-3.0112 Y-18.0112
G01 X-3.3101 Y-17.7399
G01 X-3.6441 Y-17.4908
G01 X-3.9978 Y-17.2778
G01 X-4.3723 Y-17.0995
G01 X-4.7625 Y-16.9587
G01 X-5.1659 Y-16.8565
G01 X-5.5968 Y-16.7927
G01 X-6.0111 Y-16.7735
G01 X-6.4253 Y-16.7949
G01 X-6.8355 Y-16.8569
G01 X-7.2375 Y-16.9587
G01 X-7.6277 Y-17.0995
G01 X-8.0022 Y-17.2778
G01 X-8.3574 Y-17.4920
G01 X-8.6899 Y-17.7399
G01 X-8.9888 Y-18.0112
G01 X-9.2601 Y-18.3101
G01 X-9.5092 Y-18.6441
G01 X-9.7327 Y-19.0174
G01 X-9.9091 Y-19.3929
G01 X-10.0478 Y-19.7838
G01 X-10.1475 Y-20.1864
G00 X-10.1475 Y-20.1864
G01 F60.00
G01 Z-0.0750
G01 F120.00
G01 X-10.2073 Y-20.5968
G01 X-10.2265 Y-21.0111
G01 X-10.2051 Y-21.4253
G01 X-10.1431 Y-21.8355
G01 X-10.0413 Y-22.2375
G01 X-9.9005 Y-22.6277
G01 X-9.7222 Y-23.0022
G01 X-9.5080 Y-23.3574
G01 X-9.2601 Y-23.6899
G01 X-8.9888 Y-23.9888
G01 X-8.6899 Y-24.2601
G01 X-8.3559 Y-24.5092
G01 X-8.0022 Y-24.7222
G01 X-7.6277 Y-24.9005
G01 X-7.2375 Y-25.0413
G01 X-6.8341 Y-25.1435
G01 X-6.4253 Y-25.2051
G01 X-6.0111 Y-25.2265
G01 X-5.5968 Y-25.2073
G01 X-5.1864 Y-25.1475
G01 X-4.7838 Y-25.0478
G01 X-4.3929 Y-24.9091
G01 X-4.0174 Y-24.7327
G01 X-3.6611 Y-24.5204
G01 X-3.3273 Y-24.2742
G01 X-3.0112 Y-23.9888
G01 X-2.7399 Y-23.6899
G01 X-2.4908 Y-23.3559
G01 X-2.2778 Y-23.0022
G01 X-2.0995 Y-22.6277
G01 X-1.9587 Y-22.2375
G01 X-1.8565 Y-21.8340
G01 X-1.7949 Y-21.4253
G01 X-1.7735 Y-21.0111
G01 X-1.7927 Y-20.5968
G01 X-1.8525 Y-20.1864
G01 X-1.9522 Y-19.7838
G01 X-2.0909 Y-19.3929
G01 X-2.2673 Y-19.0174
G01 X-2.4796 Y-18.6611
G01 X-2.7258 Y-18.3273
G01 X-3.0112 Y-18.0112
G01 X-3.3101 Y-17.7399
G01 X-3.6441 Y-17.4908
G01 X-3.9978 Y-17.2778
G01 X-4.3723 Y-17.0995
G01 X-4.7625 Y-16.9587
G01 X-5.1659 Y-16.8565
G01 X-5.5968 Y-16.7927
G01 X-6.0111 Y-16.7735
G01 X-6.4253 Y-16.7949
G01 X-6.8355 Y-16.8569
G01 X-7.2375 Y-16.9587
G01 X-7.6277 Y-17.0995
G01 X-8.0022 Y-17.2778
G01 X-8.3574 Y-17.4920
G01 X-8.6899 Y-17.7399
G01 X-8.9888 Y-18.0112
G01 X-9.2601 Y-18.3101
G01 X-9.5092 Y-18.6441
G01 X-9.7327 Y-19.0174
G01 X-9.9091 Y-19.3929
G01 X-10.0478 Y-19.7838
G01 X-10.1475 Y-20.1864
G00 X-10.1475 Y-20.1864
G01 F60.00
G01 Z-0.1000
G01 F120.00
G01 X-10.2073 Y-20.5968
G01 X-10.2265 Y-21.0111
G01 X-10.2051 Y-21.4253
G01 X-10.1431 Y-21.8355
G01 X-10.0413 Y-22.2375
G01 X-9.9005 Y-22.6277
G01 X-9.7222 Y-23.0022
G01 X-9.5080 Y-23.3574
G01 X-9.2601 Y-23.6899
G01 X-8.9888 Y-23.9888
G01 X-8.6899 Y-24.2601
G01 X-8.3559 Y-24.5092
G01 X-8.0022 Y-24.7222
G01 X-7.6277 Y-24.9005
G01 X-7.2375 Y-25.0413
G01 X-6.8341 Y-25.1435
G01 X-6.4253 Y-25.2051
G01 X-6.0111 Y-25.2265
G01 X-5.5968 Y-25.2073
G01 X-5.1864 Y-25.1475
G01 X-4.7838 Y-25.0478
G01 X-4.3929 Y-24.9091
G01 X-4.0174 Y-24.7327
G01 X-3.6611 Y-24.5204
G01 X-3.3273 Y-24.2742
G01 X-3.0112 Y-23.9888
G01 X-2.7399 Y-23.6899
G01 X-2.4908 Y-23.3559
G01 X-2.2778 Y-23.0022
G01 X-2.0995 Y-22.6277
G01 X-1.9587 Y-22.2375
G01 X-1.8565 Y-21.8340
G01 X-1.7949 Y-21.4253
G01 X-1.7735 Y-21.0111
G01 X-1.7927 Y-20.5968
G01 X-1.8525 Y-20.1864
G01 X-1.9522 Y-19.7838
G01 X-2.0909 Y-19.3929
G01 X-2.2673 Y-19.0174
G01 X-2.4796 Y-18.6611
G01 X-2.7258 Y-18.3273
G01 X-3.0112 Y-18.0112
G01 X-3.3101 Y-17.7399
G01 X-3.6441 Y-17.4908
G01 X-3.9978 Y-17.2778
G01 X-4.3723 Y-17.0995
G01 X-4.7625 Y-16.9587
G01 X-5.1659 Y-16.8565
G01 X-5.5968 Y-16.7927
G01 X-6.0111 Y-16.7735
G01 X-6.4253 Y-16.7949
G01 X-6.8355 Y-16.8569
G01 X-7.2375 Y-16.9587
G01 X-7.6277 Y-17.0995
G01 X-8.0022 Y-17.2778
G01 X-8.3574 Y-17.4920
G01 X-8.6899 Y-17.7399
G01 X-8.9888 Y-18.0112
G01 X-9.2601 Y-18.3101
G01 X-9.5092 Y-18.6441
G01 X-9.7327 Y-19.0174
G01 X-9.9091 Y-19.3929
G01 X-10.0478 Y-19.7838
G01 X-10.1475 Y-20.1864
G00 Z2.0000
G00 X-14.4688 Y-30.1733
G01 F60.00
G01 Z-0.0250
G01 F120.00
G01 X-14.4688 Y-29.5183
G01 X-14.5232 Y-29.5183
G01 X-14.5241 Y-30.1575
G01 X-14.5450 Y-30.2345
G01 X-14.5820 Y-30.2898
G01 X-14.6530 Y-30.3425
G01 X-14.7300 Y-30.3634
G01 X-15.3692 Y-30.3643
G01 X-15.3692 Y-30.4187
G01 X-14.6927 Y-30.4164
G01 X-14.6136 Y-30.3867
G01 X-14.5491 Y-30.3384
G01 X-14.5008 Y-30.2739
G01 X-14.4688 Y-30.1733
G00 X-14.4688 Y-30.1733
G01 F60.00
G01 Z-0.0500
G01 F120.00
G01 X-14.4688 Y-29.5183
G01 X-14.5232 Y-29.5183
G01 X-14.5241 Y-30.1575
G01 X-14.5450 Y-30.2345
G01 X-14.5820 Y-30.2898
G01 X-14.6530 Y-30.3425
G01 X-14.7300 Y-30.3634
G01 X-15.3692 Y-30.3643
G01 X-15.3692 Y-30.4187
G01 X-14.6927 Y-30.4164
G01 X-14.6136 Y-30.3867
G01 X-14.5491 Y-30.3384
G01 X-14.5008 Y-30.2739
G01 X-14.4688 Y-30.1733
G00 X-14.4688 Y-30.1733
G01 F60.00
G01 Z-0.0750
G01 F120.00
G01 X-14.4688 Y-29.5183
G01 X-14.5232 Y-29.5183
G01 X-14.5241 Y-30.1575
G01 X-14.5450 Y-30.2345
G01 X-14.5820 Y-30.2898
G01 X-14.6530 Y-30.3425
G01 X-14.7300 Y-30.3634
G01 X-15.3692 Y-30.3643
G01 X-15.3692 Y-30.4187
G01 X-14.6927 Y-30.4164
G01 X-14.6136 Y-30.3867
G01 X-14.5491 Y-30.3384
G01 X-14.5008 Y-30.2739
G01 X-14.4688 Y-30.1733
G00 X-14.4688 Y-30.1733
G01 F60.00
G01 Z-0.1000
G01 F120.00
G01 X-14.4688 Y-29.5183
G01 X-14.5232 Y-29.5183
G01 X-14.5241 Y-30.1575
G01 X-14.5450 Y-30.2345
G01 X-14.5820 Y-30.2898
G01 X-14.6530 Y-30.3425
G01 X-14.7300 Y-30.3634
G01 X-15.3692 Y-30.3643
G01 X-15.3692 Y-30.4187
G01 X-14.6927 Y-30.4164
G01 X-14.6136 Y-30.3867
G01 X-14.5491 Y-30.3384
G01 X-14.5008 Y-30.2739
G01 X-14.4688 Y-30.1733
G00 Z2.0000
G00 X-17.5728 Y-30.5427
G01 F60.00
G01 Z-0.0250
G01 F120.00
G01 X-17.5964 Y-30.6061
G01 X-17.6093 Y-30.6970
G01 X-17.6049 Y-36.5840
G01 X-17.5637 Y-36.7122
G01 X-17.5110 Y-36.7790
G01 X-17.4471 Y-36.8338
G01 X-17.3964 Y-36.8633
G01 X-17.2615 Y-36.8898
G01 X-17.1927 Y-36.8863
G01 X-17.1443 Y-36.8705
G01 X-17.0519 Y-36.8258
G01 X-16.9513 Y-36.7508
G01 X-16.8722 Y-36.7211
G01 X-16.2956 Y-36.7188
G01 X-16.2956 Y-36.7732
G01 X-16.8148 Y-36.7732
G01 X-16.8933 Y-36.7872
G01 X-16.9499 Y-36.8178
G01 X-16.9970 Y-36.8649
G01 X-17.0276 Y-36.9215
G01 X-17.0416 Y-37.0000
G01 X-17.0416 Y-39.0000
G01 X-17.0276 Y-39.0785
G01 X-16.9970 Y-39.1351
G01 X-16.9671 Y-39.1680
G01 X-16.9314 Y-39.1945
G01 X-16.8742 Y-39.2189
G01 X-16.8148 Y-39.2268
G01 X-16.2956 Y-39.2268
G01 X-16.2956 Y-39.2812
G01 X-16.8722 Y-39.2789
G01 X-16.9513 Y-39.2492
G01 X-17.0519 Y-39.1742
G01 X-17.1441 Y-39.1274
G01 X-17.2091 Y-39.1115
G01 X-17.3231 Y-39.1168
G01 X-17.4069 Y-39.1422
G01 X-17.5177 Y-39.2246
G01 X-17.5646 Y-39.2929
G01 X-17.5972 Y-39.3793
G01 X-17.6088 Y-39.4434
G01 X-17.6068 Y-48.3764
G01 X-17.5801 Y-48.4748
G01 X-17.5548 Y-48.5311
G01 X-17.5183 Y-48.5757
G01 X-17.4574 Y-48.6288
G01 X-17.4190 Y-48.6557
G01 X-17.3740 Y-48.6746
G01 X-17.2386 Y-48.6943
G01 X-17.1734 Y-48.6847
G01 X-17.0538 Y-48.6303
G01 X-17.0080 Y-48.5926
G01 X-16.9384 Y-48.5066
G01 X-16.8739 Y-48.4583
G01 X-16.7948 Y-48.4286
G01 X-16.2183 Y-48.4263
G01 X-16.2183 Y-48.4807
G01 X-16.7375 Y-48.4807
G01 X-16.7872 Y-48.4862
G01 X-16.8345 Y-48.5025
G01 X-16.8898 Y-48.5395
G01 X-16.9320 Y-48.5909
G01 X-16.9520 Y-48.6337
G01 X-16.9643 Y-48.7075
G01 X-16.9643 Y-50.6125
G01 X-16.9520 Y-50.6863
G01 X-16.9197 Y-50.7476
G01 X-16.8726 Y-50.7947
G01 X-16.8113 Y-50.8270
G01 X-16.7625 Y-50.8379
G01 X-14.7375 Y-50.8393
G01 X-14.6878 Y-50.8338
G01 X-14.6405 Y-50.8175
G01 X-14.5852 Y-50.7805
G01 X-14.5430 Y-50.7291
G01 X-14.5230 Y-50.6863
G01 X-14.5107 Y-50.6125
G01 X-14.5107 Y-50.1408
G01 X-14.4563 Y-50.1408
G01 X-14.4586 Y-50.6698
G01 X-14.5569 Y-50.8932
G01 X-14.5674 Y-50.9424
G01 X-14.5674 Y-50.9875
G01 X-14.5433 Y-51.1014
G01 X-14.5081 Y-51.1704
G01 X-14.4063 Y-51.2706
G01 X-14.3327 Y-51.3043
G01 X-14.2161 Y-51.3268
G01 X-10.7887 Y-51.3268
G01 X-10.5555 Y-51.3044
G01 X-10.3459 Y-51.2445
G01 X-10.2232 Y-51.1866
G01 X-10.0735 Y-51.0989
G01 X-9.9072 Y-50.9579
G01 X-9.7703 Y-50.7912
G01 X-9.6645 Y-50.6005
G01 X-9.6380 Y-50.5366
G01 X-9.5781 Y-50.3270
G01 X-9.5560 Y-50.1049
G01 X-9.5601 Y-45.9299
G01 X-9.5936 Y-45.8180
G01 X-9.6287 Y-45.7605
G01 X-9.7179 Y-45.6800
G01 X-9.7910 Y-45.6426
G01 X-9.8942 Y-45.6252
G01 X-9.9479 Y-45.6239
G01 X-10.1467 Y-45.6812
G01 X-10.5017 Y-45.6812
G01 X-10.5017 Y-45.6268
G01 X-10.1825 Y-45.6268
G01 X-10.1328 Y-45.6213
G01 X-10.0855 Y-45.6050
G01 X-10.0302 Y-45.5680
G01 X-9.9880 Y-45.5166
G01 X-9.9612 Y-45.4497
G01 X-9.9557 Y-45.4000
G01 X-9.9557 Y-43.8000
G01 X-9.9680 Y-43.7262
G01 X-10.0145 Y-43.6477
G01 X-10.0659 Y-43.6055
G01 X-10.1087 Y-43.5855
G01 X-10.1825 Y-43.5732
G01 X-10.5017 Y-43.5732
G01 X-10.5017 Y-43.5188
G01 X-10.1467 Y-43.5188
G01 X-9.9778 Y-43.5690
G01 X-9.8819 Y-43.5756
G01 X-9.8255 Y-43.5684
G01 X-9.7112 Y-43.5141
G01 X-9.6490 Y-43.4643
G01 X-9.5733 Y-43.3328
G01 X-9.5566 Y-43.2462
G01 X-9.5557 Y-28.5062
G01 X-9.5781 Y-28.2730
G01 X-9.6380 Y-28.0634
G01 X-9.7452 Y-27.8485
G01 X-9.7836 Y-27.7910
G01 X-9.9246 Y-27.6247
G01 X-10.0913 Y-27.4878
G01 X-10.2820 Y-27.3820
G01 X-10.3459 Y-27.3555
G01 X-10.5555 Y-27.2956
G01 X-10.7776 Y-27.2735
G01 X-14.1932 Y-27.2732
G01 X-14.2377 Y-27.2776
G01 X-14.3419 Y-27.3080
G01 X-14.4071 Y-27.3462
G01 X-14.5002 Y-27.4535
G01 X-14.5251 Y-27.5085
G01 X-14.5436 Y-27.6210
G01 X-14.5350 Y-27.7096
G01 X-14.4688 Y-27.9017
G01 X-14.4688 Y-28.5567
G01 X-14.5232 Y-28.5567
G01 X-14.5232 Y-27.9375
G01 X-14.5311 Y-27.8781
G01 X-14.5555 Y-27.8209
G01 X-14.5820 Y-27.7852
G01 X-14.6149 Y-27.7553
G01 X-14.6715 Y-27.7247
G01 X-14.7500 Y-27.7107
G01 X-16.9500 Y-27.7107
G01 X-17.0094 Y-27.7186
G01 X-17.0666 Y-27.7430
G01 X-17.1180 Y-27.7852
G01 X-17.1550 Y-27.8405
G01 X-17.1759 Y-27.9175
G01 X-17.1768 Y-30.1375
G01 X-17.1689 Y-30.1969
G01 X-17.1445 Y-30.2541
G01 X-17.1180 Y-30.2898
G01 X-17.0666 Y-30.3320
G01 X-17.0094 Y-30.3564
G01 X-16.9500 Y-30.3643
G01 X-16.3308 Y-30.3643
G01 X-16.3308 Y-30.4187
G01 X-16.9858 Y-30.4187
G01 X-17.1475 Y-30.3649
G01 X-17.2403 Y-30.3459
G01 X-17.2879 Y-30.3456
G01 X-17.4109 Y-30.3835
G01 X-17.4652 Y-30.4126
G01 X-17.5133 Y-30.4599
G01 X-17.5728 Y-30.5427
G00 X-17.5728 Y-30.5427
G01 F60.00
G01 Z-0.0500
G01 F120.00
G01 X-17.5964 Y-30.6061
G01 X-17.6093 Y-30.6970
G01 X-17.6049 Y-36.5840
G01 X-17.5637 Y-36.7122
G01 X-17.5110 Y-36.7790
G01 X-17.4471 Y-36.8338
G01 X-17.3964 Y-36.8633
G01 X-17.2615 Y-36.8898
G01 X-17.1927 Y-36.8863
G01 X-17.1443 Y-36.8705
G01 X-17.0519 Y-36.8258
G01 X-16.9513 Y-36.7508
G01 X-16.8722 Y-36.7211
G01 X-16.2956 Y-36.7188
G01 X-16.2956 Y-36.7732
G01 X-16.8148 Y-36.7732
G01 X-16.8933 Y-36.7872
G01 X-16.9499 Y-36.8178
G01 X-16.9970 Y-36.8649
G01 X-17.0276 Y-36.9215
G01 X-17.0416 Y-37.0000
G01 X-17.0416 Y-39.0000
G01 X-17.0276 Y-39.0785
G01 X-16.9970 Y-39.1351
G01 X-16.9671 Y-39.1680
G01 X-16.9314 Y-39.1945
G01 X-16.8742 Y-39.2189
G01 X-16.8148 Y-39.2268
G01 X-16.2956 Y-39.2268
G01 X-16.2956 Y-39.2812
G01 X-16.8722 Y-39.2789
G01 X-16.9513 Y-39.2492
G01 X-17.0519 Y-39.1742
G01 X-17.1441 Y-39.1274
G01 X-17.2091 Y-39.1115
G01 X-17.3231 Y-39.1168
G01 X-17.4069 Y-39.1422
G01 X-17.5177 Y-39.2246
G01 X-17.5646 Y-39.2929
G01 X-17.5972 Y-39.3793
G01 X-17.6088 Y-39.4434
G01 X-17.6068 Y-48.3764
G01 X-17.5801 Y-48.4748
G01 X-17.5548 Y-48.5311
G01 X-17.5183 Y-48.5757
G01 X-17.4574 Y-48.6288
G01 X-17.4190 Y-48.6557
G01 X-17.3740 Y-48.6746
G01 X-17.2386 Y-48.6943
G01 X-17.1734 Y-48.6847
G01 X-17.0538 Y-48.6303
G01 X-17.0080 Y-48.5926
G01 X-16.9384 Y-48.5066
G01 X-16.8739 Y-48.4583
G01 X-16.7948 Y-48.4286
G01 X-16.2183 Y-48.4263
G01 X-16.2183 Y-48.4807
G01 X-16.7375 Y-48.4807
G01 X-16.7872 Y-48.4862
G01 X-16.8345 Y-48.5025
G01 X-16.8898 Y-48.5395
G01 X-16.9320 Y-48.5909
G01 X-16.9520 Y-48.6337
G01 X-16.9643 Y-48.7075
G01 X-16.9643 Y-50.6125
G01 X-16.9520 Y-50.6863
G01 X-16.9197 Y-50.7476
G01 X-16.8726 Y-50.7947
G01 X-16.8113 Y-50.8270
G01 X-16.7625 Y-50.8379
G01 X-14.7375 Y-50.8393
G01 X-14.6878 Y-50.8338
G01 X-14.6405 Y-50.8175
G01 X-14.5852 Y-50.7805
G01 X-14.5430 Y-50.7291
G01 X-14.5230 Y-50.6863
G01 X-14.5107 Y-50.6125
G01 X-14.5107 Y-50.1408
G01 X-14.4563 Y-50.1408
G01 X-14.4586 Y-50.6698
G01 X-14.5569 Y-50.8932
G01 X-14.5674 Y-50.9424
G01 X-14.5674 Y-50.9875
G01 X-14.5433 Y-51.1014
G01 X-14.5081 Y-51.1704
G01 X-14.4063 Y-51.2706
G01 X-14.3327 Y-51.3043
G01 X-14.2161 Y-51.3268
G01 X-10.7887 Y-51.3268
G01 X-10.5555 Y-51.3044
G01 X-10.3459 Y-51.2445
G01 X-10.2232 Y-51.1866
G01 X-10.0735 Y-51.0989
G01 X-9.9072 Y-50.9579
G01 X-9.7703 Y-50.7912
G01 X-9.6645 Y-50.6005
G01 X-9.6380 Y-50.5366
G01 X-9.5781 Y-50.3270
G01 X-9.5560 Y-50.1049
G01 X-9.5601 Y-45.9299
G01 X-9.5936 Y-45.8180
G01 X-9.6287 Y-45.7605
G01 X-9.7179 Y-45.6800
G01 X-9.7910 Y-45.6426
G01 X-9.8942 Y-45.6252
G01 X-9.9479 Y-45.6239
G01 X-10.1467 Y-45.6812
G01 X-10.5017 Y-45.6812
G01 X-10.5017 Y-45.6268
G01 X-10.1825 Y-45.6268
G01 X-10.1328 Y-45.6213
G01 X-10.0855 Y-45.6050
G01 X-10.0302 Y-45.5680
G01 X-9.9880 Y-45.5166
G01 X-9.9612 Y-45.4497
G01 X-9.9557 Y-45.4000
G01 X-9.9557 Y-43.8000
G01 X-9.9680 Y-43.7262
G01 X-10.0145 Y-43.6477
G01 X-10.0659 Y-43.6055
G01 X-10.1087 Y-43.5855
G01 X-10.1825 Y-43.5732
G01 X-10.5017 Y-43.5732
G01 X-10.5017 Y-43.5188
G01 X-10.1467 Y-43.5188
G01 X-9.9778 Y-43.5690
G01 X-9.8819 Y-43.5756
G01 X-9.8255 Y-43.5684
G01 X-9.7112 Y-43.5141
G01 X-9.6490 Y-43.4643
G01 X-9.5733 Y-43.3328
G01 X-9.5566 Y-43.2462
G01 X-9.5557 Y-28.5062
G01 X-9.5781 Y-28.2730
G01 X-9.6380 Y-28.0634
G01 X-9.7452 Y-27.8485
G01 X-9.7836 Y-27.7910
G01 X-9.9246 Y-27.6247
G01 X-10.0913 Y-27.4878
G01 X-10.2820 Y-27.3820
G01 X-10.3459 Y-27.3555
G01 X-10.5555 Y-27.2956
G01 X-10.7776 Y-27.2735
G01 X-14.1932 Y-27.2732
G01 X-14.2377 Y-27.2776
G01 X-14.3419 Y-27.3080
G01 X-14.4071 Y-27.3462
G01 X-14.5002 Y-27.4535
G01 X-14.5251 Y-27.5085
G01 X-14.5436 Y-27.6210
G01 X-14.5350 Y-27.7096
G01 X-14.4688 Y-27.9017
G01 X-14.4688 Y-28.5567
G01 X-14.5232 Y-28.5567
G01 X-14.5232 Y-27.9375
G01 X-14.5311 Y-27.8781
G01 X-14.5555 Y-27.8209
G01 X-14.5820 Y-27.7852
G01 X-14.6149 Y-27.7553
G01 X-14.6715 Y-27.7247
G01 X-14.7500 Y-27.7107
G01 X-16.9500 Y-27.7107
G01 X-17.0094 Y-27.7186
G01 X-17.0666 Y-27.7430
G01 X-17.1180 Y-27.7852
G01 X-17.1550 Y-27.8405
G01 X-17.1759 Y-27.9175
G01 X-17.1768 Y-30.1375
G01 X-17.1689 Y-30.1969
G01 X-17.1445 Y-30.2541
G01 X-17.1180 Y-30.2898
G01 X-17.0666 Y-30.3320
G01 X-17.0094 Y-30.3564
G01 X-16.9500 Y-30.3643
G01 X-16.3308 Y-30.3643
G01 X-16.3308 Y-30.4187
G01 X-16.9858 Y-30.4187
G01 X-17.1475 Y-30.3649
G01 X-17.2403 Y-30.3459
G01 X-17.2879 Y-30.3456
G01 X-17.4109 Y-30.3835
G01 X-17.4652 Y-30.4126
G01 X-17.5133 Y-30.4599
G01 X-17.5728 Y-30.5427
G00 X-17.5728 Y-30.5427
G01 F60.00
G01 Z-0.0750
G01 F120.00
G01 X-17.5964 Y-30.6061
G01 X-17.6093 Y-30.6970
G01 X-17.6049 Y-36.5840
G01 X-17.5637 Y-36.7122
G01 X-17.5110 Y-36.7790
G01 X-17.4471 Y-36.8338
G01 X-17.3964 Y-36.8633
G01 X-17.2615 Y-36.8898
G01 X-17.1927 Y-36.8863
G01 X-17.1443 Y-36.8705
G01 X-17.0519 Y-36.8258
G01 X-16.9513 Y-36.7508
G01 X-16.8722 Y-36.7211
G01 X-16.2956 Y-36.7188
G01 X-16.2956 Y-36.7732
G01 X-16.8148 Y-36.7732
G01 X-16.8933 Y-36.7872
G01 X-16.9499 Y-36.8178
G01 X-16.9970 Y-36.8649
G01 X-17.0276 Y-36.9215
G01 X-17.0416 Y-37.0000
G01 X-17.0416 Y-39.0000
G01 X-17.0276 Y-39.0785
G01 X-16.9970 Y-39.1351
G01 X-16.9671 Y-39.1680
G01 X-16.9314 Y-39.1945
G01 X-16.8742 Y-39.2189
G01 X-16.8148 Y-39.2268
G01 X-16.2956 Y-39.2268
G01 X-16.2956 Y-39.2812
G01 X-16.8722 Y-39.2789
G01 X-16.9513 Y-39.2492
G01 X-17.0519 Y-39.1742
G01 X-17.1441 Y-39.1274
G01 X-17.2091 Y-39.1115
G01 X-17.3231 Y-39.1168
G01 X-17.4069 Y-39.1422
G01 X-17.5177 Y-39.2246
G01 X-17.5646 Y-39.2929
G01 X-17.5972 Y-39.3793
G01 X-17.6088 Y-39.4434
G01 X-17.6068 Y-48.3764
G01 X-17.5801 Y-48.4748
G01 X-17.5548 Y-48.5311
G01 X-17.5183 Y-48.5757
G01 X-17.4574 Y-48.6288
G01 X-17.4190 Y-48.6557
G01 X-17.3740 Y-48.6746
G01 X-17.2386 Y-48.6943
G01 X-17.1734 Y-48.6847
G01 X-17.0538 Y-48.6303
G01 X-17.0080 Y-48.5926
G01 X-16.9384 Y-48.5066
G01 X-16.8739 Y-48.4583
G01 X-16.7948 Y-48.4286
G01 X-16.2183 Y-48.4263
G01 X-16.2183 Y-48.4807
G01 X-16.7375 Y-48.4807
G01 X-16.7872 Y-48.4862
G01 X-16.8345 Y-48.5025
G01 X-16.8898 Y-48.5395
G01 X-16.9320 Y-48.5909
G01 X-16.9520 Y-48.6337
G01 X-16.9643 Y-48.7075
G01 X-16.9643 Y-50.6125
G01 X-16.9520 Y-50.6863
G01 X-16.9197 Y-50.7476
G01 X-16.8726 Y-50.7947
G01 X-16.8113 Y-50.8270
G01 X-16.7625 Y-50.8379
G01 X-14.7375 Y-50.8393
G01 X-14.6878 Y-50.8338
G01 X-14.6405 Y-50.8175
G01 X-14.5852 Y-50.7805
G01 X-14.5430 Y-50.7291
G01 X-14.5230 Y-50.6863
G01 X-14.5107 Y-50.6125
G01 X-14.5107 Y-50.1408
G01 X-14.4563 Y-50.1408
G01 X-14.4586 Y-50.6698
G01 X-14.5569 Y-50.8932
G01 X-14.5674 Y-50.9424
G01 X-14.5674 Y-50.9875
G01 X-14.5433 Y-51.1014
G01 X-14.5081 Y-51.1704
G01 X-14.4063 Y-51.2706
G01 X-14.3327 Y-51.3043
G01 X-14.2161 Y-51.3268
G01 X-10.7887 Y-51.3268
G01 X-10.5555 Y-51.3044
G01 X-10.3459 Y-51.2445
G01 X-10.2232 Y-51.1866
G01 X-10.0735 Y-51.0989
G01 X-9.9072 Y-50.9579
G01 X-9.7703 Y-50.7912
G01 X-9.6645 Y-50.6005
G01 X-9.6380 Y-50.5366
G01 X-9.5781 Y-50.3270
G01 X-9.5560 Y-50.1049
G01 X-9.5601 Y-45.9299
G01 X-9.5936 Y-45.8180
G01 X-9.6287 Y-45.7605
G01 X-9.7179 Y-45.6800
G01 X-9.7910 Y-45.6426
G01 X-9.8942 Y-45.6252
G01 X-9.9479 Y-45.6239
G01 X-10.1467 Y-45.6812
G01 X-10.5017 Y-45.6812
G01 X-10.5017 Y-45.6268
G01 X-10.1825 Y-45.6268
G01 X-10.1328 Y-45.6213
G01 X-10.0855 Y-45.6050
G01 X-10.0302 Y-45.5680
G01 X-9.9880 Y-45.5166
G01 X-9.9612 Y-45.4497
G01 X-9.9557 Y-45.4000
G01 X-9.9557 Y-43.8000
G01 X-9.9680 Y-43.7262
G01 X-10.0145 Y-43.6477
G01 X-10.0659 Y-43.6055
G01 X-10.1087 Y-43.5855
G01 X-10.1825 Y-43.5732
G01 X-10.5017 Y-43.5732
G01 X-10.5017 Y-43.5188
G01 X-10.1467 Y-43.5188
G01 X-9.9778 Y-43.5690
G01 X-9.8819 Y-43.5756
G01 X-9.8255 Y-43.5684
G01 X-9.7112 Y-43.5141
G01 X-9.6490 Y-43.4643
G01 X-9.5733 Y-43.3328
G01 X-9.5566 Y-43.2462
G01 X-9.5557 Y-28.5062
G01 X-9.5781 Y-28.2730
G01 X-9.6380 Y-28.0634
G01 X-9.7452 Y-27.8485
G01 X-9.7836 Y-27.7910
G01 X-9.9246 Y-27.6247
G01 X-10.0913 Y-27.4878
G01 X-10.2820 Y-27.3820
G01 X-10.3459 Y-27.3555
G01 X-10.5555 Y-27.2956
G01 X-10.7776 Y-27.2735
G01 X-14.1932 Y-27.2732
G01 X-14.2377 Y-27.2776
G01 X-14.3419 Y-27.3080
G01 X-14.4071 Y-27.3462
G01 X-14.5002 Y-27.4535
G01 X-14.5251 Y-27.5085
G01 X-14.5436 Y-27.6210
G01 X-14.5350 Y-27.7096
G01 X-14.4688 Y-27.9017
G01 X-14.4688 Y-28.5567
G01 X-14.5232 Y-28.5567
G01 X-14.5232 Y-27.9375
G01 X-14.5311 Y-27.8781
G01 X-14.5555 Y-27.8209
G01 X-14.5820 Y-27.7852
G01 X-14.6149 Y-27.7553
G01 X-14.6715 Y-27.7247
G01 X-14.7500 Y-27.7107
G01 X-16.9500 Y-27.7107
G01 X-17.0094 Y-27.7186
G01 X-17.0666 Y-27.7430
G01 X-17.1180 Y-27.7852
G01 X-17.1550 Y-27.8405
G01 X-17.1759 Y-27.9175
G01 X-17.1768 Y-30.1375
G01 X-17.1689 Y-30.1969
G01 X-17.1445 Y-30.2541
G01 X-17.1180 Y-30.2898
G01 X-17.0666 Y-30.3320
G01 X-17.0094 Y-30.3564
G01 X-16.9500 Y-30.3643
G01 X-16.3308 Y-30.3643
G01 X-16.3308 Y-30.4187
G01 X-16.9858 Y-30.4187
G01 X-17.1475 Y-30.3649
G01 X-17.2403 Y-30.3459
G01 X-17.2879 Y-30.3456
G01 X-17.4109 Y-30.3835
G01 X-17.4652 Y-30.4126
G01 X-17.5133 Y-30.4599
G01 X-17.5728 Y-30.5427
G00 X-17.5728 Y-30.5427
G01 F60.00
G01 Z-0.1000
G01 F120.00
G01 X-17.5964 Y-30.6061
G01 X-17.6093 Y-30.6970
G01 X-17.6049 Y-36.5840
G01 X-17.5637 Y-36.7122
G01 X-17.5110 Y-36.7790
G01 X-17.4471 Y-36.8338
G01 X-17.3964 Y-36.8633
G01 X-17.2615 Y-36.8898
G01 X-17.1927 Y-36.8863
G01 X-17.1443 Y-36.8705
G01 X-17.0519 Y-36.8258
G01 X-16.9513 Y-36.7508
G01 X-16.8722 Y-36.7211
G01 X-16.2956 Y-36.7188
G01 X-16.2956 Y-36.7732
G01 X-16.8148 Y-36.7732
G01 X-16.8933 Y-36.7872
G01 X-16.9499 Y-36.8178
G01 X-16.9970 Y-36.8649
G01 X-17.0276 Y-36.9215
G01 X-17.0416 Y-37.0000
G01 X-17.0416 Y-39.0000
G01 X-17.0276 Y-39.0785
G01 X-16.9970 Y-39.1351
G01 X-16.9671 Y-39.1680
G01 X-16.9314 Y-39.1945
G01 X-16.8742 Y-39.2189
G01 X-16.8148 Y-39.2268
G01 X-16.2956 Y-39.2268
G01 X-16.2956 Y-39.2812
G01 X-16.8722 Y-39.2789
G01 X-16.9513 Y-39.2492
G01 X-17.0519 Y-39.1742
G01 X-17.1441 Y-39.1274
G01 X-17.2091 Y-39.1115
G01 X-17.3231 Y-39.1168
G01 X-17.4069 Y-39.1422
G01 X-17.5177 Y-39.2246
G01 X-17.5646 Y-39.2929
G01 X-17.5972 Y-39.3793
G01 X-17.6088 Y-39.4434
G01 X-17.6068 Y-48.3764
G01 X-17.5801 Y-48.4748
G01 X-17.5548 Y-48.5311
G01 X-17.5183 Y-48.5757
G01 X-17.4574 Y-48.6288
G01 X-17.4190 Y-48.6557
G01 X-17.3740 Y-48.6746
G01 X-17.2386 Y-48.6943
G01 X-17.1734 Y-48.6847
G01 X-17.0538 Y-48.6303
G01 X-17.0080 Y-48.5926
G01 X-16.9384 Y-48.5066
G01 X-16.8739 Y-48.4583
G01 X-16.7948 Y-48.4286
G01 X-16.2183 Y-48.4263
G01 X-16.2183 Y-48.4807
G01 X-16.7375 Y-48.4807
G01 X-16.7872 Y-48.4862
G01 X-16.8345 Y-48.5025
G01 X-16.8898 Y-48.5395
G01 X-16.9320 Y-48.5909
G01 X-16.9520 Y-48.6337
G01 X-16.9643 Y-48.7075
G01 X-16.9643 Y-50.6125
G01 X-16.9520 Y-50.6863
G01 X-16.9197 Y-50.7476
G01 X-16.8726 Y-50.7947
G01 X-16.8113 Y-50.8270
G01 X-16.7625 Y-50.8379
G01 X-14.7375 Y-50.8393
G01 X-14.6878 Y-50.8338
G01 X-14.6405 Y-50.8175
G01 X-14.5852 Y-50.7805
G01 X-14.5430 Y-50.7291
G01 X-14.5230 Y-50.6863
G01 X-14.5107 Y-50.6125
G01 X-14.5107 Y-50.1408
G01 X-14.4563 Y-50.1408
G01 X-14.4586 Y-50.6698
G01 X-14.5569 Y-50.8932
G01 X-14.5674 Y-50.9424
G01 X-14.5674 Y-50.9875
G01 X-14.5433 Y-51.1014
G01 X-14.5081 Y-51.1704
G01 X-14.4063 Y-51.2706
G01 X-14.3327 Y-51.3043
G01 X-14.2161 Y-51.3268
G01 X-10.7887 Y-51.3268
G01 X-10.5555 Y-51.3044
G01 X-10.3459 Y-51.2445
G01 X-10.2232 Y-51.1866
G01 X-10.0735 Y-51.0989
G01 X-9.9072 Y-50.9579
G01 X-9.7703 Y-50.7912
G01 X-9.6645 Y-50.6005
G01 X-9.6380 Y-50.5366
G01 X-9.5781 Y-50.3270
G01 X-9.5560 Y-50.1049
G01 X-9.5601 Y-45.9299
G01 X-9.5936 Y-45.8180
G01 X-9.6287 Y-45.7605
G01 X-9.7179 Y-45.6800
G01 X-9.7910 Y-45.6426
G01 X-9.8942 Y-45.6252
G01 X-9.9479 Y-45.6239
G01 X-10.1467 Y-45.6812
G01 X-10.5017 Y-45.6812
G01 X-10.5017 Y-45.6268
G01 X-10.1825 Y-45.6268
G01 X-10.1328 Y-45.6213
G01 X-10.0855 Y-45.6050
G01 X-10.0302 Y-45.5680
G01 X-9.9880 Y-45.5166
G01 X-9.9612 Y-45.4497
G01 X-9.9557 Y-45.4000
G01 X-9.9557 Y-43.8000
G01 X-9.9680 Y-43.7262
G01 X-10.0145 Y-43.6477
G01 X-10.0659 Y-43.6055
G01 X-10.1087 Y-43.5855
G01 X-10.1825 Y-43.5732
G01 X-10.5017 Y-43.5732
G01 X-10.5017 Y-43.5188
G01 X-10.1467 Y-43.5188
G01 X-9.9778 Y-43.5690
G01 X-9.8819 Y-43.5756
G01 X-9.8255 Y-43.5684
G01 X-9.7112 Y-43.5141
G01 X-9.6490 Y-43.4643
G01 X-9.5733 Y-43.3328
G01 X-9.5566 Y-43.2462
G01 X-9.5557 Y-28.5062
G01 X-9.5781 Y-28.2730
G01 X-9.6380 Y-28.0634
G01 X-9.7452 Y-27.8485
G01 X-9.7836 Y-27.7910
G01 X-9.9246 Y-27.6247
G01 X-10.0913 Y-27.4878
G01 X-10.2820 Y-27.3820
G01 X-10.3459 Y-27.3555
G01 X-10.5555 Y-27.2956
G01 X-10.7776 Y-27.2735
G01 X-14.1932 Y-27.2732
G01 X-14.2377 Y-27.2776
G01 X-14.3419 Y-27.3080
G01 X-14.4071 Y-27.3462
G01 X-14.5002 Y-27.4535
G01 X-14.5251 Y-27.5085
G01 X-14.5436 Y-27.6210
G01 X-14.5350 Y-27.7096
G01 X-14.4688 Y-27.9017
G01 X-14.4688 Y-28.5567
G01 X-14.5232 Y-28.5567
G01 X-14.5232 Y-27.9375
G01 X-14.5311 Y-27.8781
G01 X-14.5555 Y-27.8209
G01 X-14.5820 Y-27.7852
G01 X-14.6149 Y-27.7553
G01 X-14.6715 Y-27.7247
G01 X-14.7500 Y-27.7107
G01 X-16.9500 Y-27.7107
G01 X-17.0094 Y-27.7186
G01 X-17.0666 Y-27.7430
G01 X-17.1180 Y-27.7852
G01 X-17.1550 Y-27.8405
G01 X-17.1759 Y-27.9175
G01 X-17.1768 Y-30.1375
G01 X-17.1689 Y-30.1969
G01 X-17.1445 Y-30.2541
G01 X-17.1180 Y-30.2898
G01 X-17.0666 Y-30.3320
G01 X-17.0094 Y-30.3564
G01 X-16.9500 Y-30.3643
G01 X-16.3308 Y-30.3643
G01 X-16.3308 Y-30.4187
G01 X-16.9858 Y-30.4187
G01 X-17.1475 Y-30.3649
G01 X-17.2403 Y-30.3459
G01 X-17.2879 Y-30.3456
G01 X-17.4109 Y-30.3835
G01 X-17.4652 Y-30.4126
G01 X-17.5133 Y-30.4599
G01 X-17.5728 Y-30.5427
G00 Z2.0000
G00 X-17.6637 Y-30.7047
G01 F60.00
G01 Z-0.0250
G01 F120.00
G01 X-17.6637 Y-36.5233
G01 X-17.6477 Y-36.6343
G01 X-17.5971 Y-36.7584
G01 X-17.5052 Y-36.8560
G01 X-17.4247 Y-36.9078
G01 X-17.2963 Y-36.9504
G01 X-17.1792 Y-37.0436
G01 X-17.1313 Y-37.1196
G01 X-17.1015 Y-37.2208
G01 X-17.0965 Y-37.2682
G01 X-17.0965 Y-38.7313
G01 X-17.1090 Y-38.8233
G01 X-17.1703 Y-38.9444
G01 X-17.2126 Y-38.9926
G01 X-17.3138 Y-39.0535
G01 X-17.3980 Y-39.0812
G01 X-17.4820 Y-39.1271
G01 X-17.5806 Y-39.2179
G01 X-17.6400 Y-39.3381
G01 X-17.6633 Y-39.4454
G01 X-17.6637 Y-48.3266
G01 X-17.6369 Y-48.4746
G01 X-17.5971 Y-48.5617
G01 X-17.5344 Y-48.6340
G01 X-17.4247 Y-48.7111
G01 X-17.2323 Y-48.7649
G01 X-17.1711 Y-48.8028
G01 X-17.1019 Y-48.8642
G01 X-17.0739 Y-48.9001
G01 X-17.0540 Y-48.9402
G01 X-17.0242 Y-49.0414
G01 X-17.0169 Y-50.6699
G01 X-16.9871 Y-50.7492
G01 X-16.9388 Y-50.8138
G01 X-16.8012 Y-50.9055
G01 X-16.7116 Y-50.9998
G01 X-16.6770 Y-51.0801
G01 X-16.6569 Y-51.1974
G01 X-16.6623 Y-51.2466
G01 X-16.7013 Y-51.3560
G01 X-16.8325 Y-51.5403
G01 X-16.9256 Y-51.7192
G01 X-16.8609 Y-51.7192
G01 X-16.7715 Y-51.5542
G01 X-16.6893 Y-51.4434
G01 X-16.5416 Y-51.2957
G01 X-16.4493 Y-51.2259
G01 X-16.3506 Y-51.1654
G01 X-16.2259 Y-51.1065
G01 X-16.0259 Y-51.0458
G01 X-15.8895 Y-51.0256
G01 X-15.6789 Y-51.0210
G01 X-15.4709 Y-51.0415
G01 X-15.3584 Y-51.0685
G01 X-15.2491 Y-51.1065
G01 X-15.1244 Y-51.1654
G01 X-14.9506 Y-51.2815
G01 X-14.8484 Y-51.3742
G01 X-14.7159 Y-51.5357
G01 X-14.6141 Y-51.7192
G01 X-14.5210 Y-51.7192
G01 X-14.5079 Y-51.6325
G01 X-14.4900 Y-51.5814
G01 X-14.4579 Y-51.5331
G01 X-14.3793 Y-51.4490
G01 X-14.3205 Y-51.4160
G01 X-14.1958 Y-51.3825
G01 X-10.7907 Y-51.3812
G01 X-10.5398 Y-51.3568
G01 X-10.3354 Y-51.2982
G01 X-10.2514 Y-51.2634
G01 X-10.0770 Y-51.1680
G01 X-9.9109 Y-51.0359
G01 X-9.8466 Y-50.9716
G01 X-9.7145 Y-50.8055
G01 X-9.6191 Y-50.6311
G01 X-9.5843 Y-50.5471
G01 X-9.5258 Y-50.3432
G01 X-9.5013 Y-50.0910
G01 X-9.5013 Y-45.9906
G01 X-9.5145 Y-45.8829
G01 X-9.5059 Y-45.7840
G01 X-9.4905 Y-45.7358
G01 X-9.4345 Y-45.6449
G01 X-9.3923 Y-45.5969
G01 X-9.3461 Y-45.5662
G01 X-9.2720 Y-45.5328
G01 X-9.2035 Y-45.5145
G01 X-9.1458 Y-45.5159
G01 X-9.0357 Y-45.5364
G01 X-8.8537 Y-45.6199
G01 X-8.6710 Y-45.6688
G01 X-8.4825 Y-45.6853
G01 X-8.2940 Y-45.6688
G01 X-8.1360 Y-45.6265
G01 X-8.1811 Y-45.5813
G01 X-8.2904 Y-45.6085
G01 X-8.3930 Y-45.6227
G01 X-8.4936 Y-45.6265
G01 X-8.6719 Y-45.6090
G01 X-8.7698 Y-45.5856
G01 X-8.8856 Y-45.5441
G01 X-9.0621 Y-45.4473
G01 X-9.2162 Y-45.3180
G01 X-9.2831 Y-45.2426
G01 X-9.3826 Y-45.0937
G01 X-9.4266 Y-45.0031
G01 X-9.4678 Y-44.8885
G01 X-9.4909 Y-44.7930
G01 X-9.5052 Y-44.6895
G01 X-9.5090 Y-44.5889
G01 X-9.4915 Y-44.4106
G01 X-9.4681 Y-44.3127
G01 X-9.4266 Y-44.1969
G01 X-9.3826 Y-44.1063
G01 X-9.2831 Y-43.9574
G01 X-9.2005 Y-43.8663
G01 X-9.1251 Y-43.7994
G01 X-8.9566 Y-43.6894
G01 X-8.7911 Y-43.6209
G01 X-8.6937 Y-43.5954
G01 X-8.5942 Y-43.5795
G01 X-8.4714 Y-43.5735
G01 X-8.2931 Y-43.5910
G01 X-8.1811 Y-43.6187
G01 X-8.1360 Y-43.5735
G01 X-8.2940 Y-43.5312
G01 X-8.4825 Y-43.5147
G01 X-8.6710 Y-43.5312
G01 X-8.8537 Y-43.5801
G01 X-9.0438 Y-43.6652
G01 X-9.1376 Y-43.6839
G01 X-9.2013 Y-43.6810
G01 X-9.3190 Y-43.6441
G01 X-9.3929 Y-43.5914
G01 X-9.4752 Y-43.4838
G01 X-9.4941 Y-43.4300
G01 X-9.5065 Y-43.3369
G01 X-9.5013 Y-43.2195
G01 X-9.5013 Y-28.5090
G01 X-9.5258 Y-28.2570
G01 X-9.5849 Y-28.0514
G01 X-9.6191 Y-27.9690
G01 X-9.6955 Y-27.8262
G01 X-9.7451 Y-27.7521
G01 X-9.8822 Y-27.5901
G01 X-10.0657 Y-27.4395
G01 X-10.2514 Y-27.3366
G01 X-10.3354 Y-27.3018
G01 X-10.5404 Y-27.2431
G01 X-10.7653 Y-27.2196
G01 X-14.1770 Y-27.2188
G01 X-14.2880 Y-27.2348
G01 X-14.4121 Y-27.2854
G01 X-14.5097 Y-27.3773
G01 X-14.5977 Y-27.5102
G01 X-14.6724 Y-27.5880
G01 X-14.7312 Y-27.6210
G01 X-14.8560 Y-27.6545
G01 X-17.0074 Y-27.6581
G01 X-17.0867 Y-27.6879
G01 X-17.1513 Y-27.7362
G01 X-17.1996 Y-27.8008
G01 X-17.2317 Y-27.9016
G01 X-17.2317 Y-30.0176
G01 X-17.2385 Y-30.0726
G01 X-17.2627 Y-30.1606
G01 X-17.3033 Y-30.2274
G01 X-17.3960 Y-30.3153
G01 X-17.4988 Y-30.3726
G01 X-17.5897 Y-30.4711
G01 X-17.6735 Y-30.6244
G01 X-17.6637 Y-30.7047
G00 X-17.6637 Y-30.7047
G01 F60.00
G01 Z-0.0500
G01 F120.00
G01 X-17.6637 Y-36.5233
G01 X-17.6477 Y-36.6343
G01 X-17.5971 Y-36.7584
G01 X-17.5052 Y-36.8560
G01 X-17.4247 Y-36.9078
G01 X-17.2963 Y-36.9504
G01 X-17.1792 Y-37.0436
G01 X-17.1313 Y-37.1196
G01 X-17.1015 Y-37.2208
G01 X-17.0965 Y-37.2682
G01 X-17.0965 Y-38.7313
G01 X-17.1090 Y-38.8233
G01 X-17.1703 Y-38.9444
G01 X-17.2126 Y-38.9926
G01 X-17.3138 Y-39.0535
G01 X-17.3980 Y-39.0812
G01 X-17.4820 Y-39.1271
G01 X-17.5806 Y-39.2179
G01 X-17.6400 Y-39.3381
G01 X-17.6633 Y-39.4454
G01 X-17.6637 Y-48.3266
G01 X-17.6369 Y-48.4746
G01 X-17.5971 Y-48.5617
G01 X-17.5344 Y-48.6340
G01 X-17.4247 Y-48.7111
G01 X-17.2323 Y-48.7649
G01 X-17.1711 Y-48.8028
G01 X-17.1019 Y-48.8642
G01 X-17.0739 Y-48.9001
G01 X-17.0540 Y-48.9402
G01 X-17.0242 Y-49.0414
G01 X-17.0169 Y-50.6699
G01 X-16.9871 Y-50.7492
G01 X-16.9388 Y-50.8138
G01 X-16.8012 Y-50.9055
G01 X-16.7116 Y-50.9998
G01 X-16.6770 Y-51.0801
G01 X-16.6569 Y-51.1974
G01 X-16.6623 Y-51.2466
G01 X-16.7013 Y-51.3560
G01 X-16.8325 Y-51.5403
G01 X-16.9256 Y-51.7192
G01 X-16.8609 Y-51.7192
G01 X-16.7715 Y-51.5542
G01 X-16.6893 Y-51.4434
G01 X-16.5416 Y-51.2957
G01 X-16.4493 Y-51.2259
G01 X-16.3506 Y-51.1654
G01 X-16.2259 Y-51.1065
G01 X-16.0259 Y-51.0458
G01 X-15.8895 Y-51.0256
G01 X-15.6789 Y-51.0210
G01 X-15.4709 Y-51.0415
G01 X-15.3584 Y-51.0685
G01 X-15.2491 Y-51.1065
G01 X-15.1244 Y-51.1654
G01 X-14.9506 Y-51.2815
G01 X-14.8484 Y-51.3742
G01 X-14.7159 Y-51.5357
G01 X-14.6141 Y-51.7192
G01 X-14.5210 Y-51.7192
G01 X-14.5079 Y-51.6325
G01 X-14.4900 Y-51.5814
G01 X-14.4579 Y-51.5331
G01 X-14.3793 Y-51.4490
G01 X-14.3205 Y-51.4160
G01 X-14.1958 Y-51.3825
G01 X-10.7907 Y-51.3812
G01 X-10.5398 Y-51.3568
G01 X-10.3354 Y-51.2982
G01 X-10.2514 Y-51.2634
G01 X-10.0770 Y-51.1680
G01 X-9.9109 Y-51.0359
G01 X-9.8466 Y-50.9716
G01 X-9.7145 Y-50.8055
G01 X-9.6191 Y-50.6311
G01 X-9.5843 Y-50.5471
G01 X-9.5258 Y-50.3432
G01 X-9.5013 Y-50.0910
G01 X-9.5013 Y-45.9906
G01 X-9.5145 Y-45.8829
G01 X-9.5059 Y-45.7840
G01 X-9.4905 Y-45.7358
G01 X-9.4345 Y-45.6449
G01 X-9.3923 Y-45.5969
G01 X-9.3461 Y-45.5662
G01 X-9.2720 Y-45.5328
G01 X-9.2035 Y-45.5145
G01 X-9.1458 Y-45.5159
G01 X-9.0357 Y-45.5364
G01 X-8.8537 Y-45.6199
G01 X-8.6710 Y-45.6688
G01 X-8.4825 Y-45.6853
G01 X-8.2940 Y-45.6688
G01 X-8.1360 Y-45.6265
G01 X-8.1811 Y-45.5813
G01 X-8.2904 Y-45.6085
G01 X-8.3930 Y-45.6227
G01 X-8.4936 Y-45.6265
G01 X-8.6719 Y-45.6090
G01 X-8.7698 Y-45.5856
G01 X-8.8856 Y-45.5441
G01 X-9.0621 Y-45.4473
G01 X-9.2162 Y-45.3180
G01 X-9.2831 Y-45.2426
G01 X-9.3826 Y-45.0937
G01 X-9.4266 Y-45.0031
G01 X-9.4678 Y-44.8885
G01 X-9.4909 Y-44.7930
G01 X-9.5052 Y-44.6895
G01 X-9.5090 Y-44.5889
G01 X-9.4915 Y-44.4106
G01 X-9.4681 Y-44.3127
G01 X-9.4266 Y-44.1969
G01 X-9.3826 Y-44.1063
G01 X-9.2831 Y-43.9574
G01 X-9.2005 Y-43.8663
G01 X-9.1251 Y-43.7994
G01 X-8.9566 Y-43.6894
G01 X-8.7911 Y-43.6209
G01 X-8.6937 Y-43.5954
G01 X-8.5942 Y-43.5795
G01 X-8.4714 Y-43.5735
G01 X-8.2931 Y-43.5910
G01 X-8.1811 Y-43.6187
G01 X-8.1360 Y-43.5735
G01 X-8.2940 Y-43.5312
G01 X-8.4825 Y-43.5147
G01 X-8.6710 Y-43.5312
G01 X-8.8537 Y-43.5801
G01 X-9.0438 Y-43.6652
G01 X-9.1376 Y-43.6839
G01 X-9.2013 Y-43.6810
G01 X-9.3190 Y-43.6441
G01 X-9.3929 Y-43.5914
G01 X-9.4752 Y-43.4838
G01 X-9.4941 Y-43.4300
G01 X-9.5065 Y-43.3369
G01 X-9.5013 Y-43.2195
G01 X-9.5013 Y-28.5090
G01 X-9.5258 Y-28.2570
G01 X-9.5849 Y-28.0514
G01 X-9.6191 Y-27.9690
G01 X-9.6955 Y-27.8262
G01 X-9.7451 Y-27.7521
G01 X-9.8822 Y-27.5901
G01 X-10.0657 Y-27.4395
G01 X-10.2514 Y-27.3366
G01 X-10.3354 Y-27.3018
G01 X-10.5404 Y-27.2431
G01 X-10.7653 Y-27.2196
G01 X-14.1770 Y-27.2188
G01 X-14.2880 Y-27.2348
G01 X-14.4121 Y-27.2854
G01 X-14.5097 Y-27.3773
G01 X-14.5977 Y-27.5102
G01 X-14.6724 Y-27.5880
G01 X-14.7312 Y-27.6210
G01 X-14.8560 Y-27.6545
G01 X-17.0074 Y-27.6581
G01 X-17.0867 Y-27.6879
G01 X-17.1513 Y-27.7362
G01 X-17.1996 Y-27.8008
G01 X-17.2317 Y-27.9016
G01 X-17.2317 Y-30.0176
G01 X-17.2385 Y-30.0726
G01 X-17.2627 Y-30.1606
G01 X-17.3033 Y-30.2274
G01 X-17.3960 Y-30.3153
G01 X-17.4988 Y-30.3726
G01 X-17.5897 Y-30.4711
G01 X-17.6735 Y-30.6244
G01 X-17.6637 Y-30.7047
G00 X-17.6637 Y-30.7047
G01 F60.00
G01 Z-0.0750
G01 F120.00
G01 X-17.6637 Y-36.5233
G01 X-17.6477 Y-36.6343
G01 X-17.5971 Y-36.7584
G01 X-17.5052 Y-36.8560
G01 X-17.4247 Y-36.9078
G01 X-17.2963 Y-36.9504
G01 X-17.1792 Y-37.0436
G01 X-17.1313 Y-37.1196
G01 X-17.1015 Y-37.2208
G01 X-17.0965 Y-37.2682
G01 X-17.0965 Y-38.7313
G01 X-17.1090 Y-38.8233
G01 X-17.1703 Y-38.9444
G01 X-17.2126 Y-38.9926
G01 X-17.3138 Y-39.0535
G01 X-17.3980 Y-39.0812
G01 X-17.4820 Y-39.1271
G01 X-17.5806 Y-39.2179
G01 X-17.6400 Y-39.3381
G01 X-17.6633 Y-39.4454
G01 X-17.6637 Y-48.3266
G01 X-17.6369 Y-48.4746
G01 X-17.5971 Y-48.5617
G01 X-17.5344 Y-48.6340
G01 X-17.4247 Y-48.7111
G01 X-17.2323 Y-48.7649
G01 X-17.1711 Y-48.8028
G01 X-17.1019 Y-48.8642
G01 X-17.0739 Y-48.9001
G01 X-17.0540 Y-48.9402
G01 X-17.0242 Y-49.0414
G01 X-17.0169 Y-50.6699
G01 X-16.9871 Y-50.7492
G01 X-16.9388 Y-50.8138
G01 X-16.8012 Y-50.9055
G01 X-16.7116 Y-50.9998
G01 X-16.6770 Y-51.0801
G01 X-16.6569 Y-51.1974
G01 X-16.6623 Y-51.2466
G01 X-16.7013 Y-51.3560
G01 X-16.8325 Y-51.5403
G01 X-16.9256 Y-51.7192
G01 X-16.8609 Y-51.7192
G01 X-16.7715 Y-51.5542
G01 X-16.6893 Y-51.4434
G01 X-16.5416 Y-51.2957
G01 X-16.4493 Y-51.2259
G01 X-16.3506 Y-51.1654
G01 X-16.2259 Y-51.1065
G01 X-16.0259 Y-51.0458
G01 X-15.8895 Y-51.0256
G01 X-15.6789 Y-51.0210
G01 X-15.4709 Y-51.0415
G01 X-15.3584 Y-51.0685
G01 X-15.2491 Y-51.1065
G01 X-15.1244 Y-51.1654
G01 X-14.9506 Y-51.2815
G01 X-14.8484 Y-51.3742
G01 X-14.7159 Y-51.5357
G01 X-14.6141 Y-51.7192
G01 X-14.5210 Y-51.7192
G01 X-14.5079 Y-51.6325
G01 X-14.4900 Y-51.5814
G01 X-14.4579 Y-51.5331
G01 X-14.3793 Y-51.4490
G01 X-14.3205 Y-51.4160
G01 X-14.1958 Y-51.3825
G01 X-10.7907 Y-51.3812
G01 X-10.5398 Y-51.3568
G01 X-10.3354 Y-51.2982
G01 X-10.2514 Y-51.2634
G01 X-10.0770 Y-51.1680
G01 X-9.9109 Y-51.0359
G01 X-9.8466 Y-50.9716
G01 X-9.7145 Y-50.8055
G01 X-9.6191 Y-50.6311
G01 X-9.5843 Y-50.5471
G01 X-9.5258 Y-50.3432
G01 X-9.5013 Y-50.0910
G01 X-9.5013 Y-45.9906
G01 X-9.5145 Y-45.8829
G01 X-9.5059 Y-45.7840
G01 X-9.4905 Y-45.7358
G01 X-9.4345 Y-45.6449
G01 X-9.3923 Y-45.5969
G01 X-9.3461 Y-45.5662
G01 X-9.2720 Y-45.5328
G01 X-9.2035 Y-45.5145
G01 X-9.1458 Y-45.5159
G01 X-9.0357 Y-45.5364
G01 X-8.8537 Y-45.6199
G01 X-8.6710 Y-45.6688
G01 X-8.4825 Y-45.6853
G01 X-8.2940 Y-45.6688
G01 X-8.1360 Y-45.6265
G01 X-8.1811 Y-45.5813
G01 X-8.2904 Y-45.6085
G01 X-8.3930 Y-45.6227
G01 X-8.4936 Y-45.6265
G01 X-8.6719 Y-45.6090
G01 X-8.7698 Y-45.5856
G01 X-8.8856 Y-45.5441
G01 X-9.0621 Y-45.4473
G01 X-9.2162 Y-45.3180
G01 X-9.2831 Y-45.2426
G01 X-9.3826 Y-45.0937
G01 X-9.4266 Y-45.0031
G01 X-9.4678 Y-44.8885
G01 X-9.4909 Y-44.7930
G01 X-9.5052 Y-44.6895
G01 X-9.5090 Y-44.5889
G01 X-9.4915 Y-44.4106
G01 X-9.4681 Y-44.3127
G01 X-9.4266 Y-44.1969
G01 X-9.3826 Y-44.1063
G01 X-9.2831 Y-43.9574
G01 X-9.2005 Y-43.8663
G01 X-9.1251 Y-43.7994
G01 X-8.9566 Y-43.6894
G01 X-8.7911 Y-43.6209
G01 X-8.6937 Y-43.5954
G01 X-8.5942 Y-43.5795
G01 X-8.4714 Y-43.5735
G01 X-8.2931 Y-43.5910
G01 X-8.1811 Y-43.6187
G01 X-8.1360 Y-43.5735
G01 X-8.2940 Y-43.5312
G01 X-8.4825 Y-43.5147
G01 X-8.6710 Y-43.5312
G01 X-8.8537 Y-43.5801
G01 X-9.0438 Y-43.6652
G01 X-9.1376 Y-43.6839
G01 X-9.2013 Y-43.6810
G01 X-9.3190 Y-43.6441
G01 X-9.3929 Y-43.5914
G01 X-9.4752 Y-43.4838
G01 X-9.4941 Y-43.4300
G01 X-9.5065 Y-43.3369
G01 X-9.5013 Y-43.2195
G01 X-9.5013 Y-28.5090
G01 X-9.5258 Y-28.2570
G01 X-9.5849 Y-28.0514
G01 X-9.6191 Y-27.9690
G01 X-9.6955 Y-27.8262
G01 X-9.7451 Y-27.7521
G01 X-9.8822 Y-27.5901
G01 X-10.0657 Y-27.4395
G01 X-10.2514 Y-27.3366
G01 X-10.3354 Y-27.3018
G01 X-10.5404 Y-27.2431
G01 X-10.7653 Y-27.2196
G01 X-14.1770 Y-27.2188
G01 X-14.2880 Y-27.2348
G01 X-14.4121 Y-27.2854
G01 X-14.5097 Y-27.3773
G01 X-14.5977 Y-27.5102
G01 X-14.6724 Y-27.5880
G01 X-14.7312 Y-27.6210
G01 X-14.8560 Y-27.6545
G01 X-17.0074 Y-27.6581
G01 X-17.0867 Y-27.6879
G01 X-17.1513 Y-27.7362
G01 X-17.1996 Y-27.8008
G01 X-17.2317 Y-27.9016
G01 X-17.2317 Y-30.0176
G01 X-17.2385 Y-30.0726
G01 X-17.2627 Y-30.1606
G01 X-17.3033 Y-30.2274
G01 X-17.3960 Y-30.3153
G01 X-17.4988 Y-30.3726
G01 X-17.5897 Y-30.4711
G01 X-17.6735 Y-30.6244
G01 X-17.6637 Y-30.7047
G00 X-17.6637 Y-30.7047
G01 F60.00
G01 Z-0.1000
G01 F120.00
G01 X-17.6637 Y-36.5233
G01 X-17.6477 Y-36.6343
G01 X-17.5971 Y-36.7584
G01 X-17.5052 Y-36.8560
G01 X-17.4247 Y-36.9078
G01 X-17.2963 Y-36.9504
G01 X-17.1792 Y-37.0436
G01 X-17.1313 Y-37.1196
G01 X-17.1015 Y-37.2208
G01 X-17.0965 Y-37.2682
G01 X-17.0965 Y-38.7313
G01 X-17.1090 Y-38.8233
G01 X-17.1703 Y-38.9444
G01 X-17.2126 Y-38.9926
G01 X-17.3138 Y-39.0535
G01 X-17.3980 Y-39.0812
G01 X-17.4820 Y-39.1271
G01 X-17.5806 Y-39.2179
G01 X-17.6400 Y-39.3381
G01 X-17.6633 Y-39.4454
G01 X-17.6637 Y-48.3266
G01 X-17.6369 Y-48.4746
G01 X-17.5971 Y-48.5617
G01 X-17.5344 Y-48.6340
G01 X-17.4247 Y-48.7111
G01 X-17.2323 Y-48.7649
G01 X-17.1711 Y-48.8028
G01 X-17.1019 Y-48.8642
G01 X-17.0739 Y-48.9001
G01 X-17.0540 Y-48.9402
G01 X-17.0242 Y-49.0414
G01 X-17.0169 Y-50.6699
G01 X-16.9871 Y-50.7492
G01 X-16.9388 Y-50.8138
G01 X-16.8012 Y-50.9055
G01 X-16.7116 Y-50.9998
G01 X-16.6770 Y-51.0801
G01 X-16.6569 Y-51.1974
G01 X-16.6623 Y-51.2466
G01 X-16.7013 Y-51.3560
G01 X-16.8325 Y-51.5403
G01 X-16.9256 Y-51.7192
G01 X-16.8609 Y-51.7192
G01 X-16.7715 Y-51.5542
G01 X-16.6893 Y-51.4434
G01 X-16.5416 Y-51.2957
G01 X-16.4493 Y-51.2259
G01 X-16.3506 Y-51.1654
G01 X-16.2259 Y-51.1065
G01 X-16.0259 Y-51.0458
G01 X-15.8895 Y-51.0256
G01 X-15.6789 Y-51.0210
G01 X-15.4709 Y-51.0415
G01 X-15.3584 Y-51.0685
G01 X-15.2491 Y-51.1065
G01 X-15.1244 Y-51.1654
G01 X-14.9506 Y-51.2815
G01 X-14.8484 Y-51.3742
G01 X-14.7159 Y-51.5357
G01 X-14.6141 Y-51.7192
G01 X-14.5210 Y-51.7192
G01 X-14.5079 Y-51.6325
G01 X-14.4900 Y-51.5814
G01 X-14.4579 Y-51.5331
G01 X-14.3793 Y-51.4490
G01 X-14.3205 Y-51.4160
G01 X-14.1958 Y-51.3825
G01 X-10.7907 Y-51.3812
G01 X-10.5398 Y-51.3568
G01 X-10.3354 Y-51.2982
G01 X-10.2514 Y-51.2634
G01 X-10.0770 Y-51.1680
G01 X-9.9109 Y-51.0359
G01 X-9.8466 Y-50.9716
G01 X-9.7145 Y-50.8055
G01 X-9.6191 Y-50.6311
G01 X-9.5843 Y-50.5471
G01 X-9.5258 Y-50.3432
G01 X-9.5013 Y-50.0910
G01 X-9.5013 Y-45.9906
G01 X-9.5145 Y-45.8829
G01 X-9.5059 Y-45.7840
G01 X-9.4905 Y-45.7358
G01 X-9.4345 Y-45.6449
G01 X-9.3923 Y-45.5969
G01 X-9.3461 Y-45.5662
G01 X-9.2720 Y-45.5328
G01 X-9.2035 Y-45.5145
G01 X-9.1458 Y-45.5159
G01 X-9.0357 Y-45.5364
G01 X-8.8537 Y-45.6199
G01 X-8.6710 Y-45.6688
G01 X-8.4825 Y-45.6853
G01 X-8.2940 Y-45.6688
G01 X-8.1360 Y-45.6265
G01 X-8.1811 Y-45.5813
G01 X-8.2904 Y-45.6085
G01 X-8.3930 Y-45.6227
G01 X-8.4936 Y-45.6265
G01 X-8.6719 Y-45.6090
G01 X-8.7698 Y-45.5856
G01 X-8.8856 Y-45.5441
G01 X-9.0621 Y-45.4473
G01 X-9.2162 Y-45.3180
G01 X-9.2831 Y-45.2426
G01 X-9.3826 Y-45.0937
G01 X-9.4266 Y-45.0031
G01 X-9.4678 Y-44.8885
G01 X-9.4909 Y-44.7930
G01 X-9.5052 Y-44.6895
G01 X-9.5090 Y-44.5889
G01 X-9.4915 Y-44.4106
G01 X-9.4681 Y-44.3127
G01 X-9.4266 Y-44.1969
G01 X-9.3826 Y-44.1063
G01 X-9.2831 Y-43.9574
G01 X-9.2005 Y-43.8663
G01 X-9.1251 Y-43.7994
G01 X-8.9566 Y-43.6894
G01 X-8.7911 Y-43.6209
G01 X-8.6937 Y-43.5954
G01 X-8.5942 Y-43.5795
G01 X-8.4714 Y-43.5735
G01 X-8.2931 Y-43.5910
G01 X-8.1811 Y-43.6187
G01 X-8.1360 Y-43.5735
G01 X-8.2940 Y-43.5312
G01 X-8.4825 Y-43.5147
G01 X-8.6710 Y-43.5312
G01 X-8.8537 Y-43.5801
G01 X-9.0438 Y-43.6652
G01 X-9.1376 Y-43.6839
G01 X-9.2013 Y-43.6810
G01 X-9.3190 Y-43.6441
G01 X-9.3929 Y-43.5914
G01 X-9.4752 Y-43.4838
G01 X-9.4941 Y-43.4300
G01 X-9.5065 Y-43.3369
G01 X-9.5013 Y-43.2195
G01 X-9.5013 Y-28.5090
G01 X-9.5258 Y-28.2570
G01 X-9.5849 Y-28.0514
G01 X-9.6191 Y-27.9690
G01 X-9.6955 Y-27.8262
G01 X-9.7451 Y-27.7521
G01 X-9.8822 Y-27.5901
G01 X-10.0657 Y-27.4395
G01 X-10.2514 Y-27.3366
G01 X-10.3354 Y-27.3018
G01 X-10.5404 Y-27.2431
G01 X-10.7653 Y-27.2196
G01 X-14.1770 Y-27.2188
G01 X-14.2880 Y-27.2348
G01 X-14.4121 Y-27.2854
G01 X-14.5097 Y-27.3773
G01 X-14.5977 Y-27.5102
G01 X-14.6724 Y-27.5880
G01 X-14.7312 Y-27.6210
G01 X-14.8560 Y-27.6545
G01 X-17.0074 Y-27.6581
G01 X-17.0867 Y-27.6879
G01 X-17.1513 Y-27.7362
G01 X-17.1996 Y-27.8008
G01 X-17.2317 Y-27.9016
G01 X-17.2317 Y-30.0176
G01 X-17.2385 Y-30.0726
G01 X-17.2627 Y-30.1606
G01 X-17.3033 Y-30.2274
G01 X-17.3960 Y-30.3153
G01 X-17.4988 Y-30.3726
G01 X-17.5897 Y-30.4711
G01 X-17.6735 Y-30.6244
G01 X-17.6637 Y-30.7047
G00 Z2.0000
G00 X-14.7179 Y-36.7950
G01 F60.00
G01 Z-0.0250
G01 F120.00
G01 X-14.6797 Y-36.8178
G01 X-14.6327 Y-36.8649
G01 X-14.5935 Y-36.9503
G01 X-14.5880 Y-37.0000
G01 X-14.5880 Y-37.5192
G01 X-14.5336 Y-37.5192
G01 X-14.5360 Y-36.9427
G01 X-14.5656 Y-36.8636
G01 X-14.6139 Y-36.7991
G01 X-14.6784 Y-36.7508
G01 X-14.7575 Y-36.7211
G01 X-15.3340 Y-36.7188
G01 X-15.3340 Y-36.7732
G01 X-14.8148 Y-36.7732
G01 X-14.7554 Y-36.7811
G01 X-14.7179 Y-36.7950
G00 X-14.7179 Y-36.7950
G01 F60.00
G01 Z-0.0500
G01 F120.00
G01 X-14.6797 Y-36.8178
G01 X-14.6327 Y-36.8649
G01 X-14.5935 Y-36.9503
G01 X-14.5880 Y-37.0000
G01 X-14.5880 Y-37.5192
G01 X-14.5336 Y-37.5192
G01 X-14.5360 Y-36.9427
G01 X-14.5656 Y-36.8636
G01 X-14.6139 Y-36.7991
G01 X-14.6784 Y-36.7508
G01 X-14.7575 Y-36.7211
G01 X-15.3340 Y-36.7188
G01 X-15.3340 Y-36.7732
G01 X-14.8148 Y-36.7732
G01 X-14.7554 Y-36.7811
G01 X-14.7179 Y-36.7950
G00 X-14.7179 Y-36.7950
G01 F60.00
G01 Z-0.0750
G01 F120.00
G01 X-14.6797 Y-36.8178
G01 X-14.6327 Y-36.8649
G01 X-14.5935 Y-36.9503
G01 X-14.5880 Y-37.0000
G01 X-14.5880 Y-37.5192
G01 X-14.5336 Y-37.5192
G01 X-14.5360 Y-36.9427
G01 X-14.5656 Y-36.8636
G01 X-14.6139 Y-36.7991
G01 X-14.6784 Y-36.7508
G01 X-14.7575 Y-36.7211
G01 X-15.3340 Y-36.7188
G01 X-15.3340 Y-36.7732
G01 X-14.8148 Y-36.7732
G01 X-14.7554 Y-36.7811
G01 X-14.7179 Y-36.7950
G00 X-14.7179 Y-36.7950
G01 F60.00
G01 Z-0.1000
G01 F120.00
G01 X-14.6797 Y-36.8178
G01 X-14.6327 Y-36.8649
G01 X-14.5935 Y-36.9503
G01 X-14.5880 Y-37.0000
G01 X-14.5880 Y-37.5192
G01 X-14.5336 Y-37.5192
G01 X-14.5360 Y-36.9427
G01 X-14.5656 Y-36.8636
G01 X-14.6139 Y-36.7991
G01 X-14.6784 Y-36.7508
G01 X-14.7575 Y-36.7211
G01 X-15.3340 Y-36.7188
G01 X-15.3340 Y-36.7732
G01 X-14.8148 Y-36.7732
G01 X-14.7554 Y-36.7811
G01 X-14.7179 Y-36.7950
G00 Z2.0000
G00 X-14.5336 Y-39.0358
G01 F60.00
G01 Z-0.0250
G01 F120.00
G01 X-14.5336 Y-38.4808
G01 X-14.5880 Y-38.4808
G01 X-14.5894 Y-39.0250
G01 X-14.6098 Y-39.0970
G01 X-14.6468 Y-39.1523
G01 X-14.7179 Y-39.2050
G01 X-14.7948 Y-39.2259
G01 X-15.3340 Y-39.2268
G01 X-15.3340 Y-39.2812
G01 X-14.7575 Y-39.2789
G01 X-14.6784 Y-39.2492
G01 X-14.6139 Y-39.2009
G01 X-14.5656 Y-39.1364
G01 X-14.5336 Y-39.0358
G00 X-14.5336 Y-39.0358
G01 F60.00
G01 Z-0.0500
G01 F120.00
G01 X-14.5336 Y-38.4808
G01 X-14.5880 Y-38.4808
G01 X-14.5894 Y-39.0250
G01 X-14.6098 Y-39.0970
G01 X-14.6468 Y-39.1523
G01 X-14.7179 Y-39.2050
G01 X-14.7948 Y-39.2259
G01 X-15.3340 Y-39.2268
G01 X-15.3340 Y-39.2812
G01 X-14.7575 Y-39.2789
G01 X-14.6784 Y-39.2492
G01 X-14.6139 Y-39.2009
G01 X-14.5656 Y-39.1364
G01 X-14.5336 Y-39.0358
G00 X-14.5336 Y-39.0358
G01 F60.00
G01 Z-0.0750
G01 F120.00
G01 X-14.5336 Y-38.4808
G01 X-14.5880 Y-38.4808
G01 X-14.5894 Y-39.0250
G01 X-14.6098 Y-39.0970
G01 X-14.6468 Y-39.1523
G01 X-14.7179 Y-39.2050
G01 X-14.7948 Y-39.2259
G01 X-15.3340 Y-39.2268
G01 X-15.3340 Y-39.2812
G01 X-14.7575 Y-39.2789
G01 X-14.6784 Y-39.2492
G01 X-14.6139 Y-39.2009
G01 X-14.5656 Y-39.1364
G01 X-14.5336 Y-39.0358
G00 X-14.5336 Y-39.0358
G01 F60.00
G01 Z-0.1000
G01 F120.00
G01 X-14.5336 Y-38.4808
G01 X-14.5880 Y-38.4808
G01 X-14.5894 Y-39.0250
G01 X-14.6098 Y-39.0970
G01 X-14.6468 Y-39.1523
G01 X-14.7179 Y-39.2050
G01 X-14.7948 Y-39.2259
G01 X-15.3340 Y-39.2268
G01 X-15.3340 Y-39.2812
G01 X-14.7575 Y-39.2789
G01 X-14.6784 Y-39.2492
G01 X-14.6139 Y-39.2009
G01 X-14.5656 Y-39.1364
G01 X-14.5336 Y-39.0358
G00 Z2.0000
G00 X-11.9875 Y-43.7030
G01 F60.00
G01 Z-0.0250
G01 F120.00
G01 X-11.9348 Y-43.6320
G01 X-11.8563 Y-43.5855
G01 X-11.7825 Y-43.5732
G01 X-11.4633 Y-43.5732
G01 X-11.4633 Y-43.5188
G01 X-11.8398 Y-43.5211
G01 X-11.9189 Y-43.5508
G01 X-11.9834 Y-43.5991
G01 X-12.0317 Y-43.6636
G01 X-12.0614 Y-43.7427
G01 X-12.0637 Y-44.1192
G01 X-12.0093 Y-44.1192
G01 X-12.0093 Y-43.8000
G01 X-12.0038 Y-43.7503
G01 X-11.9875 Y-43.7030
G00 X-11.9875 Y-43.7030
G01 F60.00
G01 Z-0.0500
G01 F120.00
G01 X-11.9348 Y-43.6320
G01 X-11.8563 Y-43.5855
G01 X-11.7825 Y-43.5732
G01 X-11.4633 Y-43.5732
G01 X-11.4633 Y-43.5188
G01 X-11.8398 Y-43.5211
G01 X-11.9189 Y-43.5508
G01 X-11.9834 Y-43.5991
G01 X-12.0317 Y-43.6636
G01 X-12.0614 Y-43.7427
G01 X-12.0637 Y-44.1192
G01 X-12.0093 Y-44.1192
G01 X-12.0093 Y-43.8000
G01 X-12.0038 Y-43.7503
G01 X-11.9875 Y-43.7030
G00 X-11.9875 Y-43.7030
G01 F60.00
G01 Z-0.0750
G01 F120.00
G01 X-11.9348 Y-43.6320
G01 X-11.8563 Y-43.5855
G01 X-11.7825 Y-43.5732
G01 X-11.4633 Y-43.5732
G01 X-11.4633 Y-43.5188
G01 X-11.8398 Y-43.5211
G01 X-11.9189 Y-43.5508
G01 X-11.9834 Y-43.5991
G01 X-12.0317 Y-43.6636
G01 X-12.0614 Y-43.7427
G01 X-12.0637 Y-44.1192
G01 X-12.0093 Y-44.1192
G01 X-12.0093 Y-43.8000
G01 X-12.0038 Y-43.7503
G01 X-11.9875 Y-43.7030
G00 X-11.9875 Y-43.7030
G01 F60.00
G01 Z-0.1000
G01 F120.00
G01 X-11.9348 Y-43.6320
G01 X-11.8563 Y-43.5855
G01 X-11.7825 Y-43.5732
G01 X-11.4633 Y-43.5732
G01 X-11.4633 Y-43.5188
G01 X-11.8398 Y-43.5211
G01 X-11.9189 Y-43.5508
G01 X-11.9834 Y-43.5991
G01 X-12.0317 Y-43.6636
G01 X-12.0614 Y-43.7427
G01 X-12.0637 Y-44.1192
G01 X-12.0093 Y-44.1192
G01 X-12.0093 Y-43.8000
G01 X-12.0038 Y-43.7503
G01 X-11.9875 Y-43.7030
G00 Z2.0000
G00 X-11.8183 Y-45.6812
G01 F60.00
G01 Z-0.0250
G01 F120.00
G01 X-11.4633 Y-45.6812
G01 X-11.4633 Y-45.6268
G01 X-11.8025 Y-45.6259
G01 X-11.8795 Y-45.6050
G01 X-11.9348 Y-45.5680
G01 X-11.9875 Y-45.4970
G01 X-12.0079 Y-45.4250
G01 X-12.0093 Y-45.0808
G01 X-12.0637 Y-45.0808
G01 X-12.0637 Y-45.4358
G01 X-12.0317 Y-45.5364
G01 X-11.9834 Y-45.6009
G01 X-11.9189 Y-45.6492
G01 X-11.8183 Y-45.6812
G00 X-11.8183 Y-45.6812
G01 F60.00
G01 Z-0.0500
G01 F120.00
G01 X-11.4633 Y-45.6812
G01 X-11.4633 Y-45.6268
G01 X-11.8025 Y-45.6259
G01 X-11.8795 Y-45.6050
G01 X-11.9348 Y-45.5680
G01 X-11.9875 Y-45.4970
G01 X-12.0079 Y-45.4250
G01 X-12.0093 Y-45.0808
G01 X-12.0637 Y-45.0808
G01 X-12.0637 Y-45.4358
G01 X-12.0317 Y-45.5364
G01 X-11.9834 Y-45.6009
G01 X-11.9189 Y-45.6492
G01 X-11.8183 Y-45.6812
G00 X-11.8183 Y-45.6812
G01 F60.00
G01 Z-0.0750
G01 F120.00
G01 X-11.4633 Y-45.6812
G01 X-11.4633 Y-45.6268
G01 X-11.8025 Y-45.6259
G01 X-11.8795 Y-45.6050
G01 X-11.9348 Y-45.5680
G01 X-11.9875 Y-45.4970
G01 X-12.0079 Y-45.4250
G01 X-12.0093 Y-45.0808
G01 X-12.0637 Y-45.0808
G01 X-12.0637 Y-45.4358
G01 X-12.0317 Y-45.5364
G01 X-11.9834 Y-45.6009
G01 X-11.9189 Y-45.6492
G01 X-11.8183 Y-45.6812
G00 X-11.8183 Y-45.6812
G01 F60.00
G01 Z-0.1000
G01 F120.00
G01 X-11.4633 Y-45.6812
G01 X-11.4633 Y-45.6268
G01 X-11.8025 Y-45.6259
G01 X-11.8795 Y-45.6050
G01 X-11.9348 Y-45.5680
G01 X-11.9875 Y-45.4970
G01 X-12.0079 Y-45.4250
G01 X-12.0093 Y-45.0808
G01 X-12.0637 Y-45.0808
G01 X-12.0637 Y-45.4358
G01 X-12.0317 Y-45.5364
G01 X-11.9834 Y-45.6009
G01 X-11.9189 Y-45.6492
G01 X-11.8183 Y-45.6812
G00 Z2.0000
G00 X-14.6209 Y-48.5130
G01 F60.00
G01 Z-0.0250
G01 F120.00
G01 X-14.5553 Y-48.5724
G01 X-14.5162 Y-48.6578
G01 X-14.5107 Y-49.1792
G01 X-14.4563 Y-49.1792
G01 X-14.4586 Y-48.6502
G01 X-14.4883 Y-48.5711
G01 X-14.5366 Y-48.5066
G01 X-14.6011 Y-48.4583
G01 X-14.6802 Y-48.4286
G01 X-15.2567 Y-48.4263
G01 X-15.2567 Y-48.4807
G01 X-14.7375 Y-48.4807
G01 X-14.6878 Y-48.4862
G01 X-14.6209 Y-48.5130
G00 X-14.6209 Y-48.5130
G01 F60.00
G01 Z-0.0500
G01 F120.00
G01 X-14.5553 Y-48.5724
G01 X-14.5162 Y-48.6578
G01 X-14.5107 Y-49.1792
G01 X-14.4563 Y-49.1792
G01 X-14.4586 Y-48.6502
G01 X-14.4883 Y-48.5711
G01 X-14.5366 Y-48.5066
G01 X-14.6011 Y-48.4583
G01 X-14.6802 Y-48.4286
G01 X-15.2567 Y-48.4263
G01 X-15.2567 Y-48.4807
G01 X-14.7375 Y-48.4807
G01 X-14.6878 Y-48.4862
G01 X-14.6209 Y-48.5130
G00 X-14.6209 Y-48.5130
G01 F60.00
G01 Z-0.0750
G01 F120.00
G01 X-14.5553 Y-48.5724
G01 X-14.5162 Y-48.6578
G01 X-14.5107 Y-49.1792
G01 X-14.4563 Y-49.1792
G01 X-14.4586 Y-48.6502
G01 X-14.4883 Y-48.5711
G01 X-14.5366 Y-48.5066
G01 X-14.6011 Y-48.4583
G01 X-14.6802 Y-48.4286
G01 X-15.2567 Y-48.4263
G01 X-15.2567 Y-48.4807
G01 X-14.7375 Y-48.4807
G01 X-14.6878 Y-48.4862
G01 X-14.6209 Y-48.5130
G00 X-14.6209 Y-48.5130
G01 F60.00
G01 Z-0.1000
G01 F120.00
G01 X-14.5553 Y-48.5724
G01 X-14.5162 Y-48.6578
G01 X-14.5107 Y-49.1792
G01 X-14.4563 Y-49.1792
G01 X-14.4586 Y-48.6502
G01 X-14.4883 Y-48.5711
G01 X-14.5366 Y-48.5066
G01 X-14.6011 Y-48.4583
G01 X-14.6802 Y-48.4286
G01 X-15.2567 Y-48.4263
G01 X-15.2567 Y-48.4807
G01 X-14.7375 Y-48.4807
G01 X-14.6878 Y-48.4862
G01 X-14.6209 Y-48.5130
G00 Z2.0000
G00 X-14.6449 Y-55.2860
G01 F60.00
G01 Z-0.0250
G01 F120.00
G01 X-14.7159 Y-55.4043
G01 X-14.8484 Y-55.5658
G01 X-14.9506 Y-55.6585
G01 X-15.0442 Y-55.7265
G01 X-15.1440 Y-55.7851
G01 X-15.2567 Y-55.8363
G01 X-15.2567 Y-55.8991
G01 X-15.0785 Y-55.8164
G01 X-14.9109 Y-55.7021
G01 X-14.7643 Y-55.5619
G01 X-14.6425 Y-55.3997
G01 X-14.5494 Y-55.2208
G01 X-14.6141 Y-55.2208
G01 X-14.6449 Y-55.2860
G00 X-14.6449 Y-55.2860
G01 F60.00
G01 Z-0.0500
G01 F120.00
G01 X-14.7159 Y-55.4043
G01 X-14.8484 Y-55.5658
G01 X-14.9506 Y-55.6585
G01 X-15.0442 Y-55.7265
G01 X-15.1440 Y-55.7851
G01 X-15.2567 Y-55.8363
G01 X-15.2567 Y-55.8991
G01 X-15.0785 Y-55.8164
G01 X-14.9109 Y-55.7021
G01 X-14.7643 Y-55.5619
G01 X-14.6425 Y-55.3997
G01 X-14.5494 Y-55.2208
G01 X-14.6141 Y-55.2208
G01 X-14.6449 Y-55.2860
G00 X-14.6449 Y-55.2860
G01 F60.00
G01 Z-0.0750
G01 F120.00
G01 X-14.7159 Y-55.4043
G01 X-14.8484 Y-55.5658
G01 X-14.9506 Y-55.6585
G01 X-15.0442 Y-55.7265
G01 X-15.1440 Y-55.7851
G01 X-15.2567 Y-55.8363
G01 X-15.2567 Y-55.8991
G01 X-15.0785 Y-55.8164
G01 X-14.9109 Y-55.7021
G01 X-14.7643 Y-55.5619
G01 X-14.6425 Y-55.3997
G01 X-14.5494 Y-55.2208
G01 X-14.6141 Y-55.2208
G01 X-14.6449 Y-55.2860
G00 X-14.6449 Y-55.2860
G01 F60.00
G01 Z-0.1000
G01 F120.00
G01 X-14.7159 Y-55.4043
G01 X-14.8484 Y-55.5658
G01 X-14.9506 Y-55.6585
G01 X-15.0442 Y-55.7265
G01 X-15.1440 Y-55.7851
G01 X-15.2567 Y-55.8363
G01 X-15.2567 Y-55.8991
G01 X-15.0785 Y-55.8164
G01 X-14.9109 Y-55.7021
G01 X-14.7643 Y-55.5619
G01 X-14.6425 Y-55.3997
G01 X-14.5494 Y-55.2208
G01 X-14.6141 Y-55.2208
G01 X-14.6449 Y-55.2860
G00 Z2.0000
G00 X-16.2259 Y-55.8335
G01 F60.00
G01 Z-0.0250
G01 F120.00
G01 X-16.3506 Y-55.7746
G01 X-16.5244 Y-55.6585
G01 X-16.6266 Y-55.5658
G01 X-16.7126 Y-55.4671
G01 X-16.7829 Y-55.4671
G01 X-16.6904 Y-55.5843
G01 X-16.5403 Y-55.7208
G01 X-16.3700 Y-55.8310
G01 X-16.2183 Y-55.8970
G01 X-16.2183 Y-55.8363
G01 X-16.2259 Y-55.8335
G00 X-16.2259 Y-55.8335
G01 F60.00
G01 Z-0.0500
G01 F120.00
G01 X-16.3506 Y-55.7746
G01 X-16.5244 Y-55.6585
G01 X-16.6266 Y-55.5658
G01 X-16.7126 Y-55.4671
G01 X-16.7829 Y-55.4671
G01 X-16.6904 Y-55.5843
G01 X-16.5403 Y-55.7208
G01 X-16.3700 Y-55.8310
G01 X-16.2183 Y-55.8970
G01 X-16.2183 Y-55.8363
G01 X-16.2259 Y-55.8335
G00 X-16.2259 Y-55.8335
G01 F60.00
G01 Z-0.0750
G01 F120.00
G01 X-16.3506 Y-55.7746
G01 X-16.5244 Y-55.6585
G01 X-16.6266 Y-55.5658
G01 X-16.7126 Y-55.4671
G01 X-16.7829 Y-55.4671
G01 X-16.6904 Y-55.5843
G01 X-16.5403 Y-55.7208
G01 X-16.3700 Y-55.8310
G01 X-16.2183 Y-55.8970
G01 X-16.2183 Y-55.8363
G01 X-16.2259 Y-55.8335
G00 X-16.2259 Y-55.8335
G01 F60.00
G01 Z-0.1000
G01 F120.00
G01 X-16.3506 Y-55.7746
G01 X-16.5244 Y-55.6585
G01 X-16.6266 Y-55.5658
G01 X-16.7126 Y-55.4671
G01 X-16.7829 Y-55.4671
G01 X-16.6904 Y-55.5843
G01 X-16.5403 Y-55.7208
G01 X-16.3700 Y-55.8310
G01 X-16.2183 Y-55.8970
G01 X-16.2183 Y-55.8363
G01 X-16.2259 Y-55.8335
G00 Z2.0000
G00 X-11.9875 Y-58.8030
G01 F60.00
G01 Z-0.0250
G01 F120.00
G01 X-11.9348 Y-58.7320
G01 X-11.8563 Y-58.6855
G01 X-11.7825 Y-58.6732
G01 X-11.4633 Y-58.6732
G01 X-11.4633 Y-58.6188
G01 X-11.8398 Y-58.6211
G01 X-11.9189 Y-58.6508
G01 X-11.9834 Y-58.6991
G01 X-12.0317 Y-58.7636
G01 X-12.0614 Y-58.8427
G01 X-12.0637 Y-59.2192
G01 X-12.0093 Y-59.2192
G01 X-12.0093 Y-58.9000
G01 X-12.0038 Y-58.8503
G01 X-11.9875 Y-58.8030
G00 X-11.9875 Y-58.8030
G01 F60.00
G01 Z-0.0500
G01 F120.00
G01 X-11.9348 Y-58.7320
G01 X-11.8563 Y-58.6855
G01 X-11.7825 Y-58.6732
G01 X-11.4633 Y-58.6732
G01 X-11.4633 Y-58.6188
G01 X-11.8398 Y-58.6211
G01 X-11.9189 Y-58.6508
G01 X-11.9834 Y-58.6991
G01 X-12.0317 Y-58.7636
G01 X-12.0614 Y-58.8427
G01 X-12.0637 Y-59.2192
G01 X-12.0093 Y-59.2192
G01 X-12.0093 Y-58.9000
G01 X-12.0038 Y-58.8503
G01 X-11.9875 Y-58.8030
G00 X-11.9875 Y-58.8030
G01 F60.00
G01 Z-0.0750
G01 F120.00
G01 X-11.9348 Y-58.7320
G01 X-11.8563 Y-58.6855
G01 X-11.7825 Y-58.6732
G01 X-11.4633 Y-58.6732
G01 X-11.4633 Y-58.6188
G01 X-11.8398 Y-58.6211
G01 X-11.9189 Y-58.6508
G01 X-11.9834 Y-58.6991
G01 X-12.0317 Y-58.7636
G01 X-12.0614 Y-58.8427
G01 X-12.0637 Y-59.2192
G01 X-12.0093 Y-59.2192
G01 X-12.0093 Y-58.9000
G01 X-12.0038 Y-58.8503
G01 X-11.9875 Y-58.8030
G00 X-11.9875 Y-58.8030
G01 F60.00
G01 Z-0.1000
G01 F120.00
G01 X-11.9348 Y-58.7320
G01 X-11.8563 Y-58.6855
G01 X-11.7825 Y-58.6732
G01 X-11.4633 Y-58.6732
G01 X-11.4633 Y-58.6188
G01 X-11.8398 Y-58.6211
G01 X-11.9189 Y-58.6508
G01 X-11.9834 Y-58.6991
G01 X-12.0317 Y-58.7636
G01 X-12.0614 Y-58.8427
G01 X-12.0637 Y-59.2192
G01 X-12.0093 Y-59.2192
G01 X-12.0093 Y-58.9000
G01 X-12.0038 Y-58.8503
G01 X-11.9875 Y-58.8030
G00 Z2.0000
G00 X-8.1952 Y-60.6855
G01 F60.00
G01 Z-0.0250
G01 F120.00
G01 X-8.3708 Y-60.7205
G01 X-8.4936 Y-60.7265
G01 X-8.6719 Y-60.7090
G01 X-8.7839 Y-60.6813
G01 X-8.8290 Y-60.7265
G01 X-8.6710 Y-60.7688
G01 X-8.4825 Y-60.7853
G01 X-8.2940 Y-60.7688
G01 X-8.1360 Y-60.7265
G01 X-8.1811 Y-60.6813
G01 X-8.1952 Y-60.6855
G00 X-8.1952 Y-60.6855
G01 F60.00
G01 Z-0.0500
G01 F120.00
G01 X-8.3708 Y-60.7205
G01 X-8.4936 Y-60.7265
G01 X-8.6719 Y-60.7090
G01 X-8.7839 Y-60.6813
G01 X-8.8290 Y-60.7265
G01 X-8.6710 Y-60.7688
G01 X-8.4825 Y-60.7853
G01 X-8.2940 Y-60.7688
G01 X-8.1360 Y-60.7265
G01 X-8.1811 Y-60.6813
G01 X-8.1952 Y-60.6855
G00 X-8.1952 Y-60.6855
G01 F60.00
G01 Z-0.0750
G01 F120.00
G01 X-8.3708 Y-60.7205
G01 X-8.4936 Y-60.7265
G01 X-8.6719 Y-60.7090
G01 X-8.7839 Y-60.6813
G01 X-8.8290 Y-60.7265
G01 X-8.6710 Y-60.7688
G01 X-8.4825 Y-60.7853
G01 X-8.2940 Y-60.7688
G01 X-8.1360 Y-60.7265
G01 X-8.1811 Y-60.6813
G01 X-8.1952 Y-60.6855
G00 X-8.1952 Y-60.6855
G01 F60.00
G01 Z-0.1000
G01 F120.00
G01 X-8.3708 Y-60.7205
G01 X-8.4936 Y-60.7265
G01 X-8.6719 Y-60.7090
G01 X-8.7839 Y-60.6813
G01 X-8.8290 Y-60.7265
G01 X-8.6710 Y-60.7688
G01 X-8.4825 Y-60.7853
G01 X-8.2940 Y-60.7688
G01 X-8.1360 Y-60.7265
G01 X-8.1811 Y-60.6813
G01 X-8.1952 Y-60.6855
G00 Z2.0000
G00 X-7.4970 Y-59.4127
G01 F60.00
G01 Z-0.0250
G01 F120.00
G01 X-7.4620 Y-59.5883
G01 X-7.4560 Y-59.7111
G01 X-7.4735 Y-59.8894
G01 X-7.5012 Y-60.0014
G01 X-7.4560 Y-60.0465
G01 X-7.4137 Y-59.8885
G01 X-7.3972 Y-59.7000
G01 X-7.4137 Y-59.5115
G01 X-7.4560 Y-59.3535
G01 X-7.5012 Y-59.3986
G01 X-7.4970 Y-59.4127
G00 X-7.4970 Y-59.4127
G01 F60.00
G01 Z-0.0500
G01 F120.00
G01 X-7.4620 Y-59.5883
G01 X-7.4560 Y-59.7111
G01 X-7.4735 Y-59.8894
G01 X-7.5012 Y-60.0014
G01 X-7.4560 Y-60.0465
G01 X-7.4137 Y-59.8885
G01 X-7.3972 Y-59.7000
G01 X-7.4137 Y-59.5115
G01 X-7.4560 Y-59.3535
G01 X-7.5012 Y-59.3986
G01 X-7.4970 Y-59.4127
G00 X-7.4970 Y-59.4127
G01 F60.00
G01 Z-0.0750
G01 F120.00
G01 X-7.4620 Y-59.5883
G01 X-7.4560 Y-59.7111
G01 X-7.4735 Y-59.8894
G01 X-7.5012 Y-60.0014
G01 X-7.4560 Y-60.0465
G01 X-7.4137 Y-59.8885
G01 X-7.3972 Y-59.7000
G01 X-7.4137 Y-59.5115
G01 X-7.4560 Y-59.3535
G01 X-7.5012 Y-59.3986
G01 X-7.4970 Y-59.4127
G00 X-7.4970 Y-59.4127
G01 F60.00
G01 Z-0.1000
G01 F120.00
G01 X-7.4620 Y-59.5883
G01 X-7.4560 Y-59.7111
G01 X-7.4735 Y-59.8894
G01 X-7.5012 Y-60.0014
G01 X-7.4560 Y-60.0465
G01 X-7.4137 Y-59.8885
G01 X-7.3972 Y-59.7000
G01 X-7.4137 Y-59.5115
G01 X-7.4560 Y-59.3535
G01 X-7.5012 Y-59.3986
G01 X-7.4970 Y-59.4127
G00 Z2.0000
G00 X-7.4970 Y-44.3127
G01 F60.00
G01 Z-0.0250
G01 F120.00
G01 X-7.4620 Y-44.4883
G01 X-7.4560 Y-44.6111
G01 X-7.4735 Y-44.7894
G01 X-7.5012 Y-44.9014
G01 X-7.4560 Y-44.9465
G01 X-7.4137 Y-44.7885
G01 X-7.3972 Y-44.6000
G01 X-7.4137 Y-44.4115
G01 X-7.4560 Y-44.2535
G01 X-7.5012 Y-44.2986
G01 X-7.4970 Y-44.3127
G00 X-7.4970 Y-44.3127
G01 F60.00
G01 Z-0.0500
G01 F120.00
G01 X-7.4620 Y-44.4883
G01 X-7.4560 Y-44.6111
G01 X-7.4735 Y-44.7894
G01 X-7.5012 Y-44.9014
G01 X-7.4560 Y-44.9465
G01 X-7.4137 Y-44.7885
G01 X-7.3972 Y-44.6000
G01 X-7.4137 Y-44.4115
G01 X-7.4560 Y-44.2535
G01 X-7.5012 Y-44.2986
G01 X-7.4970 Y-44.3127
G00 X-7.4970 Y-44.3127
G01 F60.00
G01 Z-0.0750
G01 F120.00
G01 X-7.4620 Y-44.4883
G01 X-7.4560 Y-44.6111
G01 X-7.4735 Y-44.7894
G01 X-7.5012 Y-44.9014
G01 X-7.4560 Y-44.9465
G01 X-7.4137 Y-44.7885
G01 X-7.3972 Y-44.6000
G01 X-7.4137 Y-44.4115
G01 X-7.4560 Y-44.2535
G01 X-7.5012 Y-44.2986
G01 X-7.4970 Y-44.3127
G00 X-7.4970 Y-44.3127
G01 F60.00
G01 Z-0.1000
G01 F120.00
G01 X-7.4620 Y-44.4883
G01 X-7.4560 Y-44.6111
G01 X-7.4735 Y-44.7894
G01 X-7.5012 Y-44.9014
G01 X-7.4560 Y-44.9465
G01 X-7.4137 Y-44.7885
G01 X-7.3972 Y-44.6000
G01 X-7.4137 Y-44.4115
G01 X-7.4560 Y-44.2535
G01 X-7.5012 Y-44.2986
G01 X-7.4970 Y-44.3127
G00 Z2.0000
G00 X-20.3569 Y-39.1378
G01 F60.00
G01 Z-0.0250
G01 F120.00
G01 X-20.4683 Y-39.1767
G01 X-20.5828 Y-39.2046
G01 X-20.8037 Y-39.2265
G01 X-20.9240 Y-39.2217
G01 X-21.0432 Y-39.2051
G01 X-21.1602 Y-39.1769
G01 X-21.2727 Y-39.1378
G01 X-21.3146 Y-39.1797
G01 X-21.2120 Y-39.2223
G01 X-21.0159 Y-39.2693
G01 X-20.8148 Y-39.2852
G01 X-20.6138 Y-39.2693
G01 X-20.4177 Y-39.2223
G01 X-20.3150 Y-39.1797
G01 X-20.3569 Y-39.1378
G00 X-20.3569 Y-39.1378
G01 F60.00
G01 Z-0.0500
G01 F120.00
G01 X-20.4683 Y-39.1767
G01 X-20.5828 Y-39.2046
G01 X-20.8037 Y-39.2265
G01 X-20.9240 Y-39.2217
G01 X-21.0432 Y-39.2051
G01 X-21.1602 Y-39.1769
G01 X-21.2727 Y-39.1378
G01 X-21.3146 Y-39.1797
G01 X-21.2120 Y-39.2223
G01 X-21.0159 Y-39.2693
G01 X-20.8148 Y-39.2852
G01 X-20.6138 Y-39.2693
G01 X-20.4177 Y-39.2223
G01 X-20.3150 Y-39.1797
G01 X-20.3569 Y-39.1378
G00 X-20.3569 Y-39.1378
G01 F60.00
G01 Z-0.0750
G01 F120.00
G01 X-20.4683 Y-39.1767
G01 X-20.5828 Y-39.2046
G01 X-20.8037 Y-39.2265
G01 X-20.9240 Y-39.2217
G01 X-21.0432 Y-39.2051
G01 X-21.1602 Y-39.1769
G01 X-21.2727 Y-39.1378
G01 X-21.3146 Y-39.1797
G01 X-21.2120 Y-39.2223
G01 X-21.0159 Y-39.2693
G01 X-20.8148 Y-39.2852
G01 X-20.6138 Y-39.2693
G01 X-20.4177 Y-39.2223
G01 X-20.3150 Y-39.1797
G01 X-20.3569 Y-39.1378
G00 X-20.3569 Y-39.1378
G01 F60.00
G01 Z-0.1000
G01 F120.00
G01 X-20.4683 Y-39.1767
G01 X-20.5828 Y-39.2046
G01 X-20.8037 Y-39.2265
G01 X-20.9240 Y-39.2217
G01 X-21.0432 Y-39.2051
G01 X-21.1602 Y-39.1769
G01 X-21.2727 Y-39.1378
G01 X-21.3146 Y-39.1797
G01 X-21.2120 Y-39.2223
G01 X-21.0159 Y-39.2693
G01 X-20.8148 Y-39.2852
G01 X-20.6138 Y-39.2693
G01 X-20.4177 Y-39.2223
G01 X-20.3150 Y-39.1797
G01 X-20.3569 Y-39.1378
G00 Z2.0000
G00 X-19.6770 Y-37.5421
G01 F60.00
G01 Z-0.0250
G01 F120.00
G01 X-19.6382 Y-37.6535
G01 X-19.6103 Y-37.7679
G01 X-19.5883 Y-37.9889
G01 X-19.5931 Y-38.1091
G01 X-19.6097 Y-38.2284
G01 X-19.6379 Y-38.3454
G01 X-19.6770 Y-38.4579
G01 X-19.6351 Y-38.4998
G01 X-19.5926 Y-38.3971
G01 X-19.5455 Y-38.2010
G01 X-19.5297 Y-38.0000
G01 X-19.5455 Y-37.7990
G01 X-19.5926 Y-37.6029
G01 X-19.6351 Y-37.5002
G01 X-19.6770 Y-37.5421
G00 X-19.6770 Y-37.5421
G01 F60.00
G01 Z-0.0500
G01 F120.00
G01 X-19.6382 Y-37.6535
G01 X-19.6103 Y-37.7679
G01 X-19.5883 Y-37.9889
G01 X-19.5931 Y-38.1091
G01 X-19.6097 Y-38.2284
G01 X-19.6379 Y-38.3454
G01 X-19.6770 Y-38.4579
G01 X-19.6351 Y-38.4998
G01 X-19.5926 Y-38.3971
G01 X-19.5455 Y-38.2010
G01 X-19.5297 Y-38.0000
G01 X-19.5455 Y-37.7990
G01 X-19.5926 Y-37.6029
G01 X-19.6351 Y-37.5002
G01 X-19.6770 Y-37.5421
G00 X-19.6770 Y-37.5421
G01 F60.00
G01 Z-0.0750
G01 F120.00
G01 X-19.6382 Y-37.6535
G01 X-19.6103 Y-37.7679
G01 X-19.5883 Y-37.9889
G01 X-19.5931 Y-38.1091
G01 X-19.6097 Y-38.2284
G01 X-19.6379 Y-38.3454
G01 X-19.6770 Y-38.4579
G01 X-19.6351 Y-38.4998
G01 X-19.5926 Y-38.3971
G01 X-19.5455 Y-38.2010
G01 X-19.5297 Y-38.0000
G01 X-19.5455 Y-37.7990
G01 X-19.5926 Y-37.6029
G01 X-19.6351 Y-37.5002
G01 X-19.6770 Y-37.5421
G00 X-19.6770 Y-37.5421
G01 F60.00
G01 Z-0.1000
G01 F120.00
G01 X-19.6382 Y-37.6535
G01 X-19.6103 Y-37.7679
G01 X-19.5883 Y-37.9889
G01 X-19.5931 Y-38.1091
G01 X-19.6097 Y-38.2284
G01 X-19.6379 Y-38.3454
G01 X-19.6770 Y-38.4579
G01 X-19.6351 Y-38.4998
G01 X-19.5926 Y-38.3971
G01 X-19.5455 Y-38.2010
G01 X-19.5297 Y-38.0000
G01 X-19.5455 Y-37.7990
G01 X-19.5926 Y-37.6029
G01 X-19.6351 Y-37.5002
G01 X-19.6770 Y-37.5421
G00 Z2.0000
G00 X-21.0469 Y-36.7954
G01 F60.00
G01 Z-0.0250
G01 F120.00
G01 X-20.9240 Y-36.7783
G01 X-20.7057 Y-36.7783
G01 X-20.5646 Y-36.7992
G01 X-20.3569 Y-36.8622
G01 X-20.3150 Y-36.8203
G01 X-20.4177 Y-36.7777
G01 X-20.6138 Y-36.7307
G01 X-20.8148 Y-36.7148
G01 X-21.0159 Y-36.7307
G01 X-21.2120 Y-36.7777
G01 X-21.3146 Y-36.8203
G01 X-21.2727 Y-36.8622
G01 X-21.1614 Y-36.8233
G01 X-21.0469 Y-36.7954
G00 X-21.0469 Y-36.7954
G01 F60.00
G01 Z-0.0500
G01 F120.00
G01 X-20.9240 Y-36.7783
G01 X-20.7057 Y-36.7783
G01 X-20.5646 Y-36.7992
G01 X-20.3569 Y-36.8622
G01 X-20.3150 Y-36.8203
G01 X-20.4177 Y-36.7777
G01 X-20.6138 Y-36.7307
G01 X-20.8148 Y-36.7148
G01 X-21.0159 Y-36.7307
G01 X-21.2120 Y-36.7777
G01 X-21.3146 Y-36.8203
G01 X-21.2727 Y-36.8622
G01 X-21.1614 Y-36.8233
G01 X-21.0469 Y-36.7954
G00 X-21.0469 Y-36.7954
G01 F60.00
G01 Z-0.0750
G01 F120.00
G01 X-20.9240 Y-36.7783
G01 X-20.7057 Y-36.7783
G01 X-20.5646 Y-36.7992
G01 X-20.3569 Y-36.8622
G01 X-20.3150 Y-36.8203
G01 X-20.4177 Y-36.7777
G01 X-20.6138 Y-36.7307
G01 X-20.8148 Y-36.7148
G01 X-21.0159 Y-36.7307
G01 X-21.2120 Y-36.7777
G01 X-21.3146 Y-36.8203
G01 X-21.2727 Y-36.8622
G01 X-21.1614 Y-36.8233
G01 X-21.0469 Y-36.7954
G00 X-21.0469 Y-36.7954
G01 F60.00
G01 Z-0.1000
G01 F120.00
G01 X-20.9240 Y-36.7783
G01 X-20.7057 Y-36.7783
G01 X-20.5646 Y-36.7992
G01 X-20.3569 Y-36.8622
G01 X-20.3150 Y-36.8203
G01 X-20.4177 Y-36.7777
G01 X-20.6138 Y-36.7307
G01 X-20.8148 Y-36.7148
G01 X-21.0159 Y-36.7307
G01 X-21.2120 Y-36.7777
G01 X-21.3146 Y-36.8203
G01 X-21.2727 Y-36.8622
G01 X-21.1614 Y-36.8233
G01 X-21.0469 Y-36.7954
G00 Z2.0000
G00 X-22.0194 Y-38.2321
G01 F60.00
G01 Z-0.0250
G01 F120.00
G01 X-22.0365 Y-38.1091
G01 X-22.0365 Y-37.8909
G01 X-22.0156 Y-37.7498
G01 X-21.9527 Y-37.5421
G01 X-21.9946 Y-37.5002
G01 X-22.0371 Y-37.6029
G01 X-22.0842 Y-37.7990
G01 X-22.1000 Y-38.0000
G01 X-22.0842 Y-38.2010
G01 X-22.0371 Y-38.3971
G01 X-21.9946 Y-38.4998
G01 X-21.9527 Y-38.4579
G01 X-21.9915 Y-38.3465
G01 X-22.0194 Y-38.2321
G00 X-22.0194 Y-38.2321
G01 F60.00
G01 Z-0.0500
G01 F120.00
G01 X-22.0365 Y-38.1091
G01 X-22.0365 Y-37.8909
G01 X-22.0156 Y-37.7498
G01 X-21.9527 Y-37.5421
G01 X-21.9946 Y-37.5002
G01 X-22.0371 Y-37.6029
G01 X-22.0842 Y-37.7990
G01 X-22.1000 Y-38.0000
G01 X-22.0842 Y-38.2010
G01 X-22.0371 Y-38.3971
G01 X-21.9946 Y-38.4998
G01 X-21.9527 Y-38.4579
G01 X-21.9915 Y-38.3465
G01 X-22.0194 Y-38.2321
G00 X-22.0194 Y-38.2321
G01 F60.00
G01 Z-0.0750
G01 F120.00
G01 X-22.0365 Y-38.1091
G01 X-22.0365 Y-37.8909
G01 X-22.0156 Y-37.7498
G01 X-21.9527 Y-37.5421
G01 X-21.9946 Y-37.5002
G01 X-22.0371 Y-37.6029
G01 X-22.0842 Y-37.7990
G01 X-22.1000 Y-38.0000
G01 X-22.0842 Y-38.2010
G01 X-22.0371 Y-38.3971
G01 X-21.9946 Y-38.4998
G01 X-21.9527 Y-38.4579
G01 X-21.9915 Y-38.3465
G01 X-22.0194 Y-38.2321
G00 X-22.0194 Y-38.2321
G01 F60.00
G01 Z-0.1000
G01 F120.00
G01 X-22.0365 Y-38.1091
G01 X-22.0365 Y-37.8909
G01 X-22.0156 Y-37.7498
G01 X-21.9527 Y-37.5421
G01 X-21.9946 Y-37.5002
G01 X-22.0371 Y-37.6029
G01 X-22.0842 Y-37.7990
G01 X-22.1000 Y-38.0000
G01 X-22.0842 Y-38.2010
G01 X-22.0371 Y-38.3971
G01 X-21.9946 Y-38.4998
G01 X-21.9527 Y-38.4579
G01 X-21.9915 Y-38.3465
G01 X-22.0194 Y-38.2321
G00 Z2.0000
G00 X-23.8737 Y-46.8523
G01 F60.00
G01 Z-0.0250
G01 F120.00
G01 X-23.8996 Y-47.0197
G01 X-23.9090 Y-47.1889
G01 X-23.9018 Y-47.3582
G01 X-23.8774 Y-47.5296
G01 X-23.8376 Y-47.6917
G01 X-23.7819 Y-47.8504
G01 X-23.7104 Y-48.0041
G01 X-23.6242 Y-48.1500
G01 X-23.5242 Y-48.2867
G01 X-23.4035 Y-48.4210
G01 X-23.2864 Y-48.5276
G01 X-23.1488 Y-48.6309
G01 X-23.0043 Y-48.7186
G01 X-22.8535 Y-48.7908
G01 X-22.6943 Y-48.8490
G01 X-22.5302 Y-48.8912
G01 X-22.3628 Y-48.9171
G01 X-22.1936 Y-48.9265
G01 X-22.0243 Y-48.9193
G01 X-21.8529 Y-48.8949
G01 X-21.6908 Y-48.8551
G01 X-21.5321 Y-48.7994
G01 X-21.3784 Y-48.7279
G01 X-21.2325 Y-48.6417
G01 X-21.0958 Y-48.5417
G01 X-20.9615 Y-48.4210
G01 X-20.8549 Y-48.3039
G01 X-20.7516 Y-48.1663
G01 X-20.6640 Y-48.0218
G01 X-20.5917 Y-47.8710
G01 X-20.5335 Y-47.7118
G01 X-20.4913 Y-47.5477
G01 X-20.4654 Y-47.3803
G01 X-20.4560 Y-47.2111
G01 X-20.4632 Y-47.0418
G01 X-20.4876 Y-46.8704
G01 X-20.5274 Y-46.7083
G01 X-20.5831 Y-46.5496
G01 X-20.6546 Y-46.3959
G01 X-20.7408 Y-46.2500
G01 X-20.8408 Y-46.1133
G01 X-20.9615 Y-45.9790
G01 X-21.0786 Y-45.8724
G01 X-21.2162 Y-45.7691
G01 X-21.3607 Y-45.6814
G01 X-21.5115 Y-45.6092
G01 X-21.6707 Y-45.5510
G01 X-21.8348 Y-45.5088
G01 X-22.0022 Y-45.4829
G01 X-22.1714 Y-45.4735
G01 X-22.3407 Y-45.4807
G01 X-22.5121 Y-45.5051
G01 X-22.6742 Y-45.5449
G01 X-22.8329 Y-45.6006
G01 X-22.9866 Y-45.6721
G01 X-23.1325 Y-45.7583
G01 X-23.2692 Y-45.8583
G01 X-23.4035 Y-45.9790
G01 X-23.5101 Y-46.0961
G01 X-23.6134 Y-46.2337
G01 X-23.7010 Y-46.3782
G01 X-23.7733 Y-46.5290
G01 X-23.8315 Y-46.6882
G01 X-23.8737 Y-46.8523
G00 X-23.8737 Y-46.8523
G01 F60.00
G01 Z-0.0500
G01 F120.00
G01 X-23.8996 Y-47.0197
G01 X-23.9090 Y-47.1889
G01 X-23.9018 Y-47.3582
G01 X-23.8774 Y-47.5296
G01 X-23.8376 Y-47.6917
G01 X-23.7819 Y-47.8504
G01 X-23.7104 Y-48.0041
G01 X-23.6242 Y-48.1500
G01 X-23.5242 Y-48.2867
G01 X-23.4035 Y-48.4210
G01 X-23.2864 Y-48.5276
G01 X-23.1488 Y-48.6309
G01 X-23.0043 Y-48.7186
G01 X-22.8535 Y-48.7908
G01 X-22.6943 Y-48.8490
G01 X-22.5302 Y-48.8912
G01 X-22.3628 Y-48.9171
G01 X-22.1936 Y-48.9265
G01 X-22.0243 Y-48.9193
G01 X-21.8529 Y-48.8949
G01 X-21.6908 Y-48.8551
G01 X-21.5321 Y-48.7994
G01 X-21.3784 Y-48.7279
G01 X-21.2325 Y-48.6417
G01 X-21.0958 Y-48.5417
G01 X-20.9615 Y-48.4210
G01 X-20.8549 Y-48.3039
G01 X-20.7516 Y-48.1663
G01 X-20.6640 Y-48.0218
G01 X-20.5917 Y-47.8710
G01 X-20.5335 Y-47.7118
G01 X-20.4913 Y-47.5477
G01 X-20.4654 Y-47.3803
G01 X-20.4560 Y-47.2111
G01 X-20.4632 Y-47.0418
G01 X-20.4876 Y-46.8704
G01 X-20.5274 Y-46.7083
G01 X-20.5831 Y-46.5496
G01 X-20.6546 Y-46.3959
G01 X-20.7408 Y-46.2500
G01 X-20.8408 Y-46.1133
G01 X-20.9615 Y-45.9790
G01 X-21.0786 Y-45.8724
G01 X-21.2162 Y-45.7691
G01 X-21.3607 Y-45.6814
G01 X-21.5115 Y-45.6092
G01 X-21.6707 Y-45.5510
G01 X-21.8348 Y-45.5088
G01 X-22.0022 Y-45.4829
G01 X-22.1714 Y-45.4735
G01 X-22.3407 Y-45.4807
G01 X-22.5121 Y-45.5051
G01 X-22.6742 Y-45.5449
G01 X-22.8329 Y-45.6006
G01 X-22.9866 Y-45.6721
G01 X-23.1325 Y-45.7583
G01 X-23.2692 Y-45.8583
G01 X-23.4035 Y-45.9790
G01 X-23.5101 Y-46.0961
G01 X-23.6134 Y-46.2337
G01 X-23.7010 Y-46.3782
G01 X-23.7733 Y-46.5290
G01 X-23.8315 Y-46.6882
G01 X-23.8737 Y-46.8523
G00 X-23.8737 Y-46.8523
G01 F60.00
G01 Z-0.0750
G01 F120.00
G01 X-23.8996 Y-47.0197
G01 X-23.9090 Y-47.1889
G01 X-23.9018 Y-47.3582
G01 X-23.8774 Y-47.5296
G01 X-23.8376 Y-47.6917
G01 X-23.7819 Y-47.8504
G01 X-23.7104 Y-48.0041
G01 X-23.6242 Y-48.1500
G01 X-23.5242 Y-48.2867
G01 X-23.4035 Y-48.4210
G01 X-23.2864 Y-48.5276
G01 X-23.1488 Y-48.6309
G01 X-23.0043 Y-48.7186
G01 X-22.8535 Y-48.7908
G01 X-22.6943 Y-48.8490
G01 X-22.5302 Y-48.8912
G01 X-22.3628 Y-48.9171
G01 X-22.1936 Y-48.9265
G01 X-22.0243 Y-48.9193
G01 X-21.8529 Y-48.8949
G01 X-21.6908 Y-48.8551
G01 X-21.5321 Y-48.7994
G01 X-21.3784 Y-48.7279
G01 X-21.2325 Y-48.6417
G01 X-21.0958 Y-48.5417
G01 X-20.9615 Y-48.4210
G01 X-20.8549 Y-48.3039
G01 X-20.7516 Y-48.1663
G01 X-20.6640 Y-48.0218
G01 X-20.5917 Y-47.8710
G01 X-20.5335 Y-47.7118
G01 X-20.4913 Y-47.5477
G01 X-20.4654 Y-47.3803
G01 X-20.4560 Y-47.2111
G01 X-20.4632 Y-47.0418
G01 X-20.4876 Y-46.8704
G01 X-20.5274 Y-46.7083
G01 X-20.5831 Y-46.5496
G01 X-20.6546 Y-46.3959
G01 X-20.7408 Y-46.2500
G01 X-20.8408 Y-46.1133
G01 X-20.9615 Y-45.9790
G01 X-21.0786 Y-45.8724
G01 X-21.2162 Y-45.7691
G01 X-21.3607 Y-45.6814
G01 X-21.5115 Y-45.6092
G01 X-21.6707 Y-45.5510
G01 X-21.8348 Y-45.5088
G01 X-22.0022 Y-45.4829
G01 X-22.1714 Y-45.4735
G01 X-22.3407 Y-45.4807
G01 X-22.5121 Y-45.5051
G01 X-22.6742 Y-45.5449
G01 X-22.8329 Y-45.6006
G01 X-22.9866 Y-45.6721
G01 X-23.1325 Y-45.7583
G01 X-23.2692 Y-45.8583
G01 X-23.4035 Y-45.9790
G01 X-23.5101 Y-46.0961
G01 X-23.6134 Y-46.2337
G01 X-23.7010 Y-46.3782
G01 X-23.7733 Y-46.5290
G01 X-23.8315 Y-46.6882
G01 X-23.8737 Y-46.8523
G00 X-23.8737 Y-46.8523
G01 F60.00
G01 Z-0.1000
G01 F120.00
G01 X-23.8996 Y-47.0197
G01 X-23.9090 Y-47.1889
G01 X-23.9018 Y-47.3582
G01 X-23.8774 Y-47.5296
G01 X-23.8376 Y-47.6917
G01 X-23.7819 Y-47.8504
G01 X-23.7104 Y-48.0041
G01 X-23.6242 Y-48.1500
G01 X-23.5242 Y-48.2867
G01 X-23.4035 Y-48.4210
G01 X-23.2864 Y-48.5276
G01 X-23.1488 Y-48.6309
G01 X-23.0043 Y-48.7186
G01 X-22.8535 Y-48.7908
G01 X-22.6943 Y-48.8490
G01 X-22.5302 Y-48.8912
G01 X-22.3628 Y-48.9171
G01 X-22.1936 Y-48.9265
G01 X-22.0243 Y-48.9193
G01 X-21.8529 Y-48.8949
G01 X-21.6908 Y-48.8551
G01 X-21.5321 Y-48.7994
G01 X-21.3784 Y-48.7279
G01 X-21.2325 Y-48.6417
G01 X-21.0958 Y-48.5417
G01 X-20.9615 Y-48.4210
G01 X-20.8549 Y-48.3039
G01 X-20.7516 Y-48.1663
G01 X-20.6640 Y-48.0218
G01 X-20.5917 Y-47.8710
G01 X-20.5335 Y-47.7118
G01 X-20.4913 Y-47.5477
G01 X-20.4654 Y-47.3803
G01 X-20.4560 Y-47.2111
G01 X-20.4632 Y-47.0418
G01 X-20.4876 Y-46.8704
G01 X-20.5274 Y-46.7083
G01 X-20.5831 Y-46.5496
G01 X-20.6546 Y-46.3959
G01 X-20.7408 Y-46.2500
G01 X-20.8408 Y-46.1133
G01 X-20.9615 Y-45.9790
G01 X-21.0786 Y-45.8724
G01 X-21.2162 Y-45.7691
G01 X-21.3607 Y-45.6814
G01 X-21.5115 Y-45.6092
G01 X-21.6707 Y-45.5510
G01 X-21.8348 Y-45.5088
G01 X-22.0022 Y-45.4829
G01 X-22.1714 Y-45.4735
G01 X-22.3407 Y-45.4807
G01 X-22.5121 Y-45.5051
G01 X-22.6742 Y-45.5449
G01 X-22.8329 Y-45.6006
G01 X-22.9866 Y-45.6721
G01 X-23.1325 Y-45.7583
G01 X-23.2692 Y-45.8583
G01 X-23.4035 Y-45.9790
G01 X-23.5101 Y-46.0961
G01 X-23.6134 Y-46.2337
G01 X-23.7010 Y-46.3782
G01 X-23.7733 Y-46.5290
G01 X-23.8315 Y-46.6882
G01 X-23.8737 Y-46.8523
G00 Z2.0000
G00 X-23.3775 Y-48.5272
G01 F60.00
G01 Z-0.0250
G01 F120.00
G01 X-23.1863 Y-48.6771
G01 X-22.9766 Y-48.7996
G01 X-22.7521 Y-48.8926
G01 X-22.5171 Y-48.9542
G01 X-22.2760 Y-48.9834
G01 X-22.0331 Y-48.9796
G01 X-21.7929 Y-48.9429
G01 X-21.5600 Y-48.8739
G01 X-21.3386 Y-48.7739
G01 X-21.1328 Y-48.6448
G01 X-20.9464 Y-48.4890
G01 X-20.7829 Y-48.3093
G01 X-20.6453 Y-48.1091
G01 X-20.5362 Y-47.8920
G01 X-20.4575 Y-47.6622
G01 X-20.4107 Y-47.4238
G01 X-20.3967 Y-47.1813
G01 X-20.4158 Y-46.9391
G01 X-20.4675 Y-46.7018
G01 X-20.5510 Y-46.4736
G01 X-20.6647 Y-46.2589
G01 X-20.8065 Y-46.0616
G01 X-20.9737 Y-45.8854
G01 X-21.1633 Y-45.7335
G01 X-21.3717 Y-45.6088
G01 X-21.5952 Y-45.5135
G01 X-21.8295 Y-45.4494
G01 X-22.0704 Y-45.4177
G01 X-22.3133 Y-45.4189
G01 X-22.5538 Y-45.4532
G01 X-22.7874 Y-45.5197
G01 X-23.0099 Y-45.6174
G01 X-23.2170 Y-45.7443
G01 X-23.4050 Y-45.8982
G01 X-23.5704 Y-46.0761
G01 X-23.7101 Y-46.2749
G01 X-23.8215 Y-46.4907
G01 X-23.9026 Y-46.7197
G01 X-23.9518 Y-46.9576
G01 X-23.9686 Y-47.2309
G01 X-23.9464 Y-47.4794
G01 X-23.8921 Y-47.7162
G01 X-23.8063 Y-47.9434
G01 X-23.6904 Y-48.1569
G01 X-23.5465 Y-48.3527
G01 X-23.3775 Y-48.5272
G00 X-23.3775 Y-48.5272
G01 F60.00
G01 Z-0.0500
G01 F120.00
G01 X-23.1863 Y-48.6771
G01 X-22.9766 Y-48.7996
G01 X-22.7521 Y-48.8926
G01 X-22.5171 Y-48.9542
G01 X-22.2760 Y-48.9834
G01 X-22.0331 Y-48.9796
G01 X-21.7929 Y-48.9429
G01 X-21.5600 Y-48.8739
G01 X-21.3386 Y-48.7739
G01 X-21.1328 Y-48.6448
G01 X-20.9464 Y-48.4890
G01 X-20.7829 Y-48.3093
G01 X-20.6453 Y-48.1091
G01 X-20.5362 Y-47.8920
G01 X-20.4575 Y-47.6622
G01 X-20.4107 Y-47.4238
G01 X-20.3967 Y-47.1813
G01 X-20.4158 Y-46.9391
G01 X-20.4675 Y-46.7018
G01 X-20.5510 Y-46.4736
G01 X-20.6647 Y-46.2589
G01 X-20.8065 Y-46.0616
G01 X-20.9737 Y-45.8854
G01 X-21.1633 Y-45.7335
G01 X-21.3717 Y-45.6088
G01 X-21.5952 Y-45.5135
G01 X-21.8295 Y-45.4494
G01 X-22.0704 Y-45.4177
G01 X-22.3133 Y-45.4189
G01 X-22.5538 Y-45.4532
G01 X-22.7874 Y-45.5197
G01 X-23.0099 Y-45.6174
G01 X-23.2170 Y-45.7443
G01 X-23.4050 Y-45.8982
G01 X-23.5704 Y-46.0761
G01 X-23.7101 Y-46.2749
G01 X-23.8215 Y-46.4907
G01 X-23.9026 Y-46.7197
G01 X-23.9518 Y-46.9576
G01 X-23.9686 Y-47.2309
G01 X-23.9464 Y-47.4794
G01 X-23.8921 Y-47.7162
G01 X-23.8063 Y-47.9434
G01 X-23.6904 Y-48.1569
G01 X-23.5465 Y-48.3527
G01 X-23.3775 Y-48.5272
G00 X-23.3775 Y-48.5272
G01 F60.00
G01 Z-0.0750
G01 F120.00
G01 X-23.1863 Y-48.6771
G01 X-22.9766 Y-48.7996
G01 X-22.7521 Y-48.8926
G01 X-22.5171 Y-48.9542
G01 X-22.2760 Y-48.9834
G01 X-22.0331 Y-48.9796
G01 X-21.7929 Y-48.9429
G01 X-21.5600 Y-48.8739
G01 X-21.3386 Y-48.7739
G01 X-21.1328 Y-48.6448
G01 X-20.9464 Y-48.4890
G01 X-20.7829 Y-48.3093
G01 X-20.6453 Y-48.1091
G01 X-20.5362 Y-47.8920
G01 X-20.4575 Y-47.6622
G01 X-20.4107 Y-47.4238
G01 X-20.3967 Y-47.1813
G01 X-20.4158 Y-46.9391
G01 X-20.4675 Y-46.7018
G01 X-20.5510 Y-46.4736
G01 X-20.6647 Y-46.2589
G01 X-20.8065 Y-46.0616
G01 X-20.9737 Y-45.8854
G01 X-21.1633 Y-45.7335
G01 X-21.3717 Y-45.6088
G01 X-21.5952 Y-45.5135
G01 X-21.8295 Y-45.4494
G01 X-22.0704 Y-45.4177
G01 X-22.3133 Y-45.4189
G01 X-22.5538 Y-45.4532
G01 X-22.7874 Y-45.5197
G01 X-23.0099 Y-45.6174
G01 X-23.2170 Y-45.7443
G01 X-23.4050 Y-45.8982
G01 X-23.5704 Y-46.0761
G01 X-23.7101 Y-46.2749
G01 X-23.8215 Y-46.4907
G01 X-23.9026 Y-46.7197
G01 X-23.9518 Y-46.9576
G01 X-23.9686 Y-47.2309
G01 X-23.9464 Y-47.4794
G01 X-23.8921 Y-47.7162
G01 X-23.8063 Y-47.9434
G01 X-23.6904 Y-48.1569
G01 X-23.5465 Y-48.3527
G01 X-23.3775 Y-48.5272
G00 X-23.3775 Y-48.5272
G01 F60.00
G01 Z-0.1000
G01 F120.00
G01 X-23.1863 Y-48.6771
G01 X-22.9766 Y-48.7996
G01 X-22.7521 Y-48.8926
G01 X-22.5171 Y-48.9542
G01 X-22.2760 Y-48.9834
G01 X-22.0331 Y-48.9796
G01 X-21.7929 Y-48.9429
G01 X-21.5600 Y-48.8739
G01 X-21.3386 Y-48.7739
G01 X-21.1328 Y-48.6448
G01 X-20.9464 Y-48.4890
G01 X-20.7829 Y-48.3093
G01 X-20.6453 Y-48.1091
G01 X-20.5362 Y-47.8920
G01 X-20.4575 Y-47.6622
G01 X-20.4107 Y-47.4238
G01 X-20.3967 Y-47.1813
G01 X-20.4158 Y-46.9391
G01 X-20.4675 Y-46.7018
G01 X-20.5510 Y-46.4736
G01 X-20.6647 Y-46.2589
G01 X-20.8065 Y-46.0616
G01 X-20.9737 Y-45.8854
G01 X-21.1633 Y-45.7335
G01 X-21.3717 Y-45.6088
G01 X-21.5952 Y-45.5135
G01 X-21.8295 Y-45.4494
G01 X-22.0704 Y-45.4177
G01 X-22.3133 Y-45.4189
G01 X-22.5538 Y-45.4532
G01 X-22.7874 Y-45.5197
G01 X-23.0099 Y-45.6174
G01 X-23.2170 Y-45.7443
G01 X-23.4050 Y-45.8982
G01 X-23.5704 Y-46.0761
G01 X-23.7101 Y-46.2749
G01 X-23.8215 Y-46.4907
G01 X-23.9026 Y-46.7197
G01 X-23.9518 Y-46.9576
G01 X-23.9686 Y-47.2309
G01 X-23.9464 Y-47.4794
G01 X-23.8921 Y-47.7162
G01 X-23.8063 Y-47.9434
G01 X-23.6904 Y-48.1569
G01 X-23.5465 Y-48.3527
G01 X-23.3775 Y-48.5272
G00 Z2.0000
G00 X-23.8737 Y-56.8523
G01 F60.00
G01 Z-0.0250
G01 F120.00
G01 X-23.8996 Y-57.0197
G01 X-23.9090 Y-57.1889
G01 X-23.9018 Y-57.3582
G01 X-23.8774 Y-57.5296
G01 X-23.8376 Y-57.6917
G01 X-23.7819 Y-57.8504
G01 X-23.7104 Y-58.0041
G01 X-23.6242 Y-58.1500
G01 X-23.5242 Y-58.2867
G01 X-23.4035 Y-58.4210
G01 X-23.2864 Y-58.5276
G01 X-23.1488 Y-58.6309
G01 X-23.0043 Y-58.7186
G01 X-22.8535 Y-58.7908
G01 X-22.6943 Y-58.8490
G01 X-22.5302 Y-58.8912
G01 X-22.3628 Y-58.9171
G01 X-22.1936 Y-58.9265
G01 X-22.0243 Y-58.9193
G01 X-21.8529 Y-58.8949
G01 X-21.6908 Y-58.8551
G01 X-21.5321 Y-58.7994
G01 X-21.3784 Y-58.7279
G01 X-21.2325 Y-58.6417
G01 X-21.0958 Y-58.5417
G01 X-20.9615 Y-58.4210
G01 X-20.8549 Y-58.3039
G01 X-20.7516 Y-58.1663
G01 X-20.6640 Y-58.0218
G01 X-20.5917 Y-57.8710
G01 X-20.5335 Y-57.7118
G01 X-20.4913 Y-57.5477
G01 X-20.4654 Y-57.3803
G01 X-20.4560 Y-57.2111
G01 X-20.4632 Y-57.0418
G01 X-20.4876 Y-56.8704
G01 X-20.5274 Y-56.7083
G01 X-20.5831 Y-56.5496
G01 X-20.6546 Y-56.3959
G01 X-20.7408 Y-56.2500
G01 X-20.8408 Y-56.1133
G01 X-20.9615 Y-55.9790
G01 X-21.0786 Y-55.8724
G01 X-21.2162 Y-55.7691
G01 X-21.3607 Y-55.6814
G01 X-21.5115 Y-55.6092
G01 X-21.6707 Y-55.5510
G01 X-21.8348 Y-55.5088
G01 X-22.0022 Y-55.4829
G01 X-22.1714 Y-55.4735
G01 X-22.3407 Y-55.4807
G01 X-22.5121 Y-55.5051
G01 X-22.6742 Y-55.5449
G01 X-22.8329 Y-55.6006
G01 X-22.9866 Y-55.6721
G01 X-23.1325 Y-55.7583
G01 X-23.2692 Y-55.8583
G01 X-23.4035 Y-55.9790
G01 X-23.5101 Y-56.0961
G01 X-23.6134 Y-56.2337
G01 X-23.7010 Y-56.3782
G01 X-23.7733 Y-56.5290
G01 X-23.8315 Y-56.6882
G01 X-23.8737 Y-56.8523
G00 X-23.8737 Y-56.8523
G01 F60.00
G01 Z-0.0500
G01 F120.00
G01 X-23.8996 Y-57.0197
G01 X-23.9090 Y-57.1889
G01 X-23.9018 Y-57.3582
G01 X-23.8774 Y-57.5296
G01 X-23.8376 Y-57.6917
G01 X-23.7819 Y-57.8504
G01 X-23.7104 Y-58.0041
G01 X-23.6242 Y-58.1500
G01 X-23.5242 Y-58.2867
G01 X-23.4035 Y-58.4210
G01 X-23.2864 Y-58.5276
G01 X-23.1488 Y-58.6309
G01 X-23.0043 Y-58.7186
G01 X-22.8535 Y-58.7908
G01 X-22.6943 Y-58.8490
G01 X-22.5302 Y-58.8912
G01 X-22.3628 Y-58.9171
G01 X-22.1936 Y-58.9265
G01 X-22.0243 Y-58.9193
G01 X-21.8529 Y-58.8949
G01 X-21.6908 Y-58.8551
G01 X-21.5321 Y-58.7994
G01 X-21.3784 Y-58.7279
G01 X-21.2325 Y-58.6417
G01 X-21.0958 Y-58.5417
G01 X-20.9615 Y-58.4210
G01 X-20.8549 Y-58.3039
G01 X-20.7516 Y-58.1663
G01 X-20.6640 Y-58.0218
G01 X-20.5917 Y-57.8710
G01 X-20.5335 Y-57.7118
G01 X-20.4913 Y-57.5477
G01 X-20.4654 Y-57.3803
G01 X-20.4560 Y-57.2111
G01 X-20.4632 Y-57.0418
G01 X-20.4876 Y-56.8704
G01 X-20.5274 Y-56.7083
G01 X-20.5831 Y-56.5496
G01 X-20.6546 Y-56.3959
G01 X-20.7408 Y-56.2500
G01 X-20.8408 Y-56.1133
G01 X-20.9615 Y-55.9790
G01 X-21.0786 Y-55.8724
G01 X-21.2162 Y-55.7691
G01 X-21.3607 Y-55.6814
G01 X-21.5115 Y-55.6092
G01 X-21.6707 Y-55.5510
G01 X-21.8348 Y-55.5088
G01 X-22.0022 Y-55.4829
G01 X-22.1714 Y-55.4735
G01 X-22.3407 Y-55.4807
G01 X-22.5121 Y-55.5051
G01 X-22.6742 Y-55.5449
G01 X-22.8329 Y-55.6006
G01 X-22.9866 Y-55.6721
G01 X-23.1325 Y-55.7583
G01 X-23.2692 Y-55.8583
G01 X-23.4035 Y-55.9790
G01 X-23.5101 Y-56.0961
G01 X-23.6134 Y-56.2337
G01 X-23.7010 Y-56.3782
G01 X-23.7733 Y-56.5290
G01 X-23.8315 Y-56.6882
G01 X-23.8737 Y-56.8523
G00 X-23.8737 Y-56.8523
G01 F60.00
G01 Z-0.0750
G01 F120.00
G01 X-23.8996 Y-57.0197
G01 X-23.9090 Y-57.1889
G01 X-23.9018 Y-57.3582
G01 X-23.8774 Y-57.5296
G01 X-23.8376 Y-57.6917
G01 X-23.7819 Y-57.8504
G01 X-23.7104 Y-58.0041
G01 X-23.6242 Y-58.1500
G01 X-23.5242 Y-58.2867
G01 X-23.4035 Y-58.4210
G01 X-23.2864 Y-58.5276
G01 X-23.1488 Y-58.6309
G01 X-23.0043 Y-58.7186
G01 X-22.8535 Y-58.7908
G01 X-22.6943 Y-58.8490
G01 X-22.5302 Y-58.8912
G01 X-22.3628 Y-58.9171
G01 X-22.1936 Y-58.9265
G01 X-22.0243 Y-58.9193
G01 X-21.8529 Y-58.8949
G01 X-21.6908 Y-58.8551
G01 X-21.5321 Y-58.7994
G01 X-21.3784 Y-58.7279
G01 X-21.2325 Y-58.6417
G01 X-21.0958 Y-58.5417
G01 X-20.9615 Y-58.4210
G01 X-20.8549 Y-58.3039
G01 X-20.7516 Y-58.1663
G01 X-20.6640 Y-58.0218
G01 X-20.5917 Y-57.8710
G01 X-20.5335 Y-57.7118
G01 X-20.4913 Y-57.5477
G01 X-20.4654 Y-57.3803
G01 X-20.4560 Y-57.2111
G01 X-20.4632 Y-57.0418
G01 X-20.4876 Y-56.8704
G01 X-20.5274 Y-56.7083
G01 X-20.5831 Y-56.5496
G01 X-20.6546 Y-56.3959
G01 X-20.7408 Y-56.2500
G01 X-20.8408 Y-56.1133
G01 X-20.9615 Y-55.9790
G01 X-21.0786 Y-55.8724
G01 X-21.2162 Y-55.7691
G01 X-21.3607 Y-55.6814
G01 X-21.5115 Y-55.6092
G01 X-21.6707 Y-55.5510
G01 X-21.8348 Y-55.5088
G01 X-22.0022 Y-55.4829
G01 X-22.1714 Y-55.4735
G01 X-22.3407 Y-55.4807
G01 X-22.5121 Y-55.5051
G01 X-22.6742 Y-55.5449
G01 X-22.8329 Y-55.6006
G01 X-22.9866 Y-55.6721
G01 X-23.1325 Y-55.7583
G01 X-23.2692 Y-55.8583
G01 X-23.4035 Y-55.9790
G01 X-23.5101 Y-56.0961
G01 X-23.6134 Y-56.2337
G01 X-23.7010 Y-56.3782
G01 X-23.7733 Y-56.5290
G01 X-23.8315 Y-56.6882
G01 X-23.8737 Y-56.8523
G00 X-23.8737 Y-56.8523
G01 F60.00
G01 Z-0.1000
G01 F120.00
G01 X-23.8996 Y-57.0197
G01 X-23.9090 Y-57.1889
G01 X-23.9018 Y-57.3582
G01 X-23.8774 Y-57.5296
G01 X-23.8376 Y-57.6917
G01 X-23.7819 Y-57.8504
G01 X-23.7104 Y-58.0041
G01 X-23.6242 Y-58.1500
G01 X-23.5242 Y-58.2867
G01 X-23.4035 Y-58.4210
G01 X-23.2864 Y-58.5276
G01 X-23.1488 Y-58.6309
G01 X-23.0043 Y-58.7186
G01 X-22.8535 Y-58.7908
G01 X-22.6943 Y-58.8490
G01 X-22.5302 Y-58.8912
G01 X-22.3628 Y-58.9171
G01 X-22.1936 Y-58.9265
G01 X-22.0243 Y-58.9193
G01 X-21.8529 Y-58.8949
G01 X-21.6908 Y-58.8551
G01 X-21.5321 Y-58.7994
G01 X-21.3784 Y-58.7279
G01 X-21.2325 Y-58.6417
G01 X-21.0958 Y-58.5417
G01 X-20.9615 Y-58.4210
G01 X-20.8549 Y-58.3039
G01 X-20.7516 Y-58.1663
G01 X-20.6640 Y-58.0218
G01 X-20.5917 Y-57.8710
G01 X-20.5335 Y-57.7118
G01 X-20.4913 Y-57.5477
G01 X-20.4654 Y-57.3803
G01 X-20.4560 Y-57.2111
G01 X-20.4632 Y-57.0418
G01 X-20.4876 Y-56.8704
G01 X-20.5274 Y-56.7083
G01 X-20.5831 Y-56.5496
G01 X-20.6546 Y-56.3959
G01 X-20.7408 Y-56.2500
G01 X-20.8408 Y-56.1133
G01 X-20.9615 Y-55.9790
G01 X-21.0786 Y-55.8724
G01 X-21.2162 Y-55.7691
G01 X-21.3607 Y-55.6814
G01 X-21.5115 Y-55.6092
G01 X-21.6707 Y-55.5510
G01 X-21.8348 Y-55.5088
G01 X-22.0022 Y-55.4829
G01 X-22.1714 Y-55.4735
G01 X-22.3407 Y-55.4807
G01 X-22.5121 Y-55.5051
G01 X-22.6742 Y-55.5449
G01 X-22.8329 Y-55.6006
G01 X-22.9866 Y-55.6721
G01 X-23.1325 Y-55.7583
G01 X-23.2692 Y-55.8583
G01 X-23.4035 Y-55.9790
G01 X-23.5101 Y-56.0961
G01 X-23.6134 Y-56.2337
G01 X-23.7010 Y-56.3782
G01 X-23.7733 Y-56.5290
G01 X-23.8315 Y-56.6882
G01 X-23.8737 Y-56.8523
G00 Z2.0000
G00 X-31.2546 Y-74.1388
G01 F60.00
G01 Z-0.0250
G01 F120.00
G01 X-31.2727 Y-74.2605
G01 X-31.2765 Y-74.3611
G01 X-31.2590 Y-74.5394
G01 X-31.2353 Y-74.6385
G01 X-31.1941 Y-74.7531
G01 X-31.1097 Y-74.9111
G01 X-31.0365 Y-75.0098
G01 X-30.9680 Y-75.0837
G01 X-30.8296 Y-75.1973
G01 X-30.7241 Y-75.2606
G01 X-30.5586 Y-75.3291
G01 X-30.4612 Y-75.3546
G01 X-30.3395 Y-75.3727
G01 X-30.2389 Y-75.3765
G01 X-30.0570 Y-75.3584
G01 X-29.9444 Y-75.3300
G01 X-28.5619 Y-76.7125
G01 X-28.5619 Y-78.2880
G01 X-28.5985 Y-78.3763
G01 X-28.6118 Y-78.4750
G01 X-28.6118 Y-80.2250
G01 X-28.6021 Y-80.3094
G01 X-28.5618 Y-80.4123
G01 X-28.5014 Y-80.4914
G01 X-28.4223 Y-80.5518
G01 X-28.3337 Y-80.5885
G01 X-28.2461 Y-80.6015
G01 X-27.9092 Y-80.6008
G01 X-27.8352 Y-80.5883
G01 X-27.7477 Y-80.5518
G01 X-27.6686 Y-80.4914
G01 X-27.6082 Y-80.4123
G01 X-27.5715 Y-80.3237
G01 X-27.5582 Y-80.2250
G01 X-27.5585 Y-78.4639
G01 X-27.5717 Y-78.3752
G01 X-27.6081 Y-78.2879
G01 X-27.6083 Y-76.5039
G01 X-27.6259 Y-76.3861
G01 X-27.6699 Y-76.2805
G01 X-27.7478 Y-76.1778
G01 X-29.2700 Y-74.6556
G01 X-29.2295 Y-74.4617
G01 X-29.2235 Y-74.3389
G01 X-29.2415 Y-74.1579
G01 X-29.2974 Y-73.9674
G01 X-29.3499 Y-73.8563
G01 X-29.4635 Y-73.6902
G01 X-29.6074 Y-73.5494
G01 X-29.7563 Y-73.4499
G01 X-29.8469 Y-73.4059
G01 X-29.9627 Y-73.3644
G01 X-30.0606 Y-73.3410
G01 X-30.2389 Y-73.3235
G01 X-30.3395 Y-73.3273
G01 X-30.4430 Y-73.3416
G01 X-30.5385 Y-73.3647
G01 X-30.6531 Y-73.4059
G01 X-30.7437 Y-73.4499
G01 X-30.8926 Y-73.5494
G01 X-30.9680 Y-73.6163
G01 X-31.0506 Y-73.7074
G01 X-31.1606 Y-73.8759
G01 X-31.2291 Y-74.0414
G01 X-31.2546 Y-74.1388
G00 X-31.2546 Y-74.1388
G01 F60.00
G01 Z-0.0500
G01 F120.00
G01 X-31.2727 Y-74.2605
G01 X-31.2765 Y-74.3611
G01 X-31.2590 Y-74.5394
G01 X-31.2353 Y-74.6385
G01 X-31.1941 Y-74.7531
G01 X-31.1097 Y-74.9111
G01 X-31.0365 Y-75.0098
G01 X-30.9680 Y-75.0837
G01 X-30.8296 Y-75.1973
G01 X-30.7241 Y-75.2606
G01 X-30.5586 Y-75.3291
G01 X-30.4612 Y-75.3546
G01 X-30.3395 Y-75.3727
G01 X-30.2389 Y-75.3765
G01 X-30.0570 Y-75.3584
G01 X-29.9444 Y-75.3300
G01 X-28.5619 Y-76.7125
G01 X-28.5619 Y-78.2880
G01 X-28.5985 Y-78.3763
G01 X-28.6118 Y-78.4750
G01 X-28.6118 Y-80.2250
G01 X-28.6021 Y-80.3094
G01 X-28.5618 Y-80.4123
G01 X-28.5014 Y-80.4914
G01 X-28.4223 Y-80.5518
G01 X-28.3337 Y-80.5885
G01 X-28.2461 Y-80.6015
G01 X-27.9092 Y-80.6008
G01 X-27.8352 Y-80.5883
G01 X-27.7477 Y-80.5518
G01 X-27.6686 Y-80.4914
G01 X-27.6082 Y-80.4123
G01 X-27.5715 Y-80.3237
G01 X-27.5582 Y-80.2250
G01 X-27.5585 Y-78.4639
G01 X-27.5717 Y-78.3752
G01 X-27.6081 Y-78.2879
G01 X-27.6083 Y-76.5039
G01 X-27.6259 Y-76.3861
G01 X-27.6699 Y-76.2805
G01 X-27.7478 Y-76.1778
G01 X-29.2700 Y-74.6556
G01 X-29.2295 Y-74.4617
G01 X-29.2235 Y-74.3389
G01 X-29.2415 Y-74.1579
G01 X-29.2974 Y-73.9674
G01 X-29.3499 Y-73.8563
G01 X-29.4635 Y-73.6902
G01 X-29.6074 Y-73.5494
G01 X-29.7563 Y-73.4499
G01 X-29.8469 Y-73.4059
G01 X-29.9627 Y-73.3644
G01 X-30.0606 Y-73.3410
G01 X-30.2389 Y-73.3235
G01 X-30.3395 Y-73.3273
G01 X-30.4430 Y-73.3416
G01 X-30.5385 Y-73.3647
G01 X-30.6531 Y-73.4059
G01 X-30.7437 Y-73.4499
G01 X-30.8926 Y-73.5494
G01 X-30.9680 Y-73.6163
G01 X-31.0506 Y-73.7074
G01 X-31.1606 Y-73.8759
G01 X-31.2291 Y-74.0414
G01 X-31.2546 Y-74.1388
G00 X-31.2546 Y-74.1388
G01 F60.00
G01 Z-0.0750
G01 F120.00
G01 X-31.2727 Y-74.2605
G01 X-31.2765 Y-74.3611
G01 X-31.2590 Y-74.5394
G01 X-31.2353 Y-74.6385
G01 X-31.1941 Y-74.7531
G01 X-31.1097 Y-74.9111
G01 X-31.0365 Y-75.0098
G01 X-30.9680 Y-75.0837
G01 X-30.8296 Y-75.1973
G01 X-30.7241 Y-75.2606
G01 X-30.5586 Y-75.3291
G01 X-30.4612 Y-75.3546
G01 X-30.3395 Y-75.3727
G01 X-30.2389 Y-75.3765
G01 X-30.0570 Y-75.3584
G01 X-29.9444 Y-75.3300
G01 X-28.5619 Y-76.7125
G01 X-28.5619 Y-78.2880
G01 X-28.5985 Y-78.3763
G01 X-28.6118 Y-78.4750
G01 X-28.6118 Y-80.2250
G01 X-28.6021 Y-80.3094
G01 X-28.5618 Y-80.4123
G01 X-28.5014 Y-80.4914
G01 X-28.4223 Y-80.5518
G01 X-28.3337 Y-80.5885
G01 X-28.2461 Y-80.6015
G01 X-27.9092 Y-80.6008
G01 X-27.8352 Y-80.5883
G01 X-27.7477 Y-80.5518
G01 X-27.6686 Y-80.4914
G01 X-27.6082 Y-80.4123
G01 X-27.5715 Y-80.3237
G01 X-27.5582 Y-80.2250
G01 X-27.5585 Y-78.4639
G01 X-27.5717 Y-78.3752
G01 X-27.6081 Y-78.2879
G01 X-27.6083 Y-76.5039
G01 X-27.6259 Y-76.3861
G01 X-27.6699 Y-76.2805
G01 X-27.7478 Y-76.1778
G01 X-29.2700 Y-74.6556
G01 X-29.2295 Y-74.4617
G01 X-29.2235 Y-74.3389
G01 X-29.2415 Y-74.1579
G01 X-29.2974 Y-73.9674
G01 X-29.3499 Y-73.8563
G01 X-29.4635 Y-73.6902
G01 X-29.6074 Y-73.5494
G01 X-29.7563 Y-73.4499
G01 X-29.8469 Y-73.4059
G01 X-29.9627 Y-73.3644
G01 X-30.0606 Y-73.3410
G01 X-30.2389 Y-73.3235
G01 X-30.3395 Y-73.3273
G01 X-30.4430 Y-73.3416
G01 X-30.5385 Y-73.3647
G01 X-30.6531 Y-73.4059
G01 X-30.7437 Y-73.4499
G01 X-30.8926 Y-73.5494
G01 X-30.9680 Y-73.6163
G01 X-31.0506 Y-73.7074
G01 X-31.1606 Y-73.8759
G01 X-31.2291 Y-74.0414
G01 X-31.2546 Y-74.1388
G00 X-31.2546 Y-74.1388
G01 F60.00
G01 Z-0.1000
G01 F120.00
G01 X-31.2727 Y-74.2605
G01 X-31.2765 Y-74.3611
G01 X-31.2590 Y-74.5394
G01 X-31.2353 Y-74.6385
G01 X-31.1941 Y-74.7531
G01 X-31.1097 Y-74.9111
G01 X-31.0365 Y-75.0098
G01 X-30.9680 Y-75.0837
G01 X-30.8296 Y-75.1973
G01 X-30.7241 Y-75.2606
G01 X-30.5586 Y-75.3291
G01 X-30.4612 Y-75.3546
G01 X-30.3395 Y-75.3727
G01 X-30.2389 Y-75.3765
G01 X-30.0570 Y-75.3584
G01 X-29.9444 Y-75.3300
G01 X-28.5619 Y-76.7125
G01 X-28.5619 Y-78.2880
G01 X-28.5985 Y-78.3763
G01 X-28.6118 Y-78.4750
G01 X-28.6118 Y-80.2250
G01 X-28.6021 Y-80.3094
G01 X-28.5618 Y-80.4123
G01 X-28.5014 Y-80.4914
G01 X-28.4223 Y-80.5518
G01 X-28.3337 Y-80.5885
G01 X-28.2461 Y-80.6015
G01 X-27.9092 Y-80.6008
G01 X-27.8352 Y-80.5883
G01 X-27.7477 Y-80.5518
G01 X-27.6686 Y-80.4914
G01 X-27.6082 Y-80.4123
G01 X-27.5715 Y-80.3237
G01 X-27.5582 Y-80.2250
G01 X-27.5585 Y-78.4639
G01 X-27.5717 Y-78.3752
G01 X-27.6081 Y-78.2879
G01 X-27.6083 Y-76.5039
G01 X-27.6259 Y-76.3861
G01 X-27.6699 Y-76.2805
G01 X-27.7478 Y-76.1778
G01 X-29.2700 Y-74.6556
G01 X-29.2295 Y-74.4617
G01 X-29.2235 Y-74.3389
G01 X-29.2415 Y-74.1579
G01 X-29.2974 Y-73.9674
G01 X-29.3499 Y-73.8563
G01 X-29.4635 Y-73.6902
G01 X-29.6074 Y-73.5494
G01 X-29.7563 Y-73.4499
G01 X-29.8469 Y-73.4059
G01 X-29.9627 Y-73.3644
G01 X-30.0606 Y-73.3410
G01 X-30.2389 Y-73.3235
G01 X-30.3395 Y-73.3273
G01 X-30.4430 Y-73.3416
G01 X-30.5385 Y-73.3647
G01 X-30.6531 Y-73.4059
G01 X-30.7437 Y-73.4499
G01 X-30.8926 Y-73.5494
G01 X-30.9680 Y-73.6163
G01 X-31.0506 Y-73.7074
G01 X-31.1606 Y-73.8759
G01 X-31.2291 Y-74.0414
G01 X-31.2546 Y-74.1388
G00 Z2.0000
G00 X-33.3546 Y-74.0888
G01 F60.00
G01 Z-0.0250
G01 F120.00
G01 X-33.3727 Y-74.2105
G01 X-33.3727 Y-74.3895
G01 X-33.3546 Y-74.5112
G01 X-33.2941 Y-74.7031
G01 X-33.2097 Y-74.8611
G01 X-33.0837 Y-75.0180
G01 X-32.9926 Y-75.1006
G01 X-32.8269 Y-75.2090
G01 X-32.8269 Y-78.0500
G01 X-32.8091 Y-78.1789
G01 X-32.7651 Y-78.2845
G01 X-32.6872 Y-78.3872
G01 X-28.5619 Y-82.5125
G01 X-28.5619 Y-87.5880
G01 X-28.5985 Y-87.6763
G01 X-28.6118 Y-87.7750
G01 X-28.6086 Y-89.5730
G01 X-28.5786 Y-89.6794
G01 X-28.5331 Y-89.7553
G01 X-28.4653 Y-89.8231
G01 X-28.3688 Y-89.8771
G01 X-28.2975 Y-89.8965
G01 X-28.2350 Y-89.9018
G01 X-27.9239 Y-89.9015
G01 X-27.8151 Y-89.8821
G01 X-27.7673 Y-89.8623
G01 X-27.7047 Y-89.8231
G01 X-27.6281 Y-89.7434
G01 X-27.5779 Y-89.6449
G01 X-27.5582 Y-89.5250
G01 X-27.5585 Y-87.7639
G01 X-27.5717 Y-87.6752
G01 X-27.6081 Y-87.5879
G01 X-27.6081 Y-82.3150
G01 X-27.6158 Y-82.2302
G01 X-27.6321 Y-82.1660
G01 X-27.6825 Y-82.0594
G01 X-27.7478 Y-81.9778
G01 X-31.8731 Y-77.8525
G01 X-31.8731 Y-75.2090
G01 X-31.7704 Y-75.1473
G01 X-31.6902 Y-75.0865
G01 X-31.5494 Y-74.9426
G01 X-31.4394 Y-74.7741
G01 X-31.3709 Y-74.6086
G01 X-31.3454 Y-74.5112
G01 X-31.3235 Y-74.3111
G01 X-31.3273 Y-74.2105
G01 X-31.3415 Y-74.1079
G01 X-31.3647 Y-74.0115
G01 X-31.4059 Y-73.8969
G01 X-31.5027 Y-73.7204
G01 X-31.6163 Y-73.5820
G01 X-31.7074 Y-73.4994
G01 X-31.8563 Y-73.3999
G01 X-31.9674 Y-73.3474
G01 X-32.1388 Y-73.2954
G01 X-32.2605 Y-73.2773
G01 X-32.4395 Y-73.2773
G01 X-32.5430 Y-73.2916
G01 X-32.6586 Y-73.3209
G01 X-32.8241 Y-73.3894
G01 X-32.9296 Y-73.4527
G01 X-33.0680 Y-73.5663
G01 X-33.1506 Y-73.6574
G01 X-33.2501 Y-73.8063
G01 X-33.3026 Y-73.9174
G01 X-33.3546 Y-74.0888
G00 X-33.3546 Y-74.0888
G01 F60.00
G01 Z-0.0500
G01 F120.00
G01 X-33.3727 Y-74.2105
G01 X-33.3727 Y-74.3895
G01 X-33.3546 Y-74.5112
G01 X-33.2941 Y-74.7031
G01 X-33.2097 Y-74.8611
G01 X-33.0837 Y-75.0180
G01 X-32.9926 Y-75.1006
G01 X-32.8269 Y-75.2090
G01 X-32.8269 Y-78.0500
G01 X-32.8091 Y-78.1789
G01 X-32.7651 Y-78.2845
G01 X-32.6872 Y-78.3872
G01 X-28.5619 Y-82.5125
G01 X-28.5619 Y-87.5880
G01 X-28.5985 Y-87.6763
G01 X-28.6118 Y-87.7750
G01 X-28.6086 Y-89.5730
G01 X-28.5786 Y-89.6794
G01 X-28.5331 Y-89.7553
G01 X-28.4653 Y-89.8231
G01 X-28.3688 Y-89.8771
G01 X-28.2975 Y-89.8965
G01 X-28.2350 Y-89.9018
G01 X-27.9239 Y-89.9015
G01 X-27.8151 Y-89.8821
G01 X-27.7673 Y-89.8623
G01 X-27.7047 Y-89.8231
G01 X-27.6281 Y-89.7434
G01 X-27.5779 Y-89.6449
G01 X-27.5582 Y-89.5250
G01 X-27.5585 Y-87.7639
G01 X-27.5717 Y-87.6752
G01 X-27.6081 Y-87.5879
G01 X-27.6081 Y-82.3150
G01 X-27.6158 Y-82.2302
G01 X-27.6321 Y-82.1660
G01 X-27.6825 Y-82.0594
G01 X-27.7478 Y-81.9778
G01 X-31.8731 Y-77.8525
G01 X-31.8731 Y-75.2090
G01 X-31.7704 Y-75.1473
G01 X-31.6902 Y-75.0865
G01 X-31.5494 Y-74.9426
G01 X-31.4394 Y-74.7741
G01 X-31.3709 Y-74.6086
G01 X-31.3454 Y-74.5112
G01 X-31.3235 Y-74.3111
G01 X-31.3273 Y-74.2105
G01 X-31.3415 Y-74.1079
G01 X-31.3647 Y-74.0115
G01 X-31.4059 Y-73.8969
G01 X-31.5027 Y-73.7204
G01 X-31.6163 Y-73.5820
G01 X-31.7074 Y-73.4994
G01 X-31.8563 Y-73.3999
G01 X-31.9674 Y-73.3474
G01 X-32.1388 Y-73.2954
G01 X-32.2605 Y-73.2773
G01 X-32.4395 Y-73.2773
G01 X-32.5430 Y-73.2916
G01 X-32.6586 Y-73.3209
G01 X-32.8241 Y-73.3894
G01 X-32.9296 Y-73.4527
G01 X-33.0680 Y-73.5663
G01 X-33.1506 Y-73.6574
G01 X-33.2501 Y-73.8063
G01 X-33.3026 Y-73.9174
G01 X-33.3546 Y-74.0888
G00 X-33.3546 Y-74.0888
G01 F60.00
G01 Z-0.0750
G01 F120.00
G01 X-33.3727 Y-74.2105
G01 X-33.3727 Y-74.3895
G01 X-33.3546 Y-74.5112
G01 X-33.2941 Y-74.7031
G01 X-33.2097 Y-74.8611
G01 X-33.0837 Y-75.0180
G01 X-32.9926 Y-75.1006
G01 X-32.8269 Y-75.2090
G01 X-32.8269 Y-78.0500
G01 X-32.8091 Y-78.1789
G01 X-32.7651 Y-78.2845
G01 X-32.6872 Y-78.3872
G01 X-28.5619 Y-82.5125
G01 X-28.5619 Y-87.5880
G01 X-28.5985 Y-87.6763
G01 X-28.6118 Y-87.7750
G01 X-28.6086 Y-89.5730
G01 X-28.5786 Y-89.6794
G01 X-28.5331 Y-89.7553
G01 X-28.4653 Y-89.8231
G01 X-28.3688 Y-89.8771
G01 X-28.2975 Y-89.8965
G01 X-28.2350 Y-89.9018
G01 X-27.9239 Y-89.9015
G01 X-27.8151 Y-89.8821
G01 X-27.7673 Y-89.8623
G01 X-27.7047 Y-89.8231
G01 X-27.6281 Y-89.7434
G01 X-27.5779 Y-89.6449
G01 X-27.5582 Y-89.5250
G01 X-27.5585 Y-87.7639
G01 X-27.5717 Y-87.6752
G01 X-27.6081 Y-87.5879
G01 X-27.6081 Y-82.3150
G01 X-27.6158 Y-82.2302
G01 X-27.6321 Y-82.1660
G01 X-27.6825 Y-82.0594
G01 X-27.7478 Y-81.9778
G01 X-31.8731 Y-77.8525
G01 X-31.8731 Y-75.2090
G01 X-31.7704 Y-75.1473
G01 X-31.6902 Y-75.0865
G01 X-31.5494 Y-74.9426
G01 X-31.4394 Y-74.7741
G01 X-31.3709 Y-74.6086
G01 X-31.3454 Y-74.5112
G01 X-31.3235 Y-74.3111
G01 X-31.3273 Y-74.2105
G01 X-31.3415 Y-74.1079
G01 X-31.3647 Y-74.0115
G01 X-31.4059 Y-73.8969
G01 X-31.5027 Y-73.7204
G01 X-31.6163 Y-73.5820
G01 X-31.7074 Y-73.4994
G01 X-31.8563 Y-73.3999
G01 X-31.9674 Y-73.3474
G01 X-32.1388 Y-73.2954
G01 X-32.2605 Y-73.2773
G01 X-32.4395 Y-73.2773
G01 X-32.5430 Y-73.2916
G01 X-32.6586 Y-73.3209
G01 X-32.8241 Y-73.3894
G01 X-32.9296 Y-73.4527
G01 X-33.0680 Y-73.5663
G01 X-33.1506 Y-73.6574
G01 X-33.2501 Y-73.8063
G01 X-33.3026 Y-73.9174
G01 X-33.3546 Y-74.0888
G00 X-33.3546 Y-74.0888
G01 F60.00
G01 Z-0.1000
G01 F120.00
G01 X-33.3727 Y-74.2105
G01 X-33.3727 Y-74.3895
G01 X-33.3546 Y-74.5112
G01 X-33.2941 Y-74.7031
G01 X-33.2097 Y-74.8611
G01 X-33.0837 Y-75.0180
G01 X-32.9926 Y-75.1006
G01 X-32.8269 Y-75.2090
G01 X-32.8269 Y-78.0500
G01 X-32.8091 Y-78.1789
G01 X-32.7651 Y-78.2845
G01 X-32.6872 Y-78.3872
G01 X-28.5619 Y-82.5125
G01 X-28.5619 Y-87.5880
G01 X-28.5985 Y-87.6763
G01 X-28.6118 Y-87.7750
G01 X-28.6086 Y-89.5730
G01 X-28.5786 Y-89.6794
G01 X-28.5331 Y-89.7553
G01 X-28.4653 Y-89.8231
G01 X-28.3688 Y-89.8771
G01 X-28.2975 Y-89.8965
G01 X-28.2350 Y-89.9018
G01 X-27.9239 Y-89.9015
G01 X-27.8151 Y-89.8821
G01 X-27.7673 Y-89.8623
G01 X-27.7047 Y-89.8231
G01 X-27.6281 Y-89.7434
G01 X-27.5779 Y-89.6449
G01 X-27.5582 Y-89.5250
G01 X-27.5585 Y-87.7639
G01 X-27.5717 Y-87.6752
G01 X-27.6081 Y-87.5879
G01 X-27.6081 Y-82.3150
G01 X-27.6158 Y-82.2302
G01 X-27.6321 Y-82.1660
G01 X-27.6825 Y-82.0594
G01 X-27.7478 Y-81.9778
G01 X-31.8731 Y-77.8525
G01 X-31.8731 Y-75.2090
G01 X-31.7704 Y-75.1473
G01 X-31.6902 Y-75.0865
G01 X-31.5494 Y-74.9426
G01 X-31.4394 Y-74.7741
G01 X-31.3709 Y-74.6086
G01 X-31.3454 Y-74.5112
G01 X-31.3235 Y-74.3111
G01 X-31.3273 Y-74.2105
G01 X-31.3415 Y-74.1079
G01 X-31.3647 Y-74.0115
G01 X-31.4059 Y-73.8969
G01 X-31.5027 Y-73.7204
G01 X-31.6163 Y-73.5820
G01 X-31.7074 Y-73.4994
G01 X-31.8563 Y-73.3999
G01 X-31.9674 Y-73.3474
G01 X-32.1388 Y-73.2954
G01 X-32.2605 Y-73.2773
G01 X-32.4395 Y-73.2773
G01 X-32.5430 Y-73.2916
G01 X-32.6586 Y-73.3209
G01 X-32.8241 Y-73.3894
G01 X-32.9296 Y-73.4527
G01 X-33.0680 Y-73.5663
G01 X-33.1506 Y-73.6574
G01 X-33.2501 Y-73.8063
G01 X-33.3026 Y-73.9174
G01 X-33.3546 Y-74.0888
G00 Z2.0000
G00 X-38.6546 Y-73.0888
G01 F60.00
G01 Z-0.0250
G01 F120.00
G01 X-38.6727 Y-73.2105
G01 X-38.6765 Y-73.3111
G01 X-38.6546 Y-73.5112
G01 X-38.6291 Y-73.6086
G01 X-38.5606 Y-73.7741
G01 X-38.4506 Y-73.9426
G01 X-38.3837 Y-74.0180
G01 X-38.2926 Y-74.1006
G01 X-38.1241 Y-74.2106
G01 X-37.9586 Y-74.2791
G01 X-37.8612 Y-74.3046
G01 X-37.6611 Y-74.3265
G01 X-37.5605 Y-74.3227
G01 X-37.4570 Y-74.3084
G01 X-37.3615 Y-74.2853
G01 X-37.2469 Y-74.2441
G01 X-37.0704 Y-74.1473
G01 X-36.9163 Y-74.0180
G01 X-36.7903 Y-73.8611
G01 X-36.6974 Y-73.6826
G01 X-36.6410 Y-73.4894
G01 X-36.6273 Y-73.3895
G01 X-36.6265 Y-73.2269
G01 X-29.5475 Y-73.2269
G01 X-27.2919 Y-75.4825
G01 X-27.2919 Y-78.2880
G01 X-27.3285 Y-78.3763
G01 X-27.3418 Y-78.4750
G01 X-27.3418 Y-80.2250
G01 X-27.3360 Y-80.2903
G01 X-27.3023 Y-80.3927
G01 X-27.2314 Y-80.4914
G01 X-27.1327 Y-80.5623
G01 X-27.0637 Y-80.5885
G01 X-27.0130 Y-80.5986
G01 X-26.6650 Y-80.6018
G01 X-26.5652 Y-80.5883
G01 X-26.4973 Y-80.5623
G01 X-26.4347 Y-80.5231
G01 X-26.3788 Y-80.4701
G01 X-26.3382 Y-80.4123
G01 X-26.3015 Y-80.3237
G01 X-26.2885 Y-80.2361
G01 X-26.2882 Y-78.4750
G01 X-26.3017 Y-78.3752
G01 X-26.3381 Y-78.2879
G01 X-26.3381 Y-75.2850
G01 X-26.3458 Y-75.2002
G01 X-26.3621 Y-75.1360
G01 X-26.4125 Y-75.0294
G01 X-26.4778 Y-74.9478
G01 X-29.0128 Y-72.4128
G01 X-29.1155 Y-72.3349
G01 X-29.2223 Y-72.2906
G01 X-29.3500 Y-72.2731
G01 X-37.1000 Y-72.2731
G01 X-37.2039 Y-72.2847
G01 X-37.3216 Y-72.3280
G01 X-37.4388 Y-72.2954
G01 X-37.5383 Y-72.2795
G01 X-37.7395 Y-72.2773
G01 X-37.8612 Y-72.2954
G01 X-38.0531 Y-72.3559
G01 X-38.2111 Y-72.4403
G01 X-38.3098 Y-72.5135
G01 X-38.4506 Y-72.6574
G01 X-38.5501 Y-72.8063
G01 X-38.6026 Y-72.9174
G01 X-38.6546 Y-73.0888
G00 X-38.6546 Y-73.0888
G01 F60.00
G01 Z-0.0500
G01 F120.00
G01 X-38.6727 Y-73.2105
G01 X-38.6765 Y-73.3111
G01 X-38.6546 Y-73.5112
G01 X-38.6291 Y-73.6086
G01 X-38.5606 Y-73.7741
G01 X-38.4506 Y-73.9426
G01 X-38.3837 Y-74.0180
G01 X-38.2926 Y-74.1006
G01 X-38.1241 Y-74.2106
G01 X-37.9586 Y-74.2791
G01 X-37.8612 Y-74.3046
G01 X-37.6611 Y-74.3265
G01 X-37.5605 Y-74.3227
G01 X-37.4570 Y-74.3084
G01 X-37.3615 Y-74.2853
G01 X-37.2469 Y-74.2441
G01 X-37.0704 Y-74.1473
G01 X-36.9163 Y-74.0180
G01 X-36.7903 Y-73.8611
G01 X-36.6974 Y-73.6826
G01 X-36.6410 Y-73.4894
G01 X-36.6273 Y-73.3895
G01 X-36.6265 Y-73.2269
G01 X-29.5475 Y-73.2269
G01 X-27.2919 Y-75.4825
G01 X-27.2919 Y-78.2880
G01 X-27.3285 Y-78.3763
G01 X-27.3418 Y-78.4750
G01 X-27.3418 Y-80.2250
G01 X-27.3360 Y-80.2903
G01 X-27.3023 Y-80.3927
G01 X-27.2314 Y-80.4914
G01 X-27.1327 Y-80.5623
G01 X-27.0637 Y-80.5885
G01 X-27.0130 Y-80.5986
G01 X-26.6650 Y-80.6018
G01 X-26.5652 Y-80.5883
G01 X-26.4973 Y-80.5623
G01 X-26.4347 Y-80.5231
G01 X-26.3788 Y-80.4701
G01 X-26.3382 Y-80.4123
G01 X-26.3015 Y-80.3237
G01 X-26.2885 Y-80.2361
G01 X-26.2882 Y-78.4750
G01 X-26.3017 Y-78.3752
G01 X-26.3381 Y-78.2879
G01 X-26.3381 Y-75.2850
G01 X-26.3458 Y-75.2002
G01 X-26.3621 Y-75.1360
G01 X-26.4125 Y-75.0294
G01 X-26.4778 Y-74.9478
G01 X-29.0128 Y-72.4128
G01 X-29.1155 Y-72.3349
G01 X-29.2223 Y-72.2906
G01 X-29.3500 Y-72.2731
