(Block-name: Header)
(Block-expand: 0)
(Block-enable: 1)
(G-CODE GENERATED BY FLATCAM vUnstable - www.flatcam.org - Version Date: 2022/3/1)

(Name: digiMatex_DS410-B_Cu.gbr_ncc_cnc)
(Type: G-code from Geometry)
(Units: MM)

(Created on Sunday, 06 February 2022 at 18:20)

(This preprocessor is the default preprocessor used by FlatCAM.)
(It is made to work with MACH3 compatible motion controllers.)

(TOOL DIAMETER: 1.0 mm)
(Feedrate_XY: 120.0 mm/min)
(Feedrate_Z: 60.0 mm/min)
(Feedrate rapids 1500.0 mm/min)

(Z_Cut: -0.1 mm)
(DepthPerCut: 0.025 mm <=>4 passes)
(Z_Move: 2.0 mm)
(Z Start: None mm)
(Z End: 15.0 mm)
(X,Y End: None mm)
(Steps per circle: 16)
(Preprocessor Geometry: default)

(X range: -181.2652 ...   -0.7348  mm)
(Y range: -116.2652 ...   -0.7348  mm)

(Spindle Speed: 300.0 RPM)
G21
G90
G94

G01 F120.00
G00 Z2.0000
M03 S300.00
(Block-name: block)
(Block-expand: 0)
(Block-enable: 1)
G00 X-108.1222 Y-6.0993
G01 F60.00
G01 Z-0.0250
G01 F120.00
G01 X-108.1027 Y-6.2307
G01 X-108.0781 Y-6.3277
G01 X-108.0365 Y-6.4414
G01 X-107.9369 Y-6.6260
G01 X-107.8710 Y-6.7148
G01 X-107.7968 Y-6.7968
G01 X-107.7151 Y-6.8708
G01 X-107.6252 Y-6.9374
G01 X-107.5318 Y-6.9934
G01 X-107.4208 Y-7.0450
G01 X-107.3271 Y-7.0783
G01 X-107.2089 Y-7.1071
G01 X-107.0993 Y-7.1222
G01 X-106.9058 Y-7.1224
G01 X-103.6421 Y-10.3862
G01 X-103.6421 Y-12.3071
G01 X-103.7401 Y-12.4085
G01 X-103.8050 Y-12.4942
G01 X-103.8642 Y-12.5916
G01 X-103.9053 Y-12.6777
G01 X-103.9454 Y-12.7874
G01 X-103.9711 Y-12.8899
G01 X-103.9915 Y-13.0889
G01 X-103.9853 Y-13.2166
G01 X-103.9708 Y-13.3114
G01 X-103.9419 Y-13.4231
G01 X-103.8647 Y-13.6076
G01 X-103.7536 Y-13.7752
G01 X-103.6764 Y-13.8614
G01 X-103.5981 Y-13.9324
G01 X-103.5125 Y-13.9958
G01 X-103.4234 Y-14.0492
G01 X-103.3271 Y-14.0948
G01 X-103.2276 Y-14.1304
G01 X-103.1251 Y-14.1561
G01 X-103.0205 Y-14.1716
G01 X-102.9150 Y-14.1768
G01 X-102.8083 Y-14.1715
G01 X-102.7067 Y-14.1565
G01 X-102.6019 Y-14.1303
G01 X-102.5032 Y-14.0949
G01 X-102.4074 Y-14.0497
G01 X-102.2400 Y-13.9388
G01 X-102.1536 Y-13.8614
G01 X-102.0758 Y-13.7743
G01 X-102.0137 Y-13.6888
G01 X-101.9247 Y-13.5223
G01 X-101.8846 Y-13.4126
G01 X-101.8592 Y-13.3114
G01 X-101.8434 Y-13.2055
G01 X-101.8385 Y-13.0889
G01 X-101.8592 Y-12.8886
G01 X-101.8847 Y-12.7869
G01 X-101.9247 Y-12.6777
G01 X-101.9653 Y-12.5924
G01 X-102.0261 Y-12.4927
G01 X-102.0899 Y-12.4085
G01 X-102.1879 Y-12.3071
G01 X-102.1908 Y-10.0224
G01 X-102.2044 Y-9.9323
G01 X-102.2432 Y-9.8070
G01 X-102.2793 Y-9.7326
G01 X-102.3461 Y-9.6325
G01 X-105.8776 Y-6.0942
G01 X-105.8779 Y-5.8982
G01 X-105.8951 Y-5.7788
G01 X-105.9252 Y-5.6623
G01 X-106.0012 Y-5.4788
G01 X-106.0631 Y-5.3740
G01 X-106.1362 Y-5.2767
G01 X-106.2767 Y-5.1362
G01 X-106.3834 Y-5.0571
G01 X-106.5603 Y-4.9627
G01 X-106.6729 Y-4.9217
G01 X-106.8785 Y-4.8800
G01 X-107.0000 Y-4.8732
G01 X-107.2089 Y-4.8929
G01 X-107.3277 Y-4.9219
G01 X-107.4414 Y-4.9635
G01 X-107.6166 Y-5.0571
G01 X-107.7148 Y-5.1290
G01 X-107.8044 Y-5.2113
G01 X-107.9316 Y-5.3664
G01 X-107.9988 Y-5.4788
G01 X-108.0748 Y-5.6623
G01 X-108.1051 Y-5.7802
G01 X-108.1222 Y-5.9007
G01 X-108.1222 Y-6.0993
G00 X-108.1222 Y-6.0993
G01 F60.00
G01 Z-0.0500
G01 F120.00
G01 X-108.1222 Y-5.9007
G01 X-108.1051 Y-5.7802
G01 X-108.0748 Y-5.6623
G01 X-107.9988 Y-5.4788
G01 X-107.9316 Y-5.3664
G01 X-107.8044 Y-5.2113
G01 X-107.7148 Y-5.1290
G01 X-107.6166 Y-5.0571
G01 X-107.4414 Y-4.9635
G01 X-107.3277 Y-4.9219
G01 X-107.2089 Y-4.8929
G01 X-107.0000 Y-4.8732
G01 X-106.8785 Y-4.8800
G01 X-106.6729 Y-4.9217
G01 X-106.5603 Y-4.9627
G01 X-106.3834 Y-5.0571
G01 X-106.2767 Y-5.1362
G01 X-106.1362 Y-5.2767
G01 X-106.0631 Y-5.3740
G01 X-106.0012 Y-5.4788
G01 X-105.9252 Y-5.6623
G01 X-105.8951 Y-5.7788
G01 X-105.8779 Y-5.8982
G01 X-105.8776 Y-6.0942
G01 X-102.3461 Y-9.6325
G01 X-102.2793 Y-9.7326
G01 X-102.2432 Y-9.8070
G01 X-102.2044 Y-9.9323
G01 X-102.1908 Y-10.0224
G01 X-102.1879 Y-12.3071
G01 X-102.0899 Y-12.4085
G01 X-102.0261 Y-12.4927
G01 X-101.9653 Y-12.5924
G01 X-101.9247 Y-12.6777
G01 X-101.8847 Y-12.7869
G01 X-101.8592 Y-12.8886
G01 X-101.8385 Y-13.0889
G01 X-101.8434 Y-13.2055
G01 X-101.8592 Y-13.3114
G01 X-101.8846 Y-13.4126
G01 X-101.9247 Y-13.5223
G01 X-102.0137 Y-13.6888
G01 X-102.0758 Y-13.7743
G01 X-102.1536 Y-13.8614
G01 X-102.2400 Y-13.9388
G01 X-102.4074 Y-14.0497
G01 X-102.5032 Y-14.0949
G01 X-102.6019 Y-14.1303
G01 X-102.7067 Y-14.1565
G01 X-102.8083 Y-14.1715
G01 X-102.9150 Y-14.1768
G01 X-103.0205 Y-14.1716
G01 X-103.1251 Y-14.1561
G01 X-103.2276 Y-14.1304
G01 X-103.3271 Y-14.0948
G01 X-103.4234 Y-14.0492
G01 X-103.5125 Y-13.9958
G01 X-103.5981 Y-13.9324
G01 X-103.6764 Y-13.8614
G01 X-103.7536 Y-13.7752
G01 X-103.8647 Y-13.6076
G01 X-103.9419 Y-13.4231
G01 X-103.9708 Y-13.3114
G01 X-103.9853 Y-13.2166
G01 X-103.9915 Y-13.0889
G01 X-103.9711 Y-12.8899
G01 X-103.9454 Y-12.7874
G01 X-103.9053 Y-12.6777
G01 X-103.8642 Y-12.5916
G01 X-103.8050 Y-12.4942
G01 X-103.7401 Y-12.4085
G01 X-103.6421 Y-12.3071
G01 X-103.6421 Y-10.3862
G01 X-106.9058 Y-7.1224
G01 X-107.0993 Y-7.1222
G01 X-107.2089 Y-7.1071
G01 X-107.3271 Y-7.0783
G01 X-107.4208 Y-7.0450
G01 X-107.5318 Y-6.9934
G01 X-107.6252 Y-6.9374
G01 X-107.7151 Y-6.8708
G01 X-107.7968 Y-6.7968
G01 X-107.8710 Y-6.7148
G01 X-107.9369 Y-6.6260
G01 X-108.0365 Y-6.4414
G01 X-108.0781 Y-6.3277
G01 X-108.1027 Y-6.2307
G01 X-108.1222 Y-6.0993
G00 X-108.1222 Y-6.0993
G01 F60.00
G01 Z-0.0750
G01 F120.00
G01 X-108.1027 Y-6.2307
G01 X-108.0781 Y-6.3277
G01 X-108.0365 Y-6.4414
G01 X-107.9369 Y-6.6260
G01 X-107.8710 Y-6.7148
G01 X-107.7968 Y-6.7968
G01 X-107.7151 Y-6.8708
G01 X-107.6252 Y-6.9374
G01 X-107.5318 Y-6.9934
G01 X-107.4208 Y-7.0450
G01 X-107.3271 Y-7.0783
G01 X-107.2089 Y-7.1071
G01 X-107.0993 Y-7.1222
G01 X-106.9058 Y-7.1224
G01 X-103.6421 Y-10.3862
G01 X-103.6421 Y-12.3071
G01 X-103.7401 Y-12.4085
G01 X-103.8050 Y-12.4942
G01 X-103.8642 Y-12.5916
G01 X-103.9053 Y-12.6777
G01 X-103.9454 Y-12.7874
G01 X-103.9711 Y-12.8899
G01 X-103.9915 Y-13.0889
G01 X-103.9853 Y-13.2166
G01 X-103.9708 Y-13.3114
G01 X-103.9419 Y-13.4231
G01 X-103.8647 Y-13.6076
G01 X-103.7536 Y-13.7752
G01 X-103.6764 Y-13.8614
G01 X-103.5981 Y-13.9324
G01 X-103.5125 Y-13.9958
G01 X-103.4234 Y-14.0492
G01 X-103.3271 Y-14.0948
G01 X-103.2276 Y-14.1304
G01 X-103.1251 Y-14.1561
G01 X-103.0205 Y-14.1716
G01 X-102.9150 Y-14.1768
G01 X-102.8083 Y-14.1715
G01 X-102.7067 Y-14.1565
G01 X-102.6019 Y-14.1303
G01 X-102.5032 Y-14.0949
G01 X-102.4074 Y-14.0497
G01 X-102.2400 Y-13.9388
G01 X-102.1536 Y-13.8614
G01 X-102.0758 Y-13.7743
G01 X-102.0137 Y-13.6888
G01 X-101.9247 Y-13.5223
G01 X-101.8846 Y-13.4126
G01 X-101.8592 Y-13.3114
G01 X-101.8434 Y-13.2055
G01 X-101.8385 Y-13.0889
G01 X-101.8592 Y-12.8886
G01 X-101.8847 Y-12.7869
G01 X-101.9247 Y-12.6777
G01 X-101.9653 Y-12.5924
G01 X-102.0261 Y-12.4927
G01 X-102.0899 Y-12.4085
G01 X-102.1879 Y-12.3071
G01 X-102.1908 Y-10.0224
G01 X-102.2044 Y-9.9323
G01 X-102.2432 Y-9.8070
G01 X-102.2793 Y-9.7326
G01 X-102.3461 Y-9.6325
G01 X-105.8776 Y-6.0942
G01 X-105.8779 Y-5.8982
G01 X-105.8951 Y-5.7788
G01 X-105.9252 Y-5.6623
G01 X-106.0012 Y-5.4788
G01 X-106.0631 Y-5.3740
G01 X-106.1362 Y-5.2767
G01 X-106.2767 Y-5.1362
G01 X-106.3834 Y-5.0571
G01 X-106.5603 Y-4.9627
G01 X-106.6729 Y-4.9217
G01 X-106.8785 Y-4.8800
G01 X-107.0000 Y-4.8732
G01 X-107.2089 Y-4.8929
G01 X-107.3277 Y-4.9219
G01 X-107.4414 Y-4.9635
G01 X-107.6166 Y-5.0571
G01 X-107.7148 Y-5.1290
G01 X-107.8044 Y-5.2113
G01 X-107.9316 Y-5.3664
G01 X-107.9988 Y-5.4788
G01 X-108.0748 Y-5.6623
G01 X-108.1051 Y-5.7802
G01 X-108.1222 Y-5.9007
G01 X-108.1222 Y-6.0993
G00 X-108.1222 Y-6.0993
G01 F60.00
G01 Z-0.1000
G01 F120.00
G01 X-108.1222 Y-5.9007
G01 X-108.1051 Y-5.7802
G01 X-108.0748 Y-5.6623
G01 X-107.9988 Y-5.4788
G01 X-107.9316 Y-5.3664
G01 X-107.8044 Y-5.2113
G01 X-107.7148 Y-5.1290
G01 X-107.6166 Y-5.0571
G01 X-107.4414 Y-4.9635
G01 X-107.3277 Y-4.9219
G01 X-107.2089 Y-4.8929
G01 X-107.0000 Y-4.8732
G01 X-106.8785 Y-4.8800
G01 X-106.6729 Y-4.9217
G01 X-106.5603 Y-4.9627
G01 X-106.3834 Y-5.0571
G01 X-106.2767 Y-5.1362
G01 X-106.1362 Y-5.2767
G01 X-106.0631 Y-5.3740
G01 X-106.0012 Y-5.4788
G01 X-105.9252 Y-5.6623
G01 X-105.8951 Y-5.7788
G01 X-105.8779 Y-5.8982
G01 X-105.8776 Y-6.0942
G01 X-102.3461 Y-9.6325
G01 X-102.2793 Y-9.7326
G01 X-102.2432 Y-9.8070
G01 X-102.2044 Y-9.9323
G01 X-102.1908 Y-10.0224
G01 X-102.1879 Y-12.3071
G01 X-102.0899 Y-12.4085
G01 X-102.0261 Y-12.4927
G01 X-101.9653 Y-12.5924
G01 X-101.9247 Y-12.6777
G01 X-101.8847 Y-12.7869
G01 X-101.8592 Y-12.8886
G01 X-101.8385 Y-13.0889
G01 X-101.8434 Y-13.2055
G01 X-101.8592 Y-13.3114
G01 X-101.8846 Y-13.4126
G01 X-101.9247 Y-13.5223
G01 X-102.0137 Y-13.6888
G01 X-102.0758 Y-13.7743
G01 X-102.1536 Y-13.8614
G01 X-102.2400 Y-13.9388
G01 X-102.4074 Y-14.0497
G01 X-102.5032 Y-14.0949
G01 X-102.6019 Y-14.1303
G01 X-102.7067 Y-14.1565
G01 X-102.8083 Y-14.1715
G01 X-102.9150 Y-14.1768
G01 X-103.0205 Y-14.1716
G01 X-103.1251 Y-14.1561
G01 X-103.2276 Y-14.1304
G01 X-103.3271 Y-14.0948
G01 X-103.4234 Y-14.0492
G01 X-103.5125 Y-13.9958
G01 X-103.5981 Y-13.9324
G01 X-103.6764 Y-13.8614
G01 X-103.7536 Y-13.7752
G01 X-103.8647 Y-13.6076
G01 X-103.9419 Y-13.4231
G01 X-103.9708 Y-13.3114
G01 X-103.9853 Y-13.2166
G01 X-103.9915 Y-13.0889
G01 X-103.9711 Y-12.8899
G01 X-103.9454 Y-12.7874
G01 X-103.9053 Y-12.6777
G01 X-103.8642 Y-12.5916
G01 X-103.8050 Y-12.4942
G01 X-103.7401 Y-12.4085
G01 X-103.6421 Y-12.3071
G01 X-103.6421 Y-10.3862
G01 X-106.9058 Y-7.1224
G01 X-107.0993 Y-7.1222
G01 X-107.2089 Y-7.1071
G01 X-107.3271 Y-7.0783
G01 X-107.4208 Y-7.0450
G01 X-107.5318 Y-6.9934
G01 X-107.6252 Y-6.9374
G01 X-107.7151 Y-6.8708
G01 X-107.7968 Y-6.7968
G01 X-107.8710 Y-6.7148
G01 X-107.9369 Y-6.6260
G01 X-108.0365 Y-6.4414
G01 X-108.0781 Y-6.3277
G01 X-108.1027 Y-6.2307
G01 X-108.1222 Y-6.0993
G00 Z2.0000
(Block-name: block)
(Block-expand: 0)
(Block-enable: 1)
G00 X-112.8924 Y-13.1944
G01 F60.00
G01 Z-0.0250
G01 F120.00
G01 X-112.8758 Y-13.3114
G01 X-112.8503 Y-13.4131
G01 X-112.8149 Y-13.5118
G01 X-112.7697 Y-13.6076
G01 X-112.7153 Y-13.6982
G01 X-112.6520 Y-13.7835
G01 X-112.5171 Y-13.9201
G01 X-112.5171 Y-19.4750
G01 X-112.5906 Y-19.5574
G01 X-112.6901 Y-19.7063
G01 X-112.7386 Y-19.8071
G01 X-112.7726 Y-19.9019
G01 X-112.7971 Y-19.9997
G01 X-112.8127 Y-20.1105
G01 X-112.8165 Y-20.2111
G01 X-112.7990 Y-20.3894
G01 X-112.7724 Y-20.4986
G01 X-112.7387 Y-20.5927
G01 X-112.6438 Y-20.7705
G01 X-112.5161 Y-20.9261
G01 X-112.3605 Y-21.0538
G01 X-112.1829 Y-21.1486
G01 X-111.9903 Y-21.2071
G01 X-111.7900 Y-21.2268
G01 X-111.6006 Y-21.2090
G01 X-111.4814 Y-21.1791
G01 X-111.3060 Y-21.1056
G01 X-111.1474 Y-21.0006
G01 X-111.0563 Y-20.9180
G01 X-110.9362 Y-20.7705
G01 X-110.8459 Y-20.6031
G01 X-110.8044 Y-20.4873
G01 X-110.7681 Y-20.3006
G01 X-110.7632 Y-20.2000
G01 X-110.7683 Y-20.0982
G01 X-110.7827 Y-20.0009
G01 X-110.8109 Y-19.8914
G01 X-110.8794 Y-19.7259
G01 X-110.9303 Y-19.6389
G01 X-110.9963 Y-19.5486
G01 X-111.0629 Y-19.4750
G01 X-111.0629 Y-13.8656
G01 X-110.9876 Y-13.7831
G01 X-110.9187 Y-13.6888
G01 X-110.8297 Y-13.5223
G01 X-110.7896 Y-13.4126
G01 X-110.7642 Y-13.3114
G01 X-110.7476 Y-13.1944
G01 X-110.7476 Y-13.0056
G01 X-110.7624 Y-12.8981
G01 X-110.7897 Y-12.7869
G01 X-110.8251 Y-12.6882
G01 X-110.8703 Y-12.5924
G01 X-110.9247 Y-12.5018
G01 X-110.9880 Y-12.4165
G01 X-111.0586 Y-12.3386
G01 X-111.2127 Y-12.2111
G01 X-111.3223 Y-12.1453
G01 X-111.4079 Y-12.1052
G01 X-111.5182 Y-12.0666
G01 X-111.7145 Y-12.0284
G01 X-111.8200 Y-12.0232
G01 X-111.9366 Y-12.0297
G01 X-112.1331 Y-12.0697
G01 X-112.2318 Y-12.1051
G01 X-112.3276 Y-12.1503
G01 X-112.4182 Y-12.2047
G01 X-112.5034 Y-12.2679
G01 X-112.5814 Y-12.3386
G01 X-112.6524 Y-12.4169
G01 X-112.7158 Y-12.5025
G01 X-112.7692 Y-12.5916
G01 X-112.8148 Y-12.6879
G01 X-112.8504 Y-12.7874
G01 X-112.8761 Y-12.8899
G01 X-112.8916 Y-12.9945
G01 X-112.8924 Y-13.1944
G00 X-112.8924 Y-13.1944
G01 F60.00
G01 Z-0.0500
G01 F120.00
G01 X-112.8916 Y-12.9945
G01 X-112.8761 Y-12.8899
G01 X-112.8504 Y-12.7874
G01 X-112.8148 Y-12.6879
G01 X-112.7692 Y-12.5916
G01 X-112.7158 Y-12.5025
G01 X-112.6524 Y-12.4169
G01 X-112.5814 Y-12.3386
G01 X-112.5034 Y-12.2679
G01 X-112.4182 Y-12.2047
G01 X-112.3276 Y-12.1503
G01 X-112.2318 Y-12.1051
G01 X-112.1331 Y-12.0697
G01 X-111.9366 Y-12.0297
G01 X-111.8200 Y-12.0232
G01 X-111.7145 Y-12.0284
G01 X-111.5182 Y-12.0666
G01 X-111.4079 Y-12.1052
G01 X-111.3223 Y-12.1453
G01 X-111.2127 Y-12.2111
G01 X-111.0586 Y-12.3386
G01 X-110.9880 Y-12.4165
G01 X-110.9247 Y-12.5018
G01 X-110.8703 Y-12.5924
G01 X-110.8251 Y-12.6882
G01 X-110.7897 Y-12.7869
G01 X-110.7624 Y-12.8981
G01 X-110.7476 Y-13.0056
G01 X-110.7476 Y-13.1944
G01 X-110.7642 Y-13.3114
G01 X-110.7896 Y-13.4126
G01 X-110.8297 Y-13.5223
G01 X-110.9187 Y-13.6888
G01 X-110.9876 Y-13.7831
G01 X-111.0629 Y-13.8656
G01 X-111.0629 Y-19.4750
G01 X-110.9963 Y-19.5486
G01 X-110.9303 Y-19.6389
G01 X-110.8794 Y-19.7259
G01 X-110.8109 Y-19.8914
G01 X-110.7827 Y-20.0009
G01 X-110.7683 Y-20.0982
G01 X-110.7632 Y-20.2000
G01 X-110.7681 Y-20.3006
G01 X-110.8044 Y-20.4873
G01 X-110.8459 Y-20.6031
G01 X-110.9362 Y-20.7705
G01 X-111.0563 Y-20.9180
G01 X-111.1474 Y-21.0006
G01 X-111.3060 Y-21.1056
G01 X-111.4814 Y-21.1791
G01 X-111.6006 Y-21.2090
G01 X-111.7900 Y-21.2268
G01 X-111.9903 Y-21.2071
G01 X-112.1829 Y-21.1486
G01 X-112.3605 Y-21.0538
G01 X-112.5161 Y-20.9261
G01 X-112.6438 Y-20.7705
G01 X-112.7387 Y-20.5927
G01 X-112.7724 Y-20.4986
G01 X-112.7990 Y-20.3894
G01 X-112.8165 Y-20.2111
G01 X-112.8127 Y-20.1105
G01 X-112.7971 Y-19.9997
G01 X-112.7726 Y-19.9019
G01 X-112.7386 Y-19.8071
G01 X-112.6901 Y-19.7063
G01 X-112.5906 Y-19.5574
G01 X-112.5171 Y-19.4750
G01 X-112.5171 Y-13.9201
G01 X-112.6520 Y-13.7835
G01 X-112.7153 Y-13.6982
G01 X-112.7697 Y-13.6076
G01 X-112.8149 Y-13.5118
G01 X-112.8503 Y-13.4131
G01 X-112.8758 Y-13.3114
G01 X-112.8924 Y-13.1944
G00 X-112.8924 Y-13.1944
G01 F60.00
G01 Z-0.0750
G01 F120.00
G01 X-112.8758 Y-13.3114
G01 X-112.8503 Y-13.4131
G01 X-112.8149 Y-13.5118
G01 X-112.7697 Y-13.6076
G01 X-112.7153 Y-13.6982
G01 X-112.6520 Y-13.7835
G01 X-112.5171 Y-13.9201
G01 X-112.5171 Y-19.4750
G01 X-112.5906 Y-19.5574
G01 X-112.6901 Y-19.7063
G01 X-112.7386 Y-19.8071
G01 X-112.7726 Y-19.9019
G01 X-112.7971 Y-19.9997
G01 X-112.8127 Y-20.1105
G01 X-112.8165 Y-20.2111
G01 X-112.7990 Y-20.3894
G01 X-112.7724 Y-20.4986
G01 X-112.7387 Y-20.5927
G01 X-112.6438 Y-20.7705
G01 X-112.5161 Y-20.9261
G01 X-112.3605 Y-21.0538
G01 X-112.1829 Y-21.1486
G01 X-111.9903 Y-21.2071
G01 X-111.7900 Y-21.2268
G01 X-111.6006 Y-21.2090
G01 X-111.4814 Y-21.1791
G01 X-111.3060 Y-21.1056
G01 X-111.1474 Y-21.0006
G01 X-111.0563 Y-20.9180
G01 X-110.9362 Y-20.7705
G01 X-110.8459 Y-20.6031
G01 X-110.8044 Y-20.4873
G01 X-110.7681 Y-20.3006
G01 X-110.7632 Y-20.2000
G01 X-110.7683 Y-20.0982
G01 X-110.7827 Y-20.0009
G01 X-110.8109 Y-19.8914
G01 X-110.8794 Y-19.7259
G01 X-110.9303 Y-19.6389
G01 X-110.9963 Y-19.5486
G01 X-111.0629 Y-19.4750
G01 X-111.0629 Y-13.8656
G01 X-110.9876 Y-13.7831
G01 X-110.9187 Y-13.6888
G01 X-110.8297 Y-13.5223
G01 X-110.7896 Y-13.4126
G01 X-110.7642 Y-13.3114
G01 X-110.7476 Y-13.1944
G01 X-110.7476 Y-13.0056
G01 X-110.7624 Y-12.8981
G01 X-110.7897 Y-12.7869
G01 X-110.8251 Y-12.6882
G01 X-110.8703 Y-12.5924
G01 X-110.9247 Y-12.5018
G01 X-110.9880 Y-12.4165
G01 X-111.0586 Y-12.3386
G01 X-111.2127 Y-12.2111
G01 X-111.3223 Y-12.1453
G01 X-111.4079 Y-12.1052
G01 X-111.5182 Y-12.0666
G01 X-111.7145 Y-12.0284
G01 X-111.8200 Y-12.0232
G01 X-111.9366 Y-12.0297
G01 X-112.1331 Y-12.0697
G01 X-112.2318 Y-12.1051
G01 X-112.3276 Y-12.1503
G01 X-112.4182 Y-12.2047
G01 X-112.5034 Y-12.2679
G01 X-112.5814 Y-12.3386
G01 X-112.6524 Y-12.4169
G01 X-112.7158 Y-12.5025
G01 X-112.7692 Y-12.5916
G01 X-112.8148 Y-12.6879
G01 X-112.8504 Y-12.7874
G01 X-112.8761 Y-12.8899
G01 X-112.8916 Y-12.9945
G01 X-112.8924 Y-13.1944
G00 X-112.8924 Y-13.1944
G01 F60.00
G01 Z-0.1000
G01 F120.00
G01 X-112.8916 Y-12.9945
G01 X-112.8761 Y-12.8899
G01 X-112.8504 Y-12.7874
G01 X-112.8148 Y-12.6879
G01 X-112.7692 Y-12.5916
G01 X-112.7158 Y-12.5025
G01 X-112.6524 Y-12.4169
G01 X-112.5814 Y-12.3386
G01 X-112.5034 Y-12.2679
G01 X-112.4182 Y-12.2047
G01 X-112.3276 Y-12.1503
G01 X-112.2318 Y-12.1051
G01 X-112.1331 Y-12.0697
G01 X-111.9366 Y-12.0297
G01 X-111.8200 Y-12.0232
G01 X-111.7145 Y-12.0284
G01 X-111.5182 Y-12.0666
G01 X-111.4079 Y-12.1052
G01 X-111.3223 Y-12.1453
G01 X-111.2127 Y-12.2111
G01 X-111.0586 Y-12.3386
G01 X-110.9880 Y-12.4165
G01 X-110.9247 Y-12.5018
G01 X-110.8703 Y-12.5924
G01 X-110.8251 Y-12.6882
G01 X-110.7897 Y-12.7869
G01 X-110.7624 Y-12.8981
G01 X-110.7476 Y-13.0056
G01 X-110.7476 Y-13.1944
G01 X-110.7642 Y-13.3114
G01 X-110.7896 Y-13.4126
G01 X-110.8297 Y-13.5223
G01 X-110.9187 Y-13.6888
G01 X-110.9876 Y-13.7831
G01 X-111.0629 Y-13.8656
G01 X-111.0629 Y-19.4750
G01 X-110.9963 Y-19.5486
G01 X-110.9303 Y-19.6389
G01 X-110.8794 Y-19.7259
G01 X-110.8109 Y-19.8914
G01 X-110.7827 Y-20.0009
G01 X-110.7683 Y-20.0982
G01 X-110.7632 Y-20.2000
G01 X-110.7681 Y-20.3006
G01 X-110.8044 Y-20.4873
G01 X-110.8459 Y-20.6031
G01 X-110.9362 Y-20.7705
G01 X-111.0563 Y-20.9180
G01 X-111.1474 Y-21.0006
G01 X-111.3060 Y-21.1056
G01 X-111.4814 Y-21.1791
G01 X-111.6006 Y-21.2090
G01 X-111.7900 Y-21.2268
G01 X-111.9903 Y-21.2071
G01 X-112.1829 Y-21.1486
G01 X-112.3605 Y-21.0538
G01 X-112.5161 Y-20.9261
G01 X-112.6438 Y-20.7705
G01 X-112.7387 Y-20.5927
G01 X-112.7724 Y-20.4986
G01 X-112.7990 Y-20.3894
G01 X-112.8165 Y-20.2111
G01 X-112.8127 Y-20.1105
G01 X-112.7971 Y-19.9997
G01 X-112.7726 Y-19.9019
G01 X-112.7386 Y-19.8071
G01 X-112.6901 Y-19.7063
G01 X-112.5906 Y-19.5574
G01 X-112.5171 Y-19.4750
G01 X-112.5171 Y-13.9201
G01 X-112.6520 Y-13.7835
G01 X-112.7153 Y-13.6982
G01 X-112.7697 Y-13.6076
G01 X-112.8149 Y-13.5118
G01 X-112.8503 Y-13.4131
G01 X-112.8758 Y-13.3114
G01 X-112.8924 Y-13.1944
G00 Z2.0000
(Block-name: block)
(Block-expand: 0)
(Block-enable: 1)
G00 X-115.4324 Y-13.1944
G01 F60.00
G01 Z-0.0250
G01 F120.00
G01 X-115.4137 Y-13.3209
G01 X-115.3549 Y-13.5118
G01 X-115.2613 Y-13.6888
G01 X-115.1851 Y-13.7915
G01 X-115.0431 Y-13.9324
G01 X-114.8773 Y-14.0442
G01 X-114.7617 Y-14.0988
G01 X-114.5701 Y-14.1561
G01 X-114.3711 Y-14.1765
G01 X-114.2434 Y-14.1703
G01 X-114.0469 Y-14.1303
G01 X-113.8623 Y-14.0547
G01 X-113.7527 Y-13.9889
G01 X-113.5986 Y-13.8614
G01 X-113.4700 Y-13.7058
G01 X-113.4053 Y-13.5977
G01 X-113.3296 Y-13.4126
G01 X-113.2897 Y-13.2166
G01 X-113.2835 Y-13.0889
G01 X-113.3024 Y-12.8981
G01 X-113.3331 Y-12.7769
G01 X-113.4103 Y-12.5924
G01 X-113.5214 Y-12.4248
G01 X-113.6329 Y-12.3071
G01 X-113.6329 Y-8.6612
G01 X-112.0942 Y-7.1224
G01 X-111.9007 Y-7.1222
G01 X-111.7820 Y-7.1055
G01 X-111.6623 Y-7.0748
G01 X-111.4688 Y-6.9937
G01 X-111.3649 Y-6.9305
G01 X-111.2032 Y-6.7968
G01 X-111.1221 Y-6.7061
G01 X-111.0117 Y-6.5409
G01 X-110.9586 Y-6.4304
G01 X-110.9217 Y-6.3271
G01 X-110.8951 Y-6.2212
G01 X-110.8786 Y-6.1104
G01 X-110.8732 Y-6.0000
G01 X-110.8787 Y-5.8884
G01 X-110.8951 Y-5.7788
G01 X-110.9219 Y-5.6723
G01 X-110.9590 Y-5.5688
G01 X-111.0063 Y-5.4688
G01 X-111.0631 Y-5.3740
G01 X-111.1290 Y-5.2852
G01 X-111.2032 Y-5.2032
G01 X-111.2849 Y-5.1292
G01 X-111.3748 Y-5.0626
G01 X-111.4788 Y-5.0012
G01 X-111.6623 Y-4.9252
G01 X-111.7802 Y-4.8949
G01 X-111.9889 Y-4.8735
G01 X-112.1116 Y-4.8787
G01 X-112.3164 Y-4.9188
G01 X-112.4312 Y-4.9590
G01 X-112.6166 Y-5.0571
G01 X-112.7148 Y-5.1290
G01 X-112.8044 Y-5.2113
G01 X-112.9305 Y-5.3649
G01 X-112.9934 Y-5.4682
G01 X-113.0414 Y-5.5696
G01 X-113.0783 Y-5.6729
G01 X-113.1071 Y-5.7911
G01 X-113.1222 Y-5.9007
G01 X-113.1224 Y-6.0942
G01 X-114.8741 Y-7.8459
G01 X-114.9581 Y-7.9470
G01 X-115.0062 Y-8.0272
G01 X-115.0357 Y-8.0922
G01 X-115.0706 Y-8.2073
G01 X-115.0871 Y-8.3600
G01 X-115.0871 Y-12.3071
G01 X-115.1851 Y-12.4085
G01 X-115.2500 Y-12.4942
G01 X-115.3092 Y-12.5916
G01 X-115.3548 Y-12.6879
G01 X-115.3904 Y-12.7874
G01 X-115.4180 Y-12.9009
G01 X-115.4365 Y-13.0889
G01 X-115.4324 Y-13.1944
G00 X-115.4324 Y-13.1944
G01 F60.00
G01 Z-0.0500
G01 F120.00
G01 X-115.4365 Y-13.0889
G01 X-115.4180 Y-12.9009
G01 X-115.3904 Y-12.7874
G01 X-115.3548 Y-12.6879
G01 X-115.3092 Y-12.5916
G01 X-115.2500 Y-12.4942
G01 X-115.1851 Y-12.4085
G01 X-115.0871 Y-12.3071
G01 X-115.0871 Y-8.3600
G01 X-115.0706 Y-8.2073
G01 X-115.0357 Y-8.0922
G01 X-115.0062 Y-8.0272
G01 X-114.9581 Y-7.9470
G01 X-114.8741 Y-7.8459
G01 X-113.1224 Y-6.0942
G01 X-113.1222 Y-5.9007
G01 X-113.1071 Y-5.7911
G01 X-113.0783 Y-5.6729
G01 X-113.0414 Y-5.5696
G01 X-112.9934 Y-5.4682
G01 X-112.9305 Y-5.3649
G01 X-112.8044 Y-5.2113
G01 X-112.7148 Y-5.1290
G01 X-112.6166 Y-5.0571
G01 X-112.4312 Y-4.9590
G01 X-112.3164 Y-4.9188
G01 X-112.1116 Y-4.8787
G01 X-111.9889 Y-4.8735
G01 X-111.7802 Y-4.8949
G01 X-111.6623 Y-4.9252
G01 X-111.4788 Y-5.0012
G01 X-111.3748 Y-5.0626
G01 X-111.2849 Y-5.1292
G01 X-111.2032 Y-5.2032
G01 X-111.1290 Y-5.2852
G01 X-111.0631 Y-5.3740
G01 X-111.0063 Y-5.4688
G01 X-110.9590 Y-5.5688
G01 X-110.9219 Y-5.6723
G01 X-110.8951 Y-5.7788
G01 X-110.8787 Y-5.8884
G01 X-110.8732 Y-6.0000
G01 X-110.8786 Y-6.1104
G01 X-110.8951 Y-6.2212
G01 X-110.9217 Y-6.3271
G01 X-110.9586 Y-6.4304
G01 X-111.0117 Y-6.5409
G01 X-111.1221 Y-6.7061
G01 X-111.2032 Y-6.7968
G01 X-111.3649 Y-6.9305
G01 X-111.4688 Y-6.9937
G01 X-111.6623 Y-7.0748
G01 X-111.7820 Y-7.1055
G01 X-111.9007 Y-7.1222
G01 X-112.0942 Y-7.1224
G01 X-113.6329 Y-8.6612
G01 X-113.6329 Y-12.3071
G01 X-113.5214 Y-12.4248
G01 X-113.4103 Y-12.5924
G01 X-113.3331 Y-12.7769
G01 X-113.3024 Y-12.8981
G01 X-113.2835 Y-13.0889
G01 X-113.2897 Y-13.2166
G01 X-113.3296 Y-13.4126
G01 X-113.4053 Y-13.5977
G01 X-113.4700 Y-13.7058
G01 X-113.5986 Y-13.8614
G01 X-113.7527 Y-13.9889
G01 X-113.8623 Y-14.0547
G01 X-114.0469 Y-14.1303
G01 X-114.2434 Y-14.1703
G01 X-114.3711 Y-14.1765
G01 X-114.5701 Y-14.1561
G01 X-114.7617 Y-14.0988
G01 X-114.8773 Y-14.0442
G01 X-115.0431 Y-13.9324
G01 X-115.1851 Y-13.7915
G01 X-115.2613 Y-13.6888
G01 X-115.3549 Y-13.5118
G01 X-115.4137 Y-13.3209
G01 X-115.4324 Y-13.1944
G00 X-115.4324 Y-13.1944
G01 F60.00
G01 Z-0.0750
G01 F120.00
G01 X-115.4137 Y-13.3209
G01 X-115.3549 Y-13.5118
G01 X-115.2613 Y-13.6888
G01 X-115.1851 Y-13.7915
G01 X-115.0431 Y-13.9324
G01 X-114.8773 Y-14.0442
G01 X-114.7617 Y-14.0988
G01 X-114.5701 Y-14.1561
G01 X-114.3711 Y-14.1765
G01 X-114.2434 Y-14.1703
G01 X-114.0469 Y-14.1303
G01 X-113.8623 Y-14.0547
G01 X-113.7527 Y-13.9889
G01 X-113.5986 Y-13.8614
G01 X-113.4700 Y-13.7058
G01 X-113.4053 Y-13.5977
G01 X-113.3296 Y-13.4126
G01 X-113.2897 Y-13.2166
G01 X-113.2835 Y-13.0889
G01 X-113.3024 Y-12.8981
G01 X-113.3331 Y-12.7769
G01 X-113.4103 Y-12.5924
G01 X-113.5214 Y-12.4248
G01 X-113.6329 Y-12.3071
G01 X-113.6329 Y-8.6612
G01 X-112.0942 Y-7.1224
G01 X-111.9007 Y-7.1222
G01 X-111.7820 Y-7.1055
G01 X-111.6623 Y-7.0748
G01 X-111.4688 Y-6.9937
G01 X-111.3649 Y-6.9305
G01 X-111.2032 Y-6.7968
G01 X-111.1221 Y-6.7061
G01 X-111.0117 Y-6.5409
G01 X-110.9586 Y-6.4304
G01 X-110.9217 Y-6.3271
G01 X-110.8951 Y-6.2212
G01 X-110.8786 Y-6.1104
G01 X-110.8732 Y-6.0000
G01 X-110.8787 Y-5.8884
G01 X-110.8951 Y-5.7788
G01 X-110.9219 Y-5.6723
G01 X-110.9590 Y-5.5688
G01 X-111.0063 Y-5.4688
G01 X-111.0631 Y-5.3740
G01 X-111.1290 Y-5.2852
G01 X-111.2032 Y-5.2032
G01 X-111.2849 Y-5.1292
G01 X-111.3748 Y-5.0626
G01 X-111.4788 Y-5.0012
G01 X-111.6623 Y-4.9252
G01 X-111.7802 Y-4.8949
G01 X-111.9889 Y-4.8735
G01 X-112.1116 Y-4.8787
G01 X-112.3164 Y-4.9188
G01 X-112.4312 Y-4.9590
G01 X-112.6166 Y-5.0571
G01 X-112.7148 Y-5.1290
G01 X-112.8044 Y-5.2113
G01 X-112.9305 Y-5.3649
G01 X-112.9934 Y-5.4682
G01 X-113.0414 Y-5.5696
G01 X-113.0783 Y-5.6729
G01 X-113.1071 Y-5.7911
G01 X-113.1222 Y-5.9007
G01 X-113.1224 Y-6.0942
G01 X-114.8741 Y-7.8459
G01 X-114.9581 Y-7.9470
G01 X-115.0062 Y-8.0272
G01 X-115.0357 Y-8.0922
G01 X-115.0706 Y-8.2073
G01 X-115.0871 Y-8.3600
G01 X-115.0871 Y-12.3071
G01 X-115.1851 Y-12.4085
G01 X-115.2500 Y-12.4942
G01 X-115.3092 Y-12.5916
G01 X-115.3548 Y-12.6879
G01 X-115.3904 Y-12.7874
G01 X-115.4180 Y-12.9009
G01 X-115.4365 Y-13.0889
G01 X-115.4324 Y-13.1944
G00 X-115.4324 Y-13.1944
G01 F60.00
G01 Z-0.1000
G01 F120.00
G01 X-115.4365 Y-13.0889
G01 X-115.4180 Y-12.9009
G01 X-115.3904 Y-12.7874
G01 X-115.3548 Y-12.6879
G01 X-115.3092 Y-12.5916
G01 X-115.2500 Y-12.4942
G01 X-115.1851 Y-12.4085
G01 X-115.0871 Y-12.3071
G01 X-115.0871 Y-8.3600
G01 X-115.0706 Y-8.2073
G01 X-115.0357 Y-8.0922
G01 X-115.0062 Y-8.0272
G01 X-114.9581 Y-7.9470
G01 X-114.8741 Y-7.8459
G01 X-113.1224 Y-6.0942
G01 X-113.1222 Y-5.9007
G01 X-113.1071 Y-5.7911
G01 X-113.0783 Y-5.6729
G01 X-113.0414 Y-5.5696
G01 X-112.9934 Y-5.4682
G01 X-112.9305 Y-5.3649
G01 X-112.8044 Y-5.2113
G01 X-112.7148 Y-5.1290
G01 X-112.6166 Y-5.0571
G01 X-112.4312 Y-4.9590
G01 X-112.3164 Y-4.9188
G01 X-112.1116 Y-4.8787
G01 X-111.9889 Y-4.8735
G01 X-111.7802 Y-4.8949
G01 X-111.6623 Y-4.9252
G01 X-111.4788 Y-5.0012
G01 X-111.3748 Y-5.0626
G01 X-111.2849 Y-5.1292
G01 X-111.2032 Y-5.2032
G01 X-111.1290 Y-5.2852
G01 X-111.0631 Y-5.3740
G01 X-111.0063 Y-5.4688
G01 X-110.9590 Y-5.5688
G01 X-110.9219 Y-5.6723
G01 X-110.8951 Y-5.7788
G01 X-110.8787 Y-5.8884
G01 X-110.8732 Y-6.0000
G01 X-110.8786 Y-6.1104
G01 X-110.8951 Y-6.2212
G01 X-110.9217 Y-6.3271
G01 X-110.9586 Y-6.4304
G01 X-111.0117 Y-6.5409
G01 X-111.1221 Y-6.7061
G01 X-111.2032 Y-6.7968
G01 X-111.3649 Y-6.9305
G01 X-111.4688 Y-6.9937
G01 X-111.6623 Y-7.0748
G01 X-111.7820 Y-7.1055
G01 X-111.9007 Y-7.1222
G01 X-112.0942 Y-7.1224
G01 X-113.6329 Y-8.6612
G01 X-113.6329 Y-12.3071
G01 X-113.5214 Y-12.4248
G01 X-113.4103 Y-12.5924
G01 X-113.3331 Y-12.7769
G01 X-113.3024 Y-12.8981
G01 X-113.2835 Y-13.0889
G01 X-113.2897 Y-13.2166
G01 X-113.3296 Y-13.4126
G01 X-113.4053 Y-13.5977
G01 X-113.4700 Y-13.7058
G01 X-113.5986 Y-13.8614
G01 X-113.7527 Y-13.9889
G01 X-113.8623 Y-14.0547
G01 X-114.0469 Y-14.1303
G01 X-114.2434 Y-14.1703
G01 X-114.3711 Y-14.1765
G01 X-114.5701 Y-14.1561
G01 X-114.7617 Y-14.0988
G01 X-114.8773 Y-14.0442
G01 X-115.0431 Y-13.9324
G01 X-115.1851 Y-13.7915
G01 X-115.2613 Y-13.6888
G01 X-115.3549 Y-13.5118
G01 X-115.4137 Y-13.3209
G01 X-115.4324 Y-13.1944
G00 Z2.0000
(Block-name: block)
(Block-expand: 0)
(Block-enable: 1)
G00 X-118.4108 Y-12.4997
G01 F60.00
G01 Z-0.0250
G01 F120.00
G01 X-118.2490 Y-12.5167
G01 X-118.2489 Y-13.9567
G01 X-118.2293 Y-14.0884
G01 X-118.1813 Y-14.2007
G01 X-118.0980 Y-14.3075
G01 X-117.9911 Y-14.3868
G01 X-117.8692 Y-14.4344
G01 X-117.8692 Y-19.3702
G01 X-117.9537 Y-19.4839
G01 X-118.0266 Y-19.6095
G01 X-118.1053 Y-19.7997
G01 X-118.1400 Y-19.9285
G01 X-118.1747 Y-19.7997
G01 X-118.2534 Y-19.6095
G01 X-118.3263 Y-19.4839
G01 X-118.4108 Y-19.3701
G01 X-118.4108 Y-12.4997
G00 X-118.4108 Y-12.4997
G01 F60.00
G01 Z-0.0500
G01 F120.00
G01 X-118.4108 Y-19.3701
G01 X-118.3263 Y-19.4839
G01 X-118.2534 Y-19.6095
G01 X-118.1747 Y-19.7997
G01 X-118.1400 Y-19.9285
G01 X-118.1053 Y-19.7997
G01 X-118.0266 Y-19.6095
G01 X-117.9537 Y-19.4839
G01 X-117.8692 Y-19.3702
G01 X-117.8692 Y-14.4344
G01 X-117.9911 Y-14.3868
G01 X-118.0980 Y-14.3075
G01 X-118.1813 Y-14.2007
G01 X-118.2293 Y-14.0884
G01 X-118.2489 Y-13.9567
G01 X-118.2490 Y-12.5167
G01 X-118.4108 Y-12.4997
G00 X-118.4108 Y-12.4997
G01 F60.00
G01 Z-0.0750
G01 F120.00
G01 X-118.2490 Y-12.5167
G01 X-118.2489 Y-13.9567
G01 X-118.2293 Y-14.0884
G01 X-118.1813 Y-14.2007
G01 X-118.0980 Y-14.3075
G01 X-117.9911 Y-14.3868
G01 X-117.8692 Y-14.4344
G01 X-117.8692 Y-19.3702
G01 X-117.9537 Y-19.4839
G01 X-118.0266 Y-19.6095
G01 X-118.1053 Y-19.7997
G01 X-118.1400 Y-19.9285
G01 X-118.1747 Y-19.7997
G01 X-118.2534 Y-19.6095
G01 X-118.3263 Y-19.4839
G01 X-118.4108 Y-19.3701
G01 X-118.4108 Y-12.4997
G00 X-118.4108 Y-12.4997
G01 F60.00
G01 Z-0.1000
G01 F120.00
G01 X-118.4108 Y-19.3701
G01 X-118.3263 Y-19.4839
G01 X-118.2534 Y-19.6095
G01 X-118.1747 Y-19.7997
G01 X-118.1400 Y-19.9285
G01 X-118.1053 Y-19.7997
G01 X-118.0266 Y-19.6095
G01 X-117.9537 Y-19.4839
G01 X-117.8692 Y-19.3702
G01 X-117.8692 Y-14.4344
G01 X-117.9911 Y-14.3868
G01 X-118.0980 Y-14.3075
G01 X-118.1813 Y-14.2007
G01 X-118.2293 Y-14.0884
G01 X-118.2489 Y-13.9567
G01 X-118.2490 Y-12.5167
G01 X-118.4108 Y-12.4997
G00 Z2.0000
(Block-name: block)
(Block-expand: 0)
(Block-enable: 1)
G00 X-117.8926 Y-20.2895
G01 F60.00
G01 Z-0.0250
G01 F120.00
G01 X-117.8746 Y-20.4112
G01 X-117.8524 Y-20.4986
G01 X-117.8141 Y-20.6031
G01 X-117.7238 Y-20.7705
G01 X-117.5961 Y-20.9261
G01 X-117.4405 Y-21.0538
G01 X-117.2731 Y-21.1441
G01 X-117.1681 Y-21.1826
G01 X-117.0812 Y-21.2046
G01 X-116.9595 Y-21.2227
G01 X-116.7682 Y-21.2217
G01 X-116.5714 Y-21.1824
G01 X-116.3860 Y-21.1056
G01 X-116.2274 Y-21.0006
G01 X-116.1363 Y-20.9180
G01 X-116.0758 Y-20.8508
G01 X-116.0103 Y-20.7611
G01 X-115.9214 Y-20.5929
G01 X-115.8654 Y-20.4112
G01 X-115.8481 Y-20.3006
G01 X-115.8435 Y-20.1889
G01 X-115.8610 Y-20.0106
G01 X-115.8876 Y-19.9014
G01 X-115.9213 Y-19.8073
G01 X-115.9699 Y-19.7063
G01 X-116.0694 Y-19.5574
G01 X-116.1429 Y-19.4750
G01 X-116.1429 Y-14.1768
G01 X-116.0058 Y-14.1724
G01 X-115.9530 Y-14.1550
G01 X-115.9149 Y-14.1322
G01 X-115.8747 Y-14.0939
G01 X-115.8500 Y-14.0569
G01 X-115.8300 Y-14.0051
G01 X-115.8232 Y-13.9500
G01 X-115.8243 Y-12.2278
G01 X-115.8450 Y-12.1530
G01 X-115.8820 Y-12.0977
G01 X-115.9334 Y-12.0555
G01 X-115.9949 Y-12.0300
G01 X-116.0500 Y-12.0232
G01 X-117.7722 Y-12.0243
G01 X-117.8368 Y-12.0405
G01 X-117.8939 Y-12.0747
G01 X-117.9445 Y-12.1334
G01 X-117.9700 Y-12.1949
G01 X-117.9768 Y-12.2500
G01 X-117.9724 Y-13.9942
G01 X-117.9595 Y-14.0368
G01 X-117.9322 Y-14.0851
G01 X-117.8939 Y-14.1253
G01 X-117.8470 Y-14.1550
G01 X-117.7722 Y-14.1757
G01 X-117.5971 Y-14.1768
G01 X-117.5971 Y-19.4750
G01 X-117.7238 Y-19.6295
G01 X-117.7753 Y-19.7155
G01 X-117.8226 Y-19.8174
G01 X-117.8746 Y-19.9888
G01 X-117.8905 Y-20.0883
G01 X-117.8968 Y-20.2000
G01 X-117.8926 Y-20.2895
G00 X-117.8926 Y-20.2895
G01 F60.00
G01 Z-0.0500
G01 F120.00
G01 X-117.8968 Y-20.2000
G01 X-117.8905 Y-20.0883
G01 X-117.8746 Y-19.9888
G01 X-117.8226 Y-19.8174
G01 X-117.7753 Y-19.7155
G01 X-117.7238 Y-19.6295
G01 X-117.5971 Y-19.4750
G01 X-117.5971 Y-14.1768
G01 X-117.7722 Y-14.1757
G01 X-117.8470 Y-14.1550
G01 X-117.8939 Y-14.1253
G01 X-117.9322 Y-14.0851
G01 X-117.9595 Y-14.0368
G01 X-117.9724 Y-13.9942
G01 X-117.9768 Y-12.2500
G01 X-117.9700 Y-12.1949
G01 X-117.9445 Y-12.1334
G01 X-117.8939 Y-12.0747
G01 X-117.8368 Y-12.0405
G01 X-117.7722 Y-12.0243
G01 X-116.0500 Y-12.0232
G01 X-115.9949 Y-12.0300
G01 X-115.9334 Y-12.0555
G01 X-115.8820 Y-12.0977
G01 X-115.8450 Y-12.1530
G01 X-115.8243 Y-12.2278
G01 X-115.8232 Y-13.9500
G01 X-115.8300 Y-14.0051
G01 X-115.8500 Y-14.0569
G01 X-115.8747 Y-14.0939
G01 X-115.9149 Y-14.1322
G01 X-115.9530 Y-14.1550
G01 X-116.0058 Y-14.1724
G01 X-116.1429 Y-14.1768
G01 X-116.1429 Y-19.4750
G01 X-116.0694 Y-19.5574
G01 X-115.9699 Y-19.7063
G01 X-115.9213 Y-19.8073
G01 X-115.8876 Y-19.9014
G01 X-115.8610 Y-20.0106
G01 X-115.8435 Y-20.1889
G01 X-115.8481 Y-20.3006
G01 X-115.8654 Y-20.4112
G01 X-115.9214 Y-20.5929
G01 X-116.0103 Y-20.7611
G01 X-116.0758 Y-20.8508
G01 X-116.1363 Y-20.9180
G01 X-116.2274 Y-21.0006
G01 X-116.3860 Y-21.1056
G01 X-116.5714 Y-21.1824
G01 X-116.7682 Y-21.2217
G01 X-116.9595 Y-21.2227
G01 X-117.0812 Y-21.2046
G01 X-117.1681 Y-21.1826
G01 X-117.2731 Y-21.1441
G01 X-117.4405 Y-21.0538
G01 X-117.5961 Y-20.9261
G01 X-117.7238 Y-20.7705
G01 X-117.8141 Y-20.6031
G01 X-117.8524 Y-20.4986
G01 X-117.8746 Y-20.4112
G01 X-117.8926 Y-20.2895
G00 X-117.8926 Y-20.2895
G01 F60.00
G01 Z-0.0750
G01 F120.00
G01 X-117.8746 Y-20.4112
G01 X-117.8524 Y-20.4986
G01 X-117.8141 Y-20.6031
G01 X-117.7238 Y-20.7705
G01 X-117.5961 Y-20.9261
G01 X-117.4405 Y-21.0538
G01 X-117.2731 Y-21.1441
G01 X-117.1681 Y-21.1826
G01 X-117.0812 Y-21.2046
G01 X-116.9595 Y-21.2227
G01 X-116.7682 Y-21.2217
G01 X-116.5714 Y-21.1824
G01 X-116.3860 Y-21.1056
G01 X-116.2274 Y-21.0006
G01 X-116.1363 Y-20.9180
G01 X-116.0758 Y-20.8508
G01 X-116.0103 Y-20.7611
G01 X-115.9214 Y-20.5929
G01 X-115.8654 Y-20.4112
G01 X-115.8481 Y-20.3006
G01 X-115.8435 Y-20.1889
G01 X-115.8610 Y-20.0106
G01 X-115.8876 Y-19.9014
G01 X-115.9213 Y-19.8073
G01 X-115.9699 Y-19.7063
G01 X-116.0694 Y-19.5574
G01 X-116.1429 Y-19.4750
G01 X-116.1429 Y-14.1768
G01 X-116.0058 Y-14.1724
G01 X-115.9530 Y-14.1550
G01 X-115.9149 Y-14.1322
G01 X-115.8747 Y-14.0939
G01 X-115.8500 Y-14.0569
G01 X-115.8300 Y-14.0051
G01 X-115.8232 Y-13.9500
G01 X-115.8243 Y-12.2278
G01 X-115.8450 Y-12.1530
G01 X-115.8820 Y-12.0977
G01 X-115.9334 Y-12.0555
G01 X-115.9949 Y-12.0300
G01 X-116.0500 Y-12.0232
G01 X-117.7722 Y-12.0243
G01 X-117.8368 Y-12.0405
G01 X-117.8939 Y-12.0747
G01 X-117.9445 Y-12.1334
G01 X-117.9700 Y-12.1949
G01 X-117.9768 Y-12.2500
G01 X-117.9724 Y-13.9942
G01 X-117.9595 Y-14.0368
G01 X-117.9322 Y-14.0851
G01 X-117.8939 Y-14.1253
G01 X-117.8470 Y-14.1550
G01 X-117.7722 Y-14.1757
G01 X-117.5971 Y-14.1768
G01 X-117.5971 Y-19.4750
G01 X-117.7238 Y-19.6295
G01 X-117.7753 Y-19.7155
G01 X-117.8226 Y-19.8174
G01 X-117.8746 Y-19.9888
G01 X-117.8905 Y-20.0883
G01 X-117.8968 Y-20.2000
G01 X-117.8926 Y-20.2895
G00 X-117.8926 Y-20.2895
G01 F60.00
G01 Z-0.1000
G01 F120.00
G01 X-117.8968 Y-20.2000
G01 X-117.8905 Y-20.0883
G01 X-117.8746 Y-19.9888
G01 X-117.8226 Y-19.8174
G01 X-117.7753 Y-19.7155
G01 X-117.7238 Y-19.6295
G01 X-117.5971 Y-19.4750
G01 X-117.5971 Y-14.1768
G01 X-117.7722 Y-14.1757
G01 X-117.8470 Y-14.1550
G01 X-117.8939 Y-14.1253
G01 X-117.9322 Y-14.0851
G01 X-117.9595 Y-14.0368
G01 X-117.9724 Y-13.9942
G01 X-117.9768 Y-12.2500
G01 X-117.9700 Y-12.1949
G01 X-117.9445 Y-12.1334
G01 X-117.8939 Y-12.0747
G01 X-117.8368 Y-12.0405
G01 X-117.7722 Y-12.0243
G01 X-116.0500 Y-12.0232
G01 X-115.9949 Y-12.0300
G01 X-115.9334 Y-12.0555
G01 X-115.8820 Y-12.0977
G01 X-115.8450 Y-12.1530
G01 X-115.8243 Y-12.2278
G01 X-115.8232 Y-13.9500
G01 X-115.8300 Y-14.0051
G01 X-115.8500 Y-14.0569
G01 X-115.8747 Y-14.0939
G01 X-115.9149 Y-14.1322
G01 X-115.9530 Y-14.1550
G01 X-116.0058 Y-14.1724
G01 X-116.1429 Y-14.1768
G01 X-116.1429 Y-19.4750
G01 X-116.0694 Y-19.5574
G01 X-115.9699 Y-19.7063
G01 X-115.9213 Y-19.8073
G01 X-115.8876 Y-19.9014
G01 X-115.8610 Y-20.0106
G01 X-115.8435 Y-20.1889
G01 X-115.8481 Y-20.3006
G01 X-115.8654 Y-20.4112
G01 X-115.9214 Y-20.5929
G01 X-116.0103 Y-20.7611
G01 X-116.0758 Y-20.8508
G01 X-116.1363 Y-20.9180
G01 X-116.2274 Y-21.0006
G01 X-116.3860 Y-21.1056
G01 X-116.5714 Y-21.1824
G01 X-116.7682 Y-21.2217
G01 X-116.9595 Y-21.2227
G01 X-117.0812 Y-21.2046
G01 X-117.1681 Y-21.1826
G01 X-117.2731 Y-21.1441
G01 X-117.4405 Y-21.0538
G01 X-117.5961 Y-20.9261
G01 X-117.7238 Y-20.7705
G01 X-117.8141 Y-20.6031
G01 X-117.8524 Y-20.4986
G01 X-117.8746 Y-20.4112
G01 X-117.8926 Y-20.2895
G00 Z2.0000
(Block-name: block)
(Block-expand: 0)
(Block-enable: 1)
G00 X-120.4326 Y-20.2895
G01 F60.00
G01 Z-0.0250
G01 F120.00
G01 X-120.4146 Y-20.4112
G01 X-120.3924 Y-20.4986
G01 X-120.3541 Y-20.6031
G01 X-120.2638 Y-20.7705
G01 X-120.1361 Y-20.9261
G01 X-119.9805 Y-21.0538
G01 X-119.8131 Y-21.1441
G01 X-119.7081 Y-21.1826
G01 X-119.6212 Y-21.2046
G01 X-119.4995 Y-21.2227
G01 X-119.3082 Y-21.2217
G01 X-119.1114 Y-21.1824
G01 X-118.9260 Y-21.1056
G01 X-118.7674 Y-21.0006
G01 X-118.6763 Y-20.9180
G01 X-118.6158 Y-20.8508
G01 X-118.5503 Y-20.7611
G01 X-118.4614 Y-20.5929
G01 X-118.4054 Y-20.4112
G01 X-118.3881 Y-20.3006
G01 X-118.3835 Y-20.1889
G01 X-118.4010 Y-20.0106
G01 X-118.4276 Y-19.9014
G01 X-118.4613 Y-19.8073
G01 X-118.5099 Y-19.7063
G01 X-118.6094 Y-19.5574
G01 X-118.6829 Y-19.4750
G01 X-118.6829 Y-8.7112
G01 X-117.0942 Y-7.1224
G01 X-116.9007 Y-7.1222
G01 X-116.7820 Y-7.1055
G01 X-116.6623 Y-7.0748
G01 X-116.4688 Y-6.9937
G01 X-116.3649 Y-6.9305
G01 X-116.2032 Y-6.7968
G01 X-116.1292 Y-6.7151
G01 X-116.0684 Y-6.6336
G01 X-116.0012 Y-6.5212
G01 X-115.9252 Y-6.3377
G01 X-115.8973 Y-6.2307
G01 X-115.8786 Y-6.1104
G01 X-115.8732 Y-6.0000
G01 X-115.8787 Y-5.8884
G01 X-115.8973 Y-5.7693
G01 X-115.9252 Y-5.6623
G01 X-116.0012 Y-5.4788
G01 X-116.0631 Y-5.3740
G01 X-116.1290 Y-5.2852
G01 X-116.2032 Y-5.2032
G01 X-116.2939 Y-5.1221
G01 X-116.3748 Y-5.0626
G01 X-116.4788 Y-5.0012
G01 X-116.6623 Y-4.9252
G01 X-116.7693 Y-4.8973
G01 X-116.8896 Y-4.8786
G01 X-117.0111 Y-4.8735
G01 X-117.2089 Y-4.8929
G01 X-117.3277 Y-4.9219
G01 X-117.4414 Y-4.9635
G01 X-117.6166 Y-5.0571
G01 X-117.7148 Y-5.1290
G01 X-117.7968 Y-5.2032
G01 X-117.8708 Y-5.2849
G01 X-117.9374 Y-5.3748
G01 X-117.9934 Y-5.4682
G01 X-118.0450 Y-5.5792
G01 X-118.0783 Y-5.6729
G01 X-118.1071 Y-5.7911
G01 X-118.1222 Y-5.9007
G01 X-118.1224 Y-6.0942
G01 X-119.9318 Y-7.9040
G01 X-120.0081 Y-7.9970
G01 X-120.0509 Y-8.0668
G01 X-120.0857 Y-8.1422
G01 X-120.1206 Y-8.2573
G01 X-120.1371 Y-8.4100
G01 X-120.1371 Y-19.4750
G01 X-120.2638 Y-19.6295
G01 X-120.3152 Y-19.7153
G01 X-120.3626 Y-19.8174
G01 X-120.4146 Y-19.9888
G01 X-120.4305 Y-20.0883
G01 X-120.4368 Y-20.2000
G01 X-120.4326 Y-20.2895
G00 X-120.4326 Y-20.2895
G01 F60.00
G01 Z-0.0500
G01 F120.00
G01 X-120.4368 Y-20.2000
G01 X-120.4305 Y-20.0883
G01 X-120.4146 Y-19.9888
G01 X-120.3626 Y-19.8174
G01 X-120.3152 Y-19.7153
G01 X-120.2638 Y-19.6295
G01 X-120.1371 Y-19.4750
G01 X-120.1371 Y-8.4100
G01 X-120.1206 Y-8.2573
G01 X-120.0857 Y-8.1422
G01 X-120.0509 Y-8.0668
G01 X-120.0081 Y-7.9970
G01 X-119.9318 Y-7.9040
G01 X-118.1224 Y-6.0942
G01 X-118.1222 Y-5.9007
G01 X-118.1071 Y-5.7911
G01 X-118.0783 Y-5.6729
G01 X-118.0450 Y-5.5792
G01 X-117.9934 Y-5.4682
G01 X-117.9374 Y-5.3748
G01 X-117.8708 Y-5.2849
G01 X-117.7968 Y-5.2032
G01 X-117.7148 Y-5.1290
G01 X-117.6166 Y-5.0571
G01 X-117.4414 Y-4.9635
G01 X-117.3277 Y-4.9219
G01 X-117.2089 Y-4.8929
G01 X-117.0111 Y-4.8735
G01 X-116.8896 Y-4.8786
G01 X-116.7693 Y-4.8973
G01 X-116.6623 Y-4.9252
G01 X-116.4788 Y-5.0012
G01 X-116.3748 Y-5.0626
G01 X-116.2939 Y-5.1221
G01 X-116.2032 Y-5.2032
G01 X-116.1290 Y-5.2852
G01 X-116.0631 Y-5.3740
G01 X-116.0012 Y-5.4788
G01 X-115.9252 Y-5.6623
G01 X-115.8973 Y-5.7693
G01 X-115.8787 Y-5.8884
G01 X-115.8732 Y-6.0000
G01 X-115.8786 Y-6.1104
G01 X-115.8973 Y-6.2307
G01 X-115.9252 Y-6.3377
G01 X-116.0012 Y-6.5212
G01 X-116.0684 Y-6.6336
G01 X-116.1292 Y-6.7151
G01 X-116.2032 Y-6.7968
G01 X-116.3649 Y-6.9305
G01 X-116.4688 Y-6.9937
G01 X-116.6623 Y-7.0748
G01 X-116.7820 Y-7.1055
G01 X-116.9007 Y-7.1222
G01 X-117.0942 Y-7.1224
G01 X-118.6829 Y-8.7112
G01 X-118.6829 Y-19.4750
G01 X-118.6094 Y-19.5574
G01 X-118.5099 Y-19.7063
G01 X-118.4613 Y-19.8073
G01 X-118.4276 Y-19.9014
G01 X-118.4010 Y-20.0106
G01 X-118.3835 Y-20.1889
G01 X-118.3881 Y-20.3006
G01 X-118.4054 Y-20.4112
G01 X-118.4614 Y-20.5929
G01 X-118.5503 Y-20.7611
G01 X-118.6158 Y-20.8508
G01 X-118.6763 Y-20.9180
G01 X-118.7674 Y-21.0006
G01 X-118.9260 Y-21.1056
G01 X-119.1114 Y-21.1824
G01 X-119.3082 Y-21.2217
G01 X-119.4995 Y-21.2227
G01 X-119.6212 Y-21.2046
G01 X-119.7081 Y-21.1826
G01 X-119.8131 Y-21.1441
G01 X-119.9805 Y-21.0538
G01 X-120.1361 Y-20.9261
G01 X-120.2638 Y-20.7705
G01 X-120.3541 Y-20.6031
G01 X-120.3924 Y-20.4986
G01 X-120.4146 Y-20.4112
G01 X-120.4326 Y-20.2895
G00 X-120.4326 Y-20.2895
G01 F60.00
G01 Z-0.0750
G01 F120.00
G01 X-120.4146 Y-20.4112
G01 X-120.3924 Y-20.4986
G01 X-120.3541 Y-20.6031
G01 X-120.2638 Y-20.7705
G01 X-120.1361 Y-20.9261
G01 X-119.9805 Y-21.0538
G01 X-119.8131 Y-21.1441
G01 X-119.7081 Y-21.1826
G01 X-119.6212 Y-21.2046
G01 X-119.4995 Y-21.2227
G01 X-119.3082 Y-21.2217
G01 X-119.1114 Y-21.1824
G01 X-118.9260 Y-21.1056
G01 X-118.7674 Y-21.0006
G01 X-118.6763 Y-20.9180
G01 X-118.6158 Y-20.8508
G01 X-118.5503 Y-20.7611
G01 X-118.4614 Y-20.5929
G01 X-118.4054 Y-20.4112
G01 X-118.3881 Y-20.3006
G01 X-118.3835 Y-20.1889
G01 X-118.4010 Y-20.0106
G01 X-118.4276 Y-19.9014
G01 X-118.4613 Y-19.8073
G01 X-118.5099 Y-19.7063
G01 X-118.6094 Y-19.5574
G01 X-118.6829 Y-19.4750
G01 X-118.6829 Y-8.7112
G01 X-117.0942 Y-7.1224
G01 X-116.9007 Y-7.1222
G01 X-116.7820 Y-7.1055
G01 X-116.6623 Y-7.0748
G01 X-116.4688 Y-6.9937
G01 X-116.3649 Y-6.9305
G01 X-116.2032 Y-6.7968
G01 X-116.1292 Y-6.7151
G01 X-116.0684 Y-6.6336
G01 X-116.0012 Y-6.5212
G01 X-115.9252 Y-6.3377
G01 X-115.8973 Y-6.2307
G01 X-115.8786 Y-6.1104
G01 X-115.8732 Y-6.0000
G01 X-115.8787 Y-5.8884
G01 X-115.8973 Y-5.7693
G01 X-115.9252 Y-5.6623
G01 X-116.0012 Y-5.4788
G01 X-116.0631 Y-5.3740
G01 X-116.1290 Y-5.2852
G01 X-116.2032 Y-5.2032
G01 X-116.2939 Y-5.1221
G01 X-116.3748 Y-5.0626
G01 X-116.4788 Y-5.0012
G01 X-116.6623 Y-4.9252
G01 X-116.7693 Y-4.8973
G01 X-116.8896 Y-4.8786
G01 X-117.0111 Y-4.8735
G01 X-117.2089 Y-4.8929
G01 X-117.3277 Y-4.9219
G01 X-117.4414 Y-4.9635
G01 X-117.6166 Y-5.0571
G01 X-117.7148 Y-5.1290
G01 X-117.7968 Y-5.2032
G01 X-117.8708 Y-5.2849
G01 X-117.9374 Y-5.3748
G01 X-117.9934 Y-5.4682
G01 X-118.0450 Y-5.5792
G01 X-118.0783 Y-5.6729
G01 X-118.1071 Y-5.7911
G01 X-118.1222 Y-5.9007
G01 X-118.1224 Y-6.0942
G01 X-119.9318 Y-7.9040
G01 X-120.0081 Y-7.9970
G01 X-120.0509 Y-8.0668
G01 X-120.0857 Y-8.1422
G01 X-120.1206 Y-8.2573
G01 X-120.1371 Y-8.4100
G01 X-120.1371 Y-19.4750
G01 X-120.2638 Y-19.6295
G01 X-120.3152 Y-19.7153
G01 X-120.3626 Y-19.8174
G01 X-120.4146 Y-19.9888
G01 X-120.4305 Y-20.0883
G01 X-120.4368 Y-20.2000
G01 X-120.4326 Y-20.2895
G00 X-120.4326 Y-20.2895
G01 F60.00
G01 Z-0.1000
G01 F120.00
G01 X-120.4368 Y-20.2000
G01 X-120.4305 Y-20.0883
G01 X-120.4146 Y-19.9888
G01 X-120.3626 Y-19.8174
G01 X-120.3152 Y-19.7153
G01 X-120.2638 Y-19.6295
G01 X-120.1371 Y-19.4750
G01 X-120.1371 Y-8.4100
G01 X-120.1206 Y-8.2573
G01 X-120.0857 Y-8.1422
G01 X-120.0509 Y-8.0668
G01 X-120.0081 Y-7.9970
G01 X-119.9318 Y-7.9040
G01 X-118.1224 Y-6.0942
G01 X-118.1222 Y-5.9007
G01 X-118.1071 Y-5.7911
G01 X-118.0783 Y-5.6729
G01 X-118.0450 Y-5.5792
G01 X-117.9934 Y-5.4682
G01 X-117.9374 Y-5.3748
G01 X-117.8708 Y-5.2849
G01 X-117.7968 Y-5.2032
G01 X-117.7148 Y-5.1290
G01 X-117.6166 Y-5.0571
G01 X-117.4414 Y-4.9635
G01 X-117.3277 Y-4.9219
G01 X-117.2089 Y-4.8929
G01 X-117.0111 Y-4.8735
G01 X-116.8896 Y-4.8786
G01 X-116.7693 Y-4.8973
G01 X-116.6623 Y-4.9252
G01 X-116.4788 Y-5.0012
G01 X-116.3748 Y-5.0626
G01 X-116.2939 Y-5.1221
G01 X-116.2032 Y-5.2032
G01 X-116.1290 Y-5.2852
G01 X-116.0631 Y-5.3740
G01 X-116.0012 Y-5.4788
G01 X-115.9252 Y-5.6623
G01 X-115.8973 Y-5.7693
G01 X-115.8787 Y-5.8884
G01 X-115.8732 Y-6.0000
G01 X-115.8786 Y-6.1104
G01 X-115.8973 Y-6.2307
G01 X-115.9252 Y-6.3377
G01 X-116.0012 Y-6.5212
G01 X-116.0684 Y-6.6336
G01 X-116.1292 Y-6.7151
G01 X-116.2032 Y-6.7968
G01 X-116.3649 Y-6.9305
G01 X-116.4688 Y-6.9937
G01 X-116.6623 Y-7.0748
G01 X-116.7820 Y-7.1055
G01 X-116.9007 Y-7.1222
G01 X-117.0942 Y-7.1224
G01 X-118.6829 Y-8.7112
G01 X-118.6829 Y-19.4750
G01 X-118.6094 Y-19.5574
G01 X-118.5099 Y-19.7063
G01 X-118.4613 Y-19.8073
G01 X-118.4276 Y-19.9014
G01 X-118.4010 Y-20.0106
G01 X-118.3835 Y-20.1889
G01 X-118.3881 Y-20.3006
G01 X-118.4054 Y-20.4112
G01 X-118.4614 Y-20.5929
G01 X-118.5503 Y-20.7611
G01 X-118.6158 Y-20.8508
G01 X-118.6763 Y-20.9180
G01 X-118.7674 Y-21.0006
G01 X-118.9260 Y-21.1056
G01 X-119.1114 Y-21.1824
G01 X-119.3082 Y-21.2217
G01 X-119.4995 Y-21.2227
G01 X-119.6212 Y-21.2046
G01 X-119.7081 Y-21.1826
G01 X-119.8131 Y-21.1441
G01 X-119.9805 Y-21.0538
G01 X-120.1361 Y-20.9261
G01 X-120.2638 Y-20.7705
G01 X-120.3541 Y-20.6031
G01 X-120.3924 Y-20.4986
G01 X-120.4146 Y-20.4112
G01 X-120.4326 Y-20.2895
G00 Z2.0000
(Block-name: block)
(Block-expand: 0)
(Block-enable: 1)
G00 X-123.1222 Y-6.0993
G01 F60.00
G01 Z-0.0250
G01 F120.00
G01 X-123.1049 Y-6.2212
G01 X-123.0781 Y-6.3277
G01 X-123.0410 Y-6.4312
G01 X-122.9937 Y-6.5312
G01 X-122.9369 Y-6.6260
G01 X-122.8710 Y-6.7148
G01 X-122.7887 Y-6.8044
G01 X-122.6771 Y-6.8994
G01 X-122.6771 Y-19.4750
G01 X-122.7442 Y-19.5492
G01 X-122.8097 Y-19.6389
G01 X-122.8606 Y-19.7259
G01 X-122.9291 Y-19.8914
G01 X-122.9571 Y-19.9997
G01 X-122.9719 Y-20.0994
G01 X-122.9768 Y-20.2000
G01 X-122.9717 Y-20.3018
G01 X-122.9324 Y-20.4986
G01 X-122.8556 Y-20.6840
G01 X-122.7437 Y-20.8514
G01 X-122.6008 Y-20.9942
G01 X-122.4347 Y-21.1052
G01 X-122.2481 Y-21.1826
G01 X-122.0506 Y-21.2219
G01 X-121.9500 Y-21.2268
G01 X-121.8482 Y-21.2217
G01 X-121.6514 Y-21.1824
G01 X-121.4759 Y-21.1106
G01 X-121.3704 Y-21.0473
G01 X-121.2239 Y-20.9261
G01 X-121.0962 Y-20.7705
G01 X-121.0059 Y-20.6031
G01 X-120.9674 Y-20.4981
G01 X-120.9454 Y-20.4112
G01 X-120.9273 Y-20.2895
G01 X-120.9232 Y-20.2000
G01 X-120.9295 Y-20.0883
G01 X-120.9454 Y-19.9888
G01 X-120.9974 Y-19.8174
G01 X-121.0444 Y-19.7160
G01 X-121.0962 Y-19.6295
G01 X-121.2229 Y-19.4750
G01 X-121.2229 Y-6.8150
G01 X-121.1292 Y-6.7151
G01 X-121.0626 Y-6.6252
G01 X-121.0066 Y-6.5318
G01 X-120.9550 Y-6.4208
G01 X-120.9188 Y-6.3164
G01 X-120.8800 Y-6.1215
G01 X-120.8732 Y-6.0000
G01 X-120.8787 Y-5.8884
G01 X-120.8951 Y-5.7788
G01 X-120.9219 Y-5.6723
G01 X-120.9590 Y-5.5688
G01 X-121.0063 Y-5.4688
G01 X-121.0631 Y-5.3740
G01 X-121.1290 Y-5.2852
G01 X-121.2032 Y-5.2032
G01 X-121.2849 Y-5.1292
G01 X-121.3748 Y-5.0626
G01 X-121.4682 Y-5.0066
G01 X-121.5697 Y-4.9586
G01 X-121.6729 Y-4.9217
G01 X-121.7802 Y-4.8949
G01 X-121.8896 Y-4.8786
G01 X-122.0000 Y-4.8732
G01 X-122.1116 Y-4.8787
G01 X-122.2180 Y-4.8945
G01 X-122.3277 Y-4.9219
G01 X-122.4312 Y-4.9590
G01 X-122.5312 Y-5.0063
G01 X-122.6260 Y-5.0631
G01 X-122.7148 Y-5.1290
G01 X-122.7968 Y-5.2032
G01 X-122.8708 Y-5.2849
G01 X-122.9374 Y-5.3748
G01 X-122.9934 Y-5.4682
G01 X-123.0414 Y-5.5696
G01 X-123.0783 Y-5.6729
G01 X-123.1051 Y-5.7802
G01 X-123.1214 Y-5.8896
G01 X-123.1268 Y-6.0000
G01 X-123.1222 Y-6.0993
G00 X-123.1222 Y-6.0993
G01 F60.00
G01 Z-0.0500
G01 F120.00
G01 X-123.1268 Y-6.0000
G01 X-123.1214 Y-5.8896
G01 X-123.1051 Y-5.7802
G01 X-123.0783 Y-5.6729
G01 X-123.0414 Y-5.5696
G01 X-122.9934 Y-5.4682
G01 X-122.9374 Y-5.3748
G01 X-122.8708 Y-5.2849
G01 X-122.7968 Y-5.2032
G01 X-122.7148 Y-5.1290
G01 X-122.6260 Y-5.0631
G01 X-122.5312 Y-5.0063
G01 X-122.4312 Y-4.9590
G01 X-122.3277 Y-4.9219
G01 X-122.2180 Y-4.8945
G01 X-122.1116 Y-4.8787
G01 X-122.0000 Y-4.8732
G01 X-121.8896 Y-4.8786
G01 X-121.7802 Y-4.8949
G01 X-121.6729 Y-4.9217
G01 X-121.5697 Y-4.9586
G01 X-121.4682 Y-5.0066
G01 X-121.3748 Y-5.0626
G01 X-121.2849 Y-5.1292
G01 X-121.2032 Y-5.2032
G01 X-121.1290 Y-5.2852
G01 X-121.0631 Y-5.3740
G01 X-121.0063 Y-5.4688
G01 X-120.9590 Y-5.5688
G01 X-120.9219 Y-5.6723
G01 X-120.8951 Y-5.7788
G01 X-120.8787 Y-5.8884
G01 X-120.8732 Y-6.0000
G01 X-120.8800 Y-6.1215
G01 X-120.9188 Y-6.3164
G01 X-120.9550 Y-6.4208
G01 X-121.0066 Y-6.5318
G01 X-121.0626 Y-6.6252
G01 X-121.1292 Y-6.7151
G01 X-121.2229 Y-6.8150
G01 X-121.2229 Y-19.4750
G01 X-121.0962 Y-19.6295
G01 X-121.0444 Y-19.7160
G01 X-120.9974 Y-19.8174
G01 X-120.9454 Y-19.9888
G01 X-120.9295 Y-20.0883
G01 X-120.9232 Y-20.2000
G01 X-120.9273 Y-20.2895
G01 X-120.9454 Y-20.4112
G01 X-120.9674 Y-20.4981
G01 X-121.0059 Y-20.6031
G01 X-121.0962 Y-20.7705
G01 X-121.2239 Y-20.9261
G01 X-121.3704 Y-21.0473
G01 X-121.4759 Y-21.1106
G01 X-121.6514 Y-21.1824
G01 X-121.8482 Y-21.2217
G01 X-121.9500 Y-21.2268
G01 X-122.0506 Y-21.2219
G01 X-122.2481 Y-21.1826
G01 X-122.4347 Y-21.1052
G01 X-122.6008 Y-20.9942
G01 X-122.7437 Y-20.8514
G01 X-122.8556 Y-20.6840
G01 X-122.9324 Y-20.4986
G01 X-122.9717 Y-20.3018
G01 X-122.9768 Y-20.2000
G01 X-122.9719 Y-20.0994
G01 X-122.9571 Y-19.9997
G01 X-122.9291 Y-19.8914
G01 X-122.8606 Y-19.7259
G01 X-122.8097 Y-19.6389
G01 X-122.7442 Y-19.5492
G01 X-122.6771 Y-19.4750
G01 X-122.6771 Y-6.8994
G01 X-122.7887 Y-6.8044
G01 X-122.8710 Y-6.7148
G01 X-122.9369 Y-6.6260
G01 X-122.9937 Y-6.5312
G01 X-123.0410 Y-6.4312
G01 X-123.0781 Y-6.3277
G01 X-123.1049 Y-6.2212
G01 X-123.1222 Y-6.0993
G00 X-123.1222 Y-6.0993
G01 F60.00
G01 Z-0.0750
G01 F120.00
G01 X-123.1049 Y-6.2212
G01 X-123.0781 Y-6.3277
G01 X-123.0410 Y-6.4312
G01 X-122.9937 Y-6.5312
G01 X-122.9369 Y-6.6260
G01 X-122.8710 Y-6.7148
G01 X-122.7887 Y-6.8044
G01 X-122.6771 Y-6.8994
G01 X-122.6771 Y-19.4750
G01 X-122.7442 Y-19.5492
G01 X-122.8097 Y-19.6389
G01 X-122.8606 Y-19.7259
G01 X-122.9291 Y-19.8914
G01 X-122.9571 Y-19.9997
G01 X-122.9719 Y-20.0994
G01 X-122.9768 Y-20.2000
G01 X-122.9717 Y-20.3018
G01 X-122.9324 Y-20.4986
G01 X-122.8556 Y-20.6840
G01 X-122.7437 Y-20.8514
G01 X-122.6008 Y-20.9942
G01 X-122.4347 Y-21.1052
G01 X-122.2481 Y-21.1826
G01 X-122.0506 Y-21.2219
G01 X-121.9500 Y-21.2268
G01 X-121.8482 Y-21.2217
G01 X-121.6514 Y-21.1824
G01 X-121.4759 Y-21.1106
G01 X-121.3704 Y-21.0473
G01 X-121.2239 Y-20.9261
G01 X-121.0962 Y-20.7705
G01 X-121.0059 Y-20.6031
G01 X-120.9674 Y-20.4981
G01 X-120.9454 Y-20.4112
G01 X-120.9273 Y-20.2895
G01 X-120.9232 Y-20.2000
G01 X-120.9295 Y-20.0883
G01 X-120.9454 Y-19.9888
G01 X-120.9974 Y-19.8174
G01 X-121.0444 Y-19.7160
G01 X-121.0962 Y-19.6295
G01 X-121.2229 Y-19.4750
G01 X-121.2229 Y-6.8150
G01 X-121.1292 Y-6.7151
G01 X-121.0626 Y-6.6252
G01 X-121.0066 Y-6.5318
G01 X-120.9550 Y-6.4208
G01 X-120.9188 Y-6.3164
G01 X-120.8800 Y-6.1215
G01 X-120.8732 Y-6.0000
G01 X-120.8787 Y-5.8884
G01 X-120.8951 Y-5.7788
G01 X-120.9219 Y-5.6723
G01 X-120.9590 Y-5.5688
G01 X-121.0063 Y-5.4688
G01 X-121.0631 Y-5.3740
G01 X-121.1290 Y-5.2852
G01 X-121.2032 Y-5.2032
G01 X-121.2849 Y-5.1292
G01 X-121.3748 Y-5.0626
G01 X-121.4682 Y-5.0066
G01 X-121.5697 Y-4.9586
G01 X-121.6729 Y-4.9217
G01 X-121.7802 Y-4.8949
G01 X-121.8896 Y-4.8786
G01 X-122.0000 Y-4.8732
G01 X-122.1116 Y-4.8787
G01 X-122.2180 Y-4.8945
G01 X-122.3277 Y-4.9219
G01 X-122.4312 Y-4.9590
G01 X-122.5312 Y-5.0063
G01 X-122.6260 Y-5.0631
G01 X-122.7148 Y-5.1290
G01 X-122.7968 Y-5.2032
G01 X-122.8708 Y-5.2849
G01 X-122.9374 Y-5.3748
G01 X-122.9934 Y-5.4682
G01 X-123.0414 Y-5.5696
G01 X-123.0783 Y-5.6729
G01 X-123.1051 Y-5.7802
G01 X-123.1214 Y-5.8896
G01 X-123.1268 Y-6.0000
G01 X-123.1222 Y-6.0993
G00 X-123.1222 Y-6.0993
G01 F60.00
G01 Z-0.1000
G01 F120.00
G01 X-123.1268 Y-6.0000
G01 X-123.1214 Y-5.8896
G01 X-123.1051 Y-5.7802
G01 X-123.0783 Y-5.6729
G01 X-123.0414 Y-5.5696
G01 X-122.9934 Y-5.4682
G01 X-122.9374 Y-5.3748
G01 X-122.8708 Y-5.2849
G01 X-122.7968 Y-5.2032
G01 X-122.7148 Y-5.1290
G01 X-122.6260 Y-5.0631
G01 X-122.5312 Y-5.0063
G01 X-122.4312 Y-4.9590
G01 X-122.3277 Y-4.9219
G01 X-122.2180 Y-4.8945
G01 X-122.1116 Y-4.8787
G01 X-122.0000 Y-4.8732
G01 X-121.8896 Y-4.8786
G01 X-121.7802 Y-4.8949
G01 X-121.6729 Y-4.9217
G01 X-121.5697 Y-4.9586
G01 X-121.4682 Y-5.0066
G01 X-121.3748 Y-5.0626
G01 X-121.2849 Y-5.1292
G01 X-121.2032 Y-5.2032
G01 X-121.1290 Y-5.2852
G01 X-121.0631 Y-5.3740
G01 X-121.0063 Y-5.4688
G01 X-120.9590 Y-5.5688
G01 X-120.9219 Y-5.6723
G01 X-120.8951 Y-5.7788
G01 X-120.8787 Y-5.8884
G01 X-120.8732 Y-6.0000
G01 X-120.8800 Y-6.1215
G01 X-120.9188 Y-6.3164
G01 X-120.9550 Y-6.4208
G01 X-121.0066 Y-6.5318
G01 X-121.0626 Y-6.6252
G01 X-121.1292 Y-6.7151
G01 X-121.2229 Y-6.8150
G01 X-121.2229 Y-19.4750
G01 X-121.0962 Y-19.6295
G01 X-121.0444 Y-19.7160
G01 X-120.9974 Y-19.8174
G01 X-120.9454 Y-19.9888
G01 X-120.9295 Y-20.0883
G01 X-120.9232 Y-20.2000
G01 X-120.9273 Y-20.2895
G01 X-120.9454 Y-20.4112
G01 X-120.9674 Y-20.4981
G01 X-121.0059 Y-20.6031
G01 X-121.0962 Y-20.7705
G01 X-121.2239 Y-20.9261
G01 X-121.3704 Y-21.0473
G01 X-121.4759 Y-21.1106
G01 X-121.6514 Y-21.1824
G01 X-121.8482 Y-21.2217
G01 X-121.9500 Y-21.2268
G01 X-122.0506 Y-21.2219
G01 X-122.2481 Y-21.1826
G01 X-122.4347 Y-21.1052
G01 X-122.6008 Y-20.9942
G01 X-122.7437 Y-20.8514
G01 X-122.8556 Y-20.6840
G01 X-122.9324 Y-20.4986
G01 X-122.9717 Y-20.3018
G01 X-122.9768 Y-20.2000
G01 X-122.9719 Y-20.0994
G01 X-122.9571 Y-19.9997
G01 X-122.9291 Y-19.8914
G01 X-122.8606 Y-19.7259
G01 X-122.8097 Y-19.6389
G01 X-122.7442 Y-19.5492
G01 X-122.6771 Y-19.4750
G01 X-122.6771 Y-6.8994
G01 X-122.7887 Y-6.8044
G01 X-122.8710 Y-6.7148
G01 X-122.9369 Y-6.6260
G01 X-122.9937 Y-6.5312
G01 X-123.0410 Y-6.4312
G01 X-123.0781 Y-6.3277
G01 X-123.1049 Y-6.2212
G01 X-123.1222 Y-6.0993
G00 Z2.0000
(Block-name: block)
(Block-expand: 0)
(Block-enable: 1)
G00 X-123.1698 Y-5.8063
G01 F60.00
G01 Z-0.0250
G01 F120.00
G01 X-123.1225 Y-5.6179
G01 X-123.0450 Y-5.4397
G01 X-122.9395 Y-5.2765
G01 X-122.8087 Y-5.1328
G01 X-122.6562 Y-5.0124
G01 X-122.4861 Y-4.9184
G01 X-122.3029 Y-4.8536
G01 X-122.1116 Y-4.8195
G01 X-122.0573 Y-4.8188
G01 X-121.9173 Y-4.8171
G01 X-121.7252 Y-4.8465
G01 X-121.5405 Y-4.9069
G01 X-121.3681 Y-4.9966
G01 X-121.2127 Y-5.1133
G01 X-121.0785 Y-5.2538
G01 X-120.9690 Y-5.4143
G01 X-120.8872 Y-5.5906
G01 X-120.8352 Y-5.7778
G01 X-120.8146 Y-5.9710
G01 X-120.8258 Y-6.1650
G01 X-120.8685 Y-6.3546
G01 X-120.9416 Y-6.5346
G01 X-121.0431 Y-6.7003
G01 X-121.1142 Y-6.7936
G01 X-121.1562 Y-6.8894
G01 X-121.1683 Y-6.9764
G01 X-121.1683 Y-19.3193
G01 X-121.1617 Y-19.3737
G01 X-121.1251 Y-19.4856
G01 X-121.0096 Y-19.6571
G01 X-120.9864 Y-19.7028
G01 X-120.8949 Y-19.8079
G01 X-120.8185 Y-19.8511
G01 X-120.7146 Y-19.8792
G01 X-120.6558 Y-19.8808
G01 X-120.5292 Y-19.8462
G01 X-120.4634 Y-19.8069
G01 X-120.3817 Y-19.7149
G01 X-120.3504 Y-19.6571
G01 X-120.2430 Y-19.5017
G01 X-120.2013 Y-19.3844
G01 X-120.1920 Y-19.3300
G01 X-120.1954 Y-8.4182
G01 X-120.1817 Y-8.2614
G01 X-120.1382 Y-8.1143
G01 X-120.0669 Y-7.9785
G01 X-119.9674 Y-7.8565
G01 X-118.2650 Y-6.1567
G01 X-118.1928 Y-6.0188
G01 X-118.1698 Y-5.8063
G01 X-118.1225 Y-5.6179
G01 X-118.0450 Y-5.4397
G01 X-117.9395 Y-5.2765
G01 X-117.8087 Y-5.1328
G01 X-117.6562 Y-5.0124
G01 X-117.4861 Y-4.9184
G01 X-117.3029 Y-4.8536
G01 X-117.1116 Y-4.8195
G01 X-117.0573 Y-4.8188
G01 X-116.9173 Y-4.8171
G01 X-116.7252 Y-4.8465
G01 X-116.5405 Y-4.9069
G01 X-116.3681 Y-4.9966
G01 X-116.2127 Y-5.1133
G01 X-116.0785 Y-5.2538
G01 X-115.9690 Y-5.4143
G01 X-115.8872 Y-5.5906
G01 X-115.8352 Y-5.7778
G01 X-115.8146 Y-5.9710
G01 X-115.8258 Y-6.1650
G01 X-115.8685 Y-6.3546
G01 X-115.9416 Y-6.5346
G01 X-116.0431 Y-6.7003
G01 X-116.1704 Y-6.8472
G01 X-116.3199 Y-6.9713
G01 X-116.4876 Y-7.0694
G01 X-116.6692 Y-7.1387
G01 X-116.8596 Y-7.1774
G01 X-116.9938 Y-7.1885
G01 X-117.0864 Y-7.2197
G01 X-117.1393 Y-7.2502
G01 X-118.5296 Y-8.6353
G01 X-118.5592 Y-8.6744
G01 X-118.6082 Y-8.7664
G01 X-118.6228 Y-8.8185
G01 X-118.6283 Y-8.8799
G01 X-118.6270 Y-11.9170
G01 X-118.5888 Y-12.0534
G01 X-118.5380 Y-12.1254
G01 X-118.4281 Y-12.2112
G01 X-118.3770 Y-12.2291
G01 X-118.2898 Y-12.2423
G01 X-118.2033 Y-12.2380
G01 X-118.0822 Y-12.1862
G01 X-118.0270 Y-12.1429
G01 X-117.9513 Y-12.0487
G01 X-117.8867 Y-12.0004
G01 X-117.7859 Y-11.9683
G01 X-116.0141 Y-11.9683
G01 X-115.9133 Y-12.0004
G01 X-115.8487 Y-12.0487
G01 X-115.7558 Y-12.1675
G01 X-115.6929 Y-12.2257
G01 X-115.6285 Y-12.2603
G01 X-115.5092 Y-12.2864
G01 X-115.4453 Y-12.2840
G01 X-115.3268 Y-12.2432
G01 X-115.2648 Y-12.2023
G01 X-115.1725 Y-12.0784
G01 X-115.1550 Y-12.0282
G01 X-115.1420 Y-11.9475
G01 X-115.1454 Y-8.3682
G01 X-115.1317 Y-8.2114
G01 X-115.0882 Y-8.0643
G01 X-115.0169 Y-7.9285
G01 X-114.9174 Y-7.8065
G01 X-113.2650 Y-6.1567
G01 X-113.1928 Y-6.0188
G01 X-113.1698 Y-5.8063
G01 X-113.1225 Y-5.6179
G01 X-113.0450 Y-5.4397
G01 X-112.9395 Y-5.2765
G01 X-112.8087 Y-5.1328
G01 X-112.6562 Y-5.0124
G01 X-112.4861 Y-4.9184
G01 X-112.3029 Y-4.8536
G01 X-112.1116 Y-4.8195
G01 X-111.9173 Y-4.8171
G01 X-111.7252 Y-4.8465
G01 X-111.5405 Y-4.9069
G01 X-111.3681 Y-4.9966
G01 X-111.2127 Y-5.1133
G01 X-111.0785 Y-5.2538
G01 X-110.9690 Y-5.4143
G01 X-110.8872 Y-5.5906
G01 X-110.8352 Y-5.7778
G01 X-110.8146 Y-5.9710
G01 X-110.8258 Y-6.1650
G01 X-110.8685 Y-6.3546
G01 X-110.9416 Y-6.5346
G01 X-111.0431 Y-6.7003
G01 X-111.1704 Y-6.8472
G01 X-111.3199 Y-6.9713
G01 X-111.4876 Y-7.0694
G01 X-111.6692 Y-7.1387
G01 X-111.8596 Y-7.1774
G01 X-111.9938 Y-7.1885
G01 X-112.0864 Y-7.2197
G01 X-112.1393 Y-7.2502
G01 X-113.4796 Y-8.5853
G01 X-113.5092 Y-8.6244
G01 X-113.5582 Y-8.7164
G01 X-113.5728 Y-8.7685
G01 X-113.5783 Y-8.8299
G01 X-113.5783 Y-12.1384
G01 X-113.5714 Y-12.1941
G01 X-113.5344 Y-12.3078
G01 X-113.3593 Y-12.5541
G01 X-113.2724 Y-12.6275
G01 X-113.2202 Y-12.6561
G01 X-113.1644 Y-12.6699
G01 X-113.0565 Y-12.6793
G01 X-112.9757 Y-12.6600
G01 X-112.8588 Y-12.5957
G01 X-112.7999 Y-12.5305
G01 X-112.7197 Y-12.4071
G01 X-112.5945 Y-12.2695
G01 X-112.4484 Y-12.1541
G01 X-112.2855 Y-12.0642
G01 X-112.1101 Y-12.0021
G01 X-111.9269 Y-11.9694
G01 X-111.7408 Y-11.9672
G01 X-111.5568 Y-11.9953
G01 X-111.3799 Y-12.0531
G01 X-111.2149 Y-12.1391
G01 X-111.0661 Y-12.2508
G01 X-110.9375 Y-12.3854
G01 X-110.8326 Y-12.5391
G01 X-110.7543 Y-12.7079
G01 X-110.7045 Y-12.8872
G01 X-110.6847 Y-13.0723
G01 X-110.6955 Y-13.2580
G01 X-110.7364 Y-13.4396
G01 X-110.8064 Y-13.6120
G01 X-110.9542 Y-13.8403
G01 X-110.9962 Y-13.9361
G01 X-111.0077 Y-14.0069
G01 X-111.0083 Y-19.3193
G01 X-110.9987 Y-19.3844
G01 X-110.9691 Y-19.4762
G01 X-110.9490 Y-19.5149
G01 X-110.8496 Y-19.6571
G01 X-110.8135 Y-19.7213
G01 X-110.7412 Y-19.8023
G01 X-110.6875 Y-19.8392
G01 X-110.5664 Y-19.8770
G01 X-110.5074 Y-19.8817
G01 X-110.3773 Y-19.8491
G01 X-110.3228 Y-19.8217
G01 X-110.2279 Y-19.7231
G01 X-110.0910 Y-19.5149
G01 X-110.0696 Y-19.4728
G01 X-110.0383 Y-19.3737
G01 X-110.0317 Y-19.3193
G01 X-110.0354 Y-16.9032
G01 X-110.0217 Y-16.7464
G01 X-109.9782 Y-16.5993
G01 X-109.9069 Y-16.4635
G01 X-109.8074 Y-16.3415
G01 X-106.6730 Y-13.2116
G01 X-106.5964 Y-13.0745
G01 X-106.5753 Y-12.9145
G01 X-106.5300 Y-12.7340
G01 X-106.4558 Y-12.5634
G01 X-106.3547 Y-12.4071
G01 X-106.2295 Y-12.2695
G01 X-106.0834 Y-12.1541
G01 X-105.9205 Y-12.0642
G01 X-105.7451 Y-12.0021
G01 X-105.5619 Y-11.9694
G01 X-105.3758 Y-11.9672
G01 X-105.1918 Y-11.9953
G01 X-105.0149 Y-12.0531
G01 X-104.8499 Y-12.1391
G01 X-104.7011 Y-12.2508
G01 X-104.5725 Y-12.3854
G01 X-104.4543 Y-12.5541
G01 X-104.3584 Y-12.6338
G01 X-104.2824 Y-12.6660
G01 X-104.1628 Y-12.6796
G01 X-104.0707 Y-12.6600
G01 X-103.9793 Y-12.6142
G01 X-103.9386 Y-12.5819
G01 X-103.7617 Y-12.3423
G01 X-103.7039 Y-12.2111
G01 X-103.6967 Y-12.1409
G01 X-103.6970 Y-10.5430
G01 X-103.7285 Y-10.4145
G01 X-103.7633 Y-10.3491
G01 X-106.8303 Y-7.2762
G01 X-106.9681 Y-7.1993
G01 X-107.2465 Y-7.1598
G01 X-107.4327 Y-7.1040
G01 X-107.6072 Y-7.0185
G01 X-107.7654 Y-6.9057
G01 X-107.9030 Y-6.7685
G01 X-108.0164 Y-6.6107
G01 X-108.1025 Y-6.4365
G01 X-108.1590 Y-6.2506
G01 X-108.1852 Y-6.0514
G01 X-108.1698 Y-5.8063
G01 X-108.1225 Y-5.6179
G01 X-108.0450 Y-5.4397
G01 X-107.9395 Y-5.2765
G01 X-107.8087 Y-5.1328
G01 X-107.6562 Y-5.0124
G01 X-107.4861 Y-4.9184
G01 X-107.3029 Y-4.8536
G01 X-107.1116 Y-4.8195
G01 X-106.9173 Y-4.8171
G01 X-106.7252 Y-4.8465
G01 X-106.5405 Y-4.9069
G01 X-106.3681 Y-4.9966
G01 X-106.2127 Y-5.1133
G01 X-106.0785 Y-5.2538
G01 X-105.9690 Y-5.4143
G01 X-105.8872 Y-5.5906
G01 X-105.8352 Y-5.7778
G01 X-105.8079 Y-6.0054
G01 X-105.7642 Y-6.1137
G01 X-105.7309 Y-6.1621
G01 X-102.3654 Y-9.5238
G01 X-102.2642 Y-9.6444
G01 X-102.1910 Y-9.7792
G01 X-102.1454 Y-9.9256
G01 X-102.1330 Y-10.0439
G01 X-102.1330 Y-11.9471
G01 X-102.0938 Y-12.0954
G01 X-102.0655 Y-12.1425
G01 X-102.0350 Y-12.1747
G01 X-101.9634 Y-12.2352
G01 X-101.9044 Y-12.2650
G01 X-101.7751 Y-12.2863
G01 X-101.7083 Y-12.2801
G01 X-101.6038 Y-12.2367
G01 X-101.5583 Y-12.2090
G01 X-101.5030 Y-12.1504
G01 X-101.4263 Y-12.0487
G01 X-101.3617 Y-12.0004
G01 X-101.2609 Y-11.9683
G01 X-99.4891 Y-11.9683
G01 X-99.3883 Y-12.0004
G01 X-99.3237 Y-12.0487
G01 X-99.2754 Y-12.1133
G01 X-99.2433 Y-12.2141
G01 X-99.2456 Y-14.0074
G01 X-99.2754 Y-14.0867
G01 X-99.3237 Y-14.1513
G01 X-99.3883 Y-14.1996
G01 X-99.4676 Y-14.2294
G01 X-99.5830 Y-14.2345
G01 X-99.6968 Y-14.2668
G01 X-99.7571 Y-14.3014
G01 X-99.8604 Y-14.3952
G01 X-108.0095 Y-22.5496
G01 X-108.1301 Y-22.6508
G01 X-108.2649 Y-22.7240
G01 X-108.4114 Y-22.7696
G01 X-108.5680 Y-22.7855
G01 X-112.5218 Y-22.7854
G01 X-112.6786 Y-22.7717
G01 X-112.8257 Y-22.7282
G01 X-112.9615 Y-22.6569
G01 X-113.0835 Y-22.5574
G01 X-114.2830 Y-21.3552
G01 X-114.4095 Y-21.2867
G01 X-114.5186 Y-21.2693
G01 X-114.7014 Y-21.2203
G01 X-114.8729 Y-21.1404
G01 X-115.0280 Y-21.0318
G01 X-115.1618 Y-20.8980
G01 X-115.2704 Y-20.7429
G01 X-115.2998 Y-20.6878
G01 X-115.3851 Y-20.5921
G01 X-115.4526 Y-20.5521
G01 X-115.5772 Y-20.5193
G01 X-115.6470 Y-20.5227
G01 X-115.7346 Y-20.5482
G01 X-115.8166 Y-20.5931
G01 X-115.8983 Y-20.6851
G01 X-115.9296 Y-20.7429
G01 X-116.0382 Y-20.8980
G01 X-116.1720 Y-21.0318
G01 X-116.3271 Y-21.1404
G01 X-116.4986 Y-21.2203
G01 X-116.6814 Y-21.2693
G01 X-116.8700 Y-21.2858
G01 X-117.0586 Y-21.2693
G01 X-117.2414 Y-21.2203
G01 X-117.4129 Y-21.1404
G01 X-117.5680 Y-21.0318
G01 X-117.7018 Y-20.8980
G01 X-117.8104 Y-20.7429
G01 X-117.8398 Y-20.6878
G01 X-117.9251 Y-20.5921
G01 X-118.0015 Y-20.5489
G01 X-118.0936 Y-20.5230
G01 X-118.1410 Y-20.5180
G01 X-118.1968 Y-20.5250
G01 X-118.2827 Y-20.5509
G01 X-118.3566 Y-20.5931
G01 X-118.4383 Y-20.6851
G01 X-118.4696 Y-20.7429
G01 X-118.5782 Y-20.8980
G01 X-118.7120 Y-21.0318
G01 X-118.8671 Y-21.1404
G01 X-119.0386 Y-21.2203
G01 X-119.2214 Y-21.2693
G01 X-119.4100 Y-21.2858
G01 X-119.5986 Y-21.2693
G01 X-119.7814 Y-21.2203
G01 X-119.9529 Y-21.1404
G01 X-120.1080 Y-21.0318
G01 X-120.2418 Y-20.8980
G01 X-120.3504 Y-20.7429
G01 X-120.3798 Y-20.6878
G01 X-120.4651 Y-20.5921
G01 X-120.5415 Y-20.5489
G01 X-120.6336 Y-20.5230
G01 X-120.6810 Y-20.5180
G01 X-120.7368 Y-20.5250
G01 X-120.8227 Y-20.5509
G01 X-120.8871 Y-20.5854
G01 X-120.9783 Y-20.6851
G01 X-121.0096 Y-20.7429
G01 X-121.1182 Y-20.8980
G01 X-121.2520 Y-21.0318
G01 X-121.4071 Y-21.1404
G01 X-121.5786 Y-21.2203
G01 X-121.7614 Y-21.2693
G01 X-121.9500 Y-21.2858
G01 X-122.1386 Y-21.2693
G01 X-122.3214 Y-21.2203
G01 X-122.4929 Y-21.1404
G01 X-122.6480 Y-21.0318
G01 X-122.7818 Y-20.8980
G01 X-122.8904 Y-20.7429
G01 X-122.9703 Y-20.5714
G01 X-122.9808 Y-20.5322
G01 X-123.0193 Y-20.3886
G01 X-123.0358 Y-20.2000
G01 X-123.0193 Y-20.0114
G01 X-122.9703 Y-19.8286
G01 X-122.8904 Y-19.6571
G01 X-122.7749 Y-19.4856
G01 X-122.7383 Y-19.3737
G01 X-122.7317 Y-19.3193
G01 X-122.7317 Y-7.0857
G01 X-122.7386 Y-7.0300
G01 X-122.7802 Y-6.9075
G01 X-122.8249 Y-6.8471
G01 X-122.9030 Y-6.7685
G01 X-123.0164 Y-6.6107
G01 X-123.1025 Y-6.4365
G01 X-123.1590 Y-6.2506
G01 X-123.1852 Y-6.0514
G01 X-123.1698 Y-5.8063
G00 X-123.1698 Y-5.8063
G01 F60.00
G01 Z-0.0500
G01 F120.00
G01 X-123.1852 Y-6.0514
G01 X-123.1590 Y-6.2506
G01 X-123.1025 Y-6.4365
G01 X-123.0164 Y-6.6107
G01 X-122.9030 Y-6.7685
G01 X-122.8249 Y-6.8471
G01 X-122.7802 Y-6.9075
G01 X-122.7386 Y-7.0300
G01 X-122.7317 Y-7.0857
G01 X-122.7317 Y-19.3193
G01 X-122.7383 Y-19.3737
G01 X-122.7749 Y-19.4856
G01 X-122.8904 Y-19.6571
G01 X-122.9703 Y-19.8286
G01 X-123.0193 Y-20.0114
G01 X-123.0358 Y-20.2000
G01 X-123.0193 Y-20.3886
G01 X-122.9808 Y-20.5322
G01 X-122.9703 Y-20.5714
G01 X-122.8904 Y-20.7429
G01 X-122.7818 Y-20.8980
G01 X-122.6480 Y-21.0318
G01 X-122.4929 Y-21.1404
G01 X-122.3214 Y-21.2203
G01 X-122.1386 Y-21.2693
G01 X-121.9500 Y-21.2858
G01 X-121.7614 Y-21.2693
G01 X-121.5786 Y-21.2203
G01 X-121.4071 Y-21.1404
G01 X-121.2520 Y-21.0318
G01 X-121.1182 Y-20.8980
G01 X-121.0096 Y-20.7429
G01 X-120.9783 Y-20.6851
G01 X-120.8871 Y-20.5854
G01 X-120.8227 Y-20.5509
G01 X-120.7368 Y-20.5250
G01 X-120.6810 Y-20.5180
G01 X-120.6336 Y-20.5230
G01 X-120.5415 Y-20.5489
G01 X-120.4651 Y-20.5921
G01 X-120.3798 Y-20.6878
G01 X-120.3504 Y-20.7429
G01 X-120.2418 Y-20.8980
G01 X-120.1080 Y-21.0318
G01 X-119.9529 Y-21.1404
G01 X-119.7814 Y-21.2203
G01 X-119.5986 Y-21.2693
G01 X-119.4100 Y-21.2858
G01 X-119.2214 Y-21.2693
G01 X-119.0386 Y-21.2203
G01 X-118.8671 Y-21.1404
G01 X-118.7120 Y-21.0318
G01 X-118.5782 Y-20.8980
G01 X-118.4696 Y-20.7429
G01 X-118.4383 Y-20.6851
G01 X-118.3566 Y-20.5931
G01 X-118.2827 Y-20.5509
G01 X-118.1968 Y-20.5250
G01 X-118.1410 Y-20.5180
G01 X-118.0936 Y-20.5230
G01 X-118.0015 Y-20.5489
G01 X-117.9251 Y-20.5921
G01 X-117.8398 Y-20.6878
G01 X-117.8104 Y-20.7429
G01 X-117.7018 Y-20.8980
G01 X-117.5680 Y-21.0318
G01 X-117.4129 Y-21.1404
G01 X-117.2414 Y-21.2203
G01 X-117.0586 Y-21.2693
G01 X-116.8700 Y-21.2858
G01 X-116.6814 Y-21.2693
G01 X-116.4986 Y-21.2203
G01 X-116.3271 Y-21.1404
G01 X-116.1720 Y-21.0318
G01 X-116.0382 Y-20.8980
G01 X-115.9296 Y-20.7429
G01 X-115.8983 Y-20.6851
G01 X-115.8166 Y-20.5931
G01 X-115.7346 Y-20.5482
G01 X-115.6470 Y-20.5227
G01 X-115.5772 Y-20.5193
G01 X-115.4526 Y-20.5521
G01 X-115.3851 Y-20.5921
G01 X-115.2998 Y-20.6878
G01 X-115.2704 Y-20.7429
G01 X-115.1618 Y-20.8980
G01 X-115.0280 Y-21.0318
G01 X-114.8729 Y-21.1404
G01 X-114.7014 Y-21.2203
G01 X-114.5186 Y-21.2693
G01 X-114.4095 Y-21.2867
G01 X-114.2830 Y-21.3552
G01 X-113.0835 Y-22.5574
G01 X-112.9615 Y-22.6569
G01 X-112.8257 Y-22.7282
G01 X-112.6786 Y-22.7717
G01 X-112.5218 Y-22.7854
G01 X-108.5680 Y-22.7855
G01 X-108.4114 Y-22.7696
G01 X-108.2649 Y-22.7240
G01 X-108.1301 Y-22.6508
G01 X-108.0095 Y-22.5496
G01 X-99.8604 Y-14.3952
G01 X-99.7571 Y-14.3014
G01 X-99.6968 Y-14.2668
G01 X-99.5830 Y-14.2345
G01 X-99.4676 Y-14.2294
G01 X-99.3883 Y-14.1996
G01 X-99.3237 Y-14.1513
G01 X-99.2754 Y-14.0867
G01 X-99.2456 Y-14.0074
G01 X-99.2433 Y-12.2141
G01 X-99.2754 Y-12.1133
G01 X-99.3237 Y-12.0487
G01 X-99.3883 Y-12.0004
G01 X-99.4891 Y-11.9683
G01 X-101.2609 Y-11.9683
G01 X-101.3617 Y-12.0004
G01 X-101.4263 Y-12.0487
G01 X-101.5030 Y-12.1504
G01 X-101.5583 Y-12.2090
G01 X-101.6038 Y-12.2367
G01 X-101.7083 Y-12.2801
G01 X-101.7751 Y-12.2863
G01 X-101.9044 Y-12.2650
G01 X-101.9634 Y-12.2352
G01 X-102.0350 Y-12.1747
G01 X-102.0655 Y-12.1425
G01 X-102.0938 Y-12.0954
G01 X-102.1330 Y-11.9471
G01 X-102.1330 Y-10.0439
G01 X-102.1454 Y-9.9256
G01 X-102.1910 Y-9.7792
G01 X-102.2642 Y-9.6444
G01 X-102.3654 Y-9.5238
G01 X-105.7309 Y-6.1621
G01 X-105.7642 Y-6.1137
G01 X-105.8079 Y-6.0054
G01 X-105.8352 Y-5.7778
G01 X-105.8872 Y-5.5906
G01 X-105.9690 Y-5.4143
G01 X-106.0785 Y-5.2538
G01 X-106.2127 Y-5.1133
G01 X-106.3681 Y-4.9966
G01 X-106.5405 Y-4.9069
G01 X-106.7252 Y-4.8465
G01 X-106.9173 Y-4.8171
G01 X-107.1116 Y-4.8195
G01 X-107.3029 Y-4.8536
G01 X-107.4861 Y-4.9184
G01 X-107.6562 Y-5.0124
G01 X-107.8087 Y-5.1328
G01 X-107.9395 Y-5.2765
G01 X-108.0450 Y-5.4397
G01 X-108.1225 Y-5.6179
G01 X-108.1698 Y-5.8063
G01 X-108.1852 Y-6.0514
G01 X-108.1590 Y-6.2506
G01 X-108.1025 Y-6.4365
G01 X-108.0164 Y-6.6107
G01 X-107.9030 Y-6.7685
G01 X-107.7654 Y-6.9057
G01 X-107.6072 Y-7.0185
G01 X-107.4327 Y-7.1040
G01 X-107.2465 Y-7.1598
G01 X-106.9681 Y-7.1993
G01 X-106.8303 Y-7.2762
G01 X-103.7633 Y-10.3491
G01 X-103.7285 Y-10.4145
G01 X-103.6970 Y-10.5430
G01 X-103.6967 Y-12.1409
G01 X-103.7039 Y-12.2111
G01 X-103.7617 Y-12.3423
G01 X-103.9386 Y-12.5819
G01 X-103.9793 Y-12.6142
G01 X-104.0707 Y-12.6600
G01 X-104.1628 Y-12.6796
G01 X-104.2824 Y-12.6660
G01 X-104.3584 Y-12.6338
G01 X-104.4543 Y-12.5541
G01 X-104.5725 Y-12.3854
G01 X-104.7011 Y-12.2508
G01 X-104.8499 Y-12.1391
G01 X-105.0149 Y-12.0531
G01 X-105.1918 Y-11.9953
G01 X-105.3758 Y-11.9672
G01 X-105.5619 Y-11.9694
G01 X-105.7451 Y-12.0021
G01 X-105.9205 Y-12.0642
G01 X-106.0834 Y-12.1541
G01 X-106.2295 Y-12.2695
G01 X-106.3547 Y-12.4071
G01 X-106.4558 Y-12.5634
G01 X-106.5300 Y-12.7340
G01 X-106.5753 Y-12.9145
G01 X-106.5964 Y-13.0745
G01 X-106.6730 Y-13.2116
G01 X-109.8074 Y-16.3415
G01 X-109.9069 Y-16.4635
G01 X-109.9782 Y-16.5993
G01 X-110.0217 Y-16.7464
G01 X-110.0354 Y-16.9032
G01 X-110.0317 Y-19.3193
G01 X-110.0383 Y-19.3737
G01 X-110.0696 Y-19.4728
G01 X-110.0910 Y-19.5149
G01 X-110.2279 Y-19.7231
G01 X-110.3228 Y-19.8217
G01 X-110.3773 Y-19.8491
G01 X-110.5074 Y-19.8817
G01 X-110.5664 Y-19.8770
G01 X-110.6875 Y-19.8392
G01 X-110.7412 Y-19.8023
G01 X-110.8135 Y-19.7213
G01 X-110.8496 Y-19.6571
G01 X-110.9490 Y-19.5149
G01 X-110.9691 Y-19.4762
G01 X-110.9987 Y-19.3844
G01 X-111.0083 Y-19.3193
G01 X-111.0077 Y-14.0069
G01 X-110.9962 Y-13.9361
G01 X-110.9542 Y-13.8403
G01 X-110.8064 Y-13.6120
G01 X-110.7364 Y-13.4396
G01 X-110.6955 Y-13.2580
G01 X-110.6847 Y-13.0723
G01 X-110.7045 Y-12.8872
G01 X-110.7543 Y-12.7079
G01 X-110.8326 Y-12.5391
G01 X-110.9375 Y-12.3854
G01 X-111.0661 Y-12.2508
G01 X-111.2149 Y-12.1391
G01 X-111.3799 Y-12.0531
G01 X-111.5568 Y-11.9953
G01 X-111.7408 Y-11.9672
G01 X-111.9269 Y-11.9694
G01 X-112.1101 Y-12.0021
G01 X-112.2855 Y-12.0642
G01 X-112.4484 Y-12.1541
G01 X-112.5945 Y-12.2695
G01 X-112.7197 Y-12.4071
G01 X-112.7999 Y-12.5305
G01 X-112.8588 Y-12.5957
G01 X-112.9757 Y-12.6600
G01 X-113.0565 Y-12.6793
G01 X-113.1644 Y-12.6699
G01 X-113.2202 Y-12.6561
G01 X-113.2724 Y-12.6275
G01 X-113.3593 Y-12.5541
G01 X-113.5344 Y-12.3078
G01 X-113.5714 Y-12.1941
G01 X-113.5783 Y-12.1384
G01 X-113.5783 Y-8.8299
G01 X-113.5728 Y-8.7685
G01 X-113.5582 Y-8.7164
G01 X-113.5092 Y-8.6244
G01 X-113.4796 Y-8.5853
G01 X-112.1393 Y-7.2502
G01 X-112.0864 Y-7.2197
G01 X-111.9938 Y-7.1885
G01 X-111.8596 Y-7.1774
G01 X-111.6692 Y-7.1387
G01 X-111.4876 Y-7.0694
G01 X-111.3199 Y-6.9713
G01 X-111.1704 Y-6.8472
G01 X-111.0431 Y-6.7003
G01 X-110.9416 Y-6.5346
G01 X-110.8685 Y-6.3546
G01 X-110.8258 Y-6.1650
G01 X-110.8146 Y-5.9710
G01 X-110.8352 Y-5.7778
G01 X-110.8872 Y-5.5906
G01 X-110.9690 Y-5.4143
G01 X-111.0785 Y-5.2538
G01 X-111.2127 Y-5.1133
G01 X-111.3681 Y-4.9966
G01 X-111.5405 Y-4.9069
G01 X-111.7252 Y-4.8465
G01 X-111.9173 Y-4.8171
G01 X-112.1116 Y-4.8195
G01 X-112.3029 Y-4.8536
G01 X-112.4861 Y-4.9184
G01 X-112.6562 Y-5.0124
G01 X-112.8087 Y-5.1328
G01 X-112.9395 Y-5.2765
G01 X-113.0450 Y-5.4397
G01 X-113.1225 Y-5.6179
G01 X-113.1698 Y-5.8063
G01 X-113.1928 Y-6.0188
G01 X-113.2650 Y-6.1567
G01 X-114.9174 Y-7.8065
G01 X-115.0169 Y-7.9285
G01 X-115.0882 Y-8.0643
G01 X-115.1317 Y-8.2114
G01 X-115.1454 Y-8.3682
G01 X-115.1420 Y-11.9475
G01 X-115.1550 Y-12.0282
G01 X-115.1725 Y-12.0784
G01 X-115.2648 Y-12.2023
G01 X-115.3268 Y-12.2432
G01 X-115.4453 Y-12.2840
G01 X-115.5092 Y-12.2864
G01 X-115.6285 Y-12.2603
G01 X-115.6929 Y-12.2257
G01 X-115.7558 Y-12.1675
G01 X-115.8487 Y-12.0487
G01 X-115.9133 Y-12.0004
G01 X-116.0141 Y-11.9683
G01 X-117.7859 Y-11.9683
G01 X-117.8867 Y-12.0004
G01 X-117.9513 Y-12.0487
G01 X-118.0270 Y-12.1429
G01 X-118.0822 Y-12.1862
G01 X-118.2033 Y-12.2380
G01 X-118.2898 Y-12.2423
G01 X-118.3770 Y-12.2291
G01 X-118.4281 Y-12.2112
G01 X-118.5380 Y-12.1254
G01 X-118.5888 Y-12.0534
G01 X-118.6270 Y-11.9170
G01 X-118.6283 Y-8.8799
G01 X-118.6228 Y-8.8185
G01 X-118.6082 Y-8.7664
G01 X-118.5592 Y-8.6744
G01 X-118.5296 Y-8.6353
G01 X-117.1393 Y-7.2502
G01 X-117.0864 Y-7.2197
G01 X-116.9938 Y-7.1885
G01 X-116.8596 Y-7.1774
G01 X-116.6692 Y-7.1387
G01 X-116.4876 Y-7.0694
G01 X-116.3199 Y-6.9713
G01 X-116.1704 Y-6.8472
G01 X-116.0431 Y-6.7003
G01 X-115.9416 Y-6.5346
G01 X-115.8685 Y-6.3546
G01 X-115.8258 Y-6.1650
G01 X-115.8146 Y-5.9710
G01 X-115.8352 Y-5.7778
G01 X-115.8872 Y-5.5906
G01 X-115.9690 Y-5.4143
G01 X-116.0785 Y-5.2538
G01 X-116.2127 Y-5.1133
G01 X-116.3681 Y-4.9966
G01 X-116.5405 Y-4.9069
G01 X-116.7252 Y-4.8465
G01 X-116.9173 Y-4.8171
G01 X-117.0573 Y-4.8188
G01 X-117.1116 Y-4.8195
G01 X-117.3029 Y-4.8536
G01 X-117.4861 Y-4.9184
G01 X-117.6562 Y-5.0124
G01 X-117.8087 Y-5.1328
G01 X-117.9395 Y-5.2765
G01 X-118.0450 Y-5.4397
G01 X-118.1225 Y-5.6179
G01 X-118.1698 Y-5.8063
G01 X-118.1928 Y-6.0188
G01 X-118.2650 Y-6.1567
G01 X-119.9674 Y-7.8565
G01 X-120.0669 Y-7.9785
G01 X-120.1382 Y-8.1143
G01 X-120.1817 Y-8.2614
G01 X-120.1954 Y-8.4182
G01 X-120.1920 Y-19.3300
G01 X-120.2013 Y-19.3844
G01 X-120.2430 Y-19.5017
G01 X-120.3504 Y-19.6571
G01 X-120.3817 Y-19.7149
G01 X-120.4634 Y-19.8069
G01 X-120.5292 Y-19.8462
G01 X-120.6558 Y-19.8808
G01 X-120.7146 Y-19.8792
G01 X-120.8185 Y-19.8511
G01 X-120.8949 Y-19.8079
G01 X-120.9864 Y-19.7028
G01 X-121.0096 Y-19.6571
G01 X-121.1251 Y-19.4856
G01 X-121.1617 Y-19.3737
G01 X-121.1683 Y-19.3193
G01 X-121.1683 Y-6.9764
G01 X-121.1562 Y-6.8894
G01 X-121.1142 Y-6.7936
G01 X-121.0431 Y-6.7003
G01 X-120.9416 Y-6.5346
G01 X-120.8685 Y-6.3546
G01 X-120.8258 Y-6.1650
G01 X-120.8146 Y-5.9710
G01 X-120.8352 Y-5.7778
G01 X-120.8872 Y-5.5906
G01 X-120.9690 Y-5.4143
G01 X-121.0785 Y-5.2538
G01 X-121.2127 Y-5.1133
G01 X-121.3681 Y-4.9966
G01 X-121.5405 Y-4.9069
G01 X-121.7252 Y-4.8465
G01 X-121.9173 Y-4.8171
G01 X-122.0573 Y-4.8188
G01 X-122.1116 Y-4.8195
G01 X-122.3029 Y-4.8536
G01 X-122.4861 Y-4.9184
G01 X-122.6562 Y-5.0124
G01 X-122.8087 Y-5.1328
G01 X-122.9395 Y-5.2765
G01 X-123.0450 Y-5.4397
G01 X-123.1225 Y-5.6179
G01 X-123.1698 Y-5.8063
G00 X-123.1698 Y-5.8063
G01 F60.00
G01 Z-0.0750
G01 F120.00
G01 X-123.1225 Y-5.6179
G01 X-123.0450 Y-5.4397
G01 X-122.9395 Y-5.2765
G01 X-122.8087 Y-5.1328
G01 X-122.6562 Y-5.0124
G01 X-122.4861 Y-4.9184
G01 X-122.3029 Y-4.8536
G01 X-122.1116 Y-4.8195
G01 X-122.0573 Y-4.8188
G01 X-121.9173 Y-4.8171
G01 X-121.7252 Y-4.8465
G01 X-121.5405 Y-4.9069
G01 X-121.3681 Y-4.9966
G01 X-121.2127 Y-5.1133
G01 X-121.0785 Y-5.2538
G01 X-120.9690 Y-5.4143
G01 X-120.8872 Y-5.5906
G01 X-120.8352 Y-5.7778
G01 X-120.8146 Y-5.9710
G01 X-120.8258 Y-6.1650
G01 X-120.8685 Y-6.3546
G01 X-120.9416 Y-6.5346
G01 X-121.0431 Y-6.7003
G01 X-121.1142 Y-6.7936
G01 X-121.1562 Y-6.8894
G01 X-121.1683 Y-6.9764
G01 X-121.1683 Y-19.3193
G01 X-121.1617 Y-19.3737
G01 X-121.1251 Y-19.4856
G01 X-121.0096 Y-19.6571
G01 X-120.9864 Y-19.7028
G01 X-120.8949 Y-19.8079
G01 X-120.8185 Y-19.8511
G01 X-120.7146 Y-19.8792
G01 X-120.6558 Y-19.8808
G01 X-120.5292 Y-19.8462
G01 X-120.4634 Y-19.8069
G01 X-120.3817 Y-19.7149
G01 X-120.3504 Y-19.6571
G01 X-120.2430 Y-19.5017
G01 X-120.2013 Y-19.3844
G01 X-120.1920 Y-19.3300
G01 X-120.1954 Y-8.4182
G01 X-120.1817 Y-8.2614
G01 X-120.1382 Y-8.1143
G01 X-120.0669 Y-7.9785
G01 X-119.9674 Y-7.8565
G01 X-118.2650 Y-6.1567
G01 X-118.1928 Y-6.0188
G01 X-118.1698 Y-5.8063
G01 X-118.1225 Y-5.6179
G01 X-118.0450 Y-5.4397
G01 X-117.9395 Y-5.2765
G01 X-117.8087 Y-5.1328
G01 X-117.6562 Y-5.0124
G01 X-117.4861 Y-4.9184
G01 X-117.3029 Y-4.8536
G01 X-117.1116 Y-4.8195
G01 X-117.0573 Y-4.8188
G01 X-116.9173 Y-4.8171
G01 X-116.7252 Y-4.8465
G01 X-116.5405 Y-4.9069
G01 X-116.3681 Y-4.9966
G01 X-116.2127 Y-5.1133
G01 X-116.0785 Y-5.2538
G01 X-115.9690 Y-5.4143
G01 X-115.8872 Y-5.5906
G01 X-115.8352 Y-5.7778
G01 X-115.8146 Y-5.9710
G01 X-115.8258 Y-6.1650
G01 X-115.8685 Y-6.3546
G01 X-115.9416 Y-6.5346
G01 X-116.0431 Y-6.7003
G01 X-116.1704 Y-6.8472
G01 X-116.3199 Y-6.9713
G01 X-116.4876 Y-7.0694
G01 X-116.6692 Y-7.1387
G01 X-116.8596 Y-7.1774
G01 X-116.9938 Y-7.1885
G01 X-117.0864 Y-7.2197
G01 X-117.1393 Y-7.2502
G01 X-118.5296 Y-8.6353
G01 X-118.5592 Y-8.6744
G01 X-118.6082 Y-8.7664
G01 X-118.6228 Y-8.8185
G01 X-118.6283 Y-8.8799
G01 X-118.6270 Y-11.9170
G01 X-118.5888 Y-12.0534
G01 X-118.5380 Y-12.1254
G01 X-118.4281 Y-12.2112
G01 X-118.3770 Y-12.2291
G01 X-118.2898 Y-12.2423
G01 X-118.2033 Y-12.2380
G01 X-118.0822 Y-12.1862
G01 X-118.0270 Y-12.1429
G01 X-117.9513 Y-12.0487
G01 X-117.8867 Y-12.0004
G01 X-117.7859 Y-11.9683
G01 X-116.0141 Y-11.9683
G01 X-115.9133 Y-12.0004
G01 X-115.8487 Y-12.0487
G01 X-115.7558 Y-12.1675
G01 X-115.6929 Y-12.2257
G01 X-115.6285 Y-12.2603
G01 X-115.5092 Y-12.2864
G01 X-115.4453 Y-12.2840
G01 X-115.3268 Y-12.2432
G01 X-115.2648 Y-12.2023
G01 X-115.1725 Y-12.0784
G01 X-115.1550 Y-12.0282
G01 X-115.1420 Y-11.9475
G01 X-115.1454 Y-8.3682
G01 X-115.1317 Y-8.2114
G01 X-115.0882 Y-8.0643
G01 X-115.0169 Y-7.9285
G01 X-114.9174 Y-7.8065
G01 X-113.2650 Y-6.1567
G01 X-113.1928 Y-6.0188
G01 X-113.1698 Y-5.8063
G01 X-113.1225 Y-5.6179
G01 X-113.0450 Y-5.4397
G01 X-112.9395 Y-5.2765
G01 X-112.8087 Y-5.1328
G01 X-112.6562 Y-5.0124
G01 X-112.4861 Y-4.9184
G01 X-112.3029 Y-4.8536
G01 X-112.1116 Y-4.8195
G01 X-111.9173 Y-4.8171
G01 X-111.7252 Y-4.8465
G01 X-111.5405 Y-4.9069
G01 X-111.3681 Y-4.9966
G01 X-111.2127 Y-5.1133
G01 X-111.0785 Y-5.2538
G01 X-110.9690 Y-5.4143
G01 X-110.8872 Y-5.5906
G01 X-110.8352 Y-5.7778
G01 X-110.8146 Y-5.9710
G01 X-110.8258 Y-6.1650
G01 X-110.8685 Y-6.3546
G01 X-110.9416 Y-6.5346
G01 X-111.0431 Y-6.7003
G01 X-111.1704 Y-6.8472
G01 X-111.3199 Y-6.9713
G01 X-111.4876 Y-7.0694
G01 X-111.6692 Y-7.1387
G01 X-111.8596 Y-7.1774
G01 X-111.9938 Y-7.1885
G01 X-112.0864 Y-7.2197
G01 X-112.1393 Y-7.2502
G01 X-113.4796 Y-8.5853
G01 X-113.5092 Y-8.6244
G01 X-113.5582 Y-8.7164
G01 X-113.5728 Y-8.7685
G01 X-113.5783 Y-8.8299
G01 X-113.5783 Y-12.1384
G01 X-113.5714 Y-12.1941
G01 X-113.5344 Y-12.3078
G01 X-113.3593 Y-12.5541
G01 X-113.2724 Y-12.6275
G01 X-113.2202 Y-12.6561
G01 X-113.1644 Y-12.6699
G01 X-113.0565 Y-12.6793
G01 X-112.9757 Y-12.6600
G01 X-112.8588 Y-12.5957
G01 X-112.7999 Y-12.5305
G01 X-112.7197 Y-12.4071
G01 X-112.5945 Y-12.2695
G01 X-112.4484 Y-12.1541
G01 X-112.2855 Y-12.0642
G01 X-112.1101 Y-12.0021
G01 X-111.9269 Y-11.9694
G01 X-111.7408 Y-11.9672
G01 X-111.5568 Y-11.9953
G01 X-111.3799 Y-12.0531
G01 X-111.2149 Y-12.1391
G01 X-111.0661 Y-12.2508
G01 X-110.9375 Y-12.3854
G01 X-110.8326 Y-12.5391
G01 X-110.7543 Y-12.7079
G01 X-110.7045 Y-12.8872
G01 X-110.6847 Y-13.0723
G01 X-110.6955 Y-13.2580
G01 X-110.7364 Y-13.4396
G01 X-110.8064 Y-13.6120
G01 X-110.9542 Y-13.8403
G01 X-110.9962 Y-13.9361
G01 X-111.0077 Y-14.0069
G01 X-111.0083 Y-19.3193
G01 X-110.9987 Y-19.3844
G01 X-110.9691 Y-19.4762
G01 X-110.9490 Y-19.5149
G01 X-110.8496 Y-19.6571
G01 X-110.8135 Y-19.7213
G01 X-110.7412 Y-19.8023
G01 X-110.6875 Y-19.8392
G01 X-110.5664 Y-19.8770
G01 X-110.5074 Y-19.8817
G01 X-110.3773 Y-19.8491
G01 X-110.3228 Y-19.8217
G01 X-110.2279 Y-19.7231
G01 X-110.0910 Y-19.5149
G01 X-110.0696 Y-19.4728
G01 X-110.0383 Y-19.3737
G01 X-110.0317 Y-19.3193
G01 X-110.0354 Y-16.9032
G01 X-110.0217 Y-16.7464
G01 X-109.9782 Y-16.5993
G01 X-109.9069 Y-16.4635
G01 X-109.8074 Y-16.3415
G01 X-106.6730 Y-13.2116
G01 X-106.5964 Y-13.0745
G01 X-106.5753 Y-12.9145
G01 X-106.5300 Y-12.7340
G01 X-106.4558 Y-12.5634
G01 X-106.3547 Y-12.4071
G01 X-106.2295 Y-12.2695
G01 X-106.0834 Y-12.1541
G01 X-105.9205 Y-12.0642
G01 X-105.7451 Y-12.0021
G01 X-105.5619 Y-11.9694
G01 X-105.3758 Y-11.9672
G01 X-105.1918 Y-11.9953
G01 X-105.0149 Y-12.0531
G01 X-104.8499 Y-12.1391
G01 X-104.7011 Y-12.2508
G01 X-104.5725 Y-12.3854
G01 X-104.4543 Y-12.5541
G01 X-104.3584 Y-12.6338
G01 X-104.2824 Y-12.6660
G01 X-104.1628 Y-12.6796
G01 X-104.0707 Y-12.6600
G01 X-103.9793 Y-12.6142
G01 X-103.9386 Y-12.5819
G01 X-103.7617 Y-12.3423
G01 X-103.7039 Y-12.2111
G01 X-103.6967 Y-12.1409
G01 X-103.6970 Y-10.5430
G01 X-103.7285 Y-10.4145
G01 X-103.7633 Y-10.3491
G01 X-106.8303 Y-7.2762
G01 X-106.9681 Y-7.1993
G01 X-107.2465 Y-7.1598
G01 X-107.4327 Y-7.1040
G01 X-107.6072 Y-7.0185
G01 X-107.7654 Y-6.9057
G01 X-107.9030 Y-6.7685
G01 X-108.0164 Y-6.6107
G01 X-108.1025 Y-6.4365
G01 X-108.1590 Y-6.2506
G01 X-108.1852 Y-6.0514
G01 X-108.1698 Y-5.8063
G01 X-108.1225 Y-5.6179
G01 X-108.0450 Y-5.4397
G01 X-107.9395 Y-5.2765
G01 X-107.8087 Y-5.1328
G01 X-107.6562 Y-5.0124
G01 X-107.4861 Y-4.9184
G01 X-107.3029 Y-4.8536
G01 X-107.1116 Y-4.8195
G01 X-106.9173 Y-4.8171
G01 X-106.7252 Y-4.8465
G01 X-106.5405 Y-4.9069
G01 X-106.3681 Y-4.9966
G01 X-106.2127 Y-5.1133
G01 X-106.0785 Y-5.2538
G01 X-105.9690 Y-5.4143
G01 X-105.8872 Y-5.5906
G01 X-105.8352 Y-5.7778
G01 X-105.8079 Y-6.0054
G01 X-105.7642 Y-6.1137
G01 X-105.7309 Y-6.1621
G01 X-102.3654 Y-9.5238
G01 X-102.2642 Y-9.6444
G01 X-102.1910 Y-9.7792
G01 X-102.1454 Y-9.9256
G01 X-102.1330 Y-10.0439
G01 X-102.1330 Y-11.9471
G01 X-102.0938 Y-12.0954
G01 X-102.0655 Y-12.1425
G01 X-102.0350 Y-12.1747
G01 X-101.9634 Y-12.2352
G01 X-101.9044 Y-12.2650
G01 X-101.7751 Y-12.2863
G01 X-101.7083 Y-12.2801
G01 X-101.6038 Y-12.2367
G01 X-101.5583 Y-12.2090
G01 X-101.5030 Y-12.1504
G01 X-101.4263 Y-12.0487
G01 X-101.3617 Y-12.0004
G01 X-101.2609 Y-11.9683
G01 X-99.4891 Y-11.9683
G01 X-99.3883 Y-12.0004
G01 X-99.3237 Y-12.0487
G01 X-99.2754 Y-12.1133
G01 X-99.2433 Y-12.2141
G01 X-99.2456 Y-14.0074
G01 X-99.2754 Y-14.0867
G01 X-99.3237 Y-14.1513
G01 X-99.3883 Y-14.1996
G01 X-99.4676 Y-14.2294
G01 X-99.5830 Y-14.2345
G01 X-99.6968 Y-14.2668
G01 X-99.7571 Y-14.3014
G01 X-99.8604 Y-14.3952
G01 X-108.0095 Y-22.5496
G01 X-108.1301 Y-22.6508
G01 X-108.2649 Y-22.7240
G01 X-108.4114 Y-22.7696
G01 X-108.5680 Y-22.7855
G01 X-112.5218 Y-22.7854
G01 X-112.6786 Y-22.7717
G01 X-112.8257 Y-22.7282
G01 X-112.9615 Y-22.6569
G01 X-113.0835 Y-22.5574
G01 X-114.2830 Y-21.3552
G01 X-114.4095 Y-21.2867
G01 X-114.5186 Y-21.2693
G01 X-114.7014 Y-21.2203
G01 X-114.8729 Y-21.1404
G01 X-115.0280 Y-21.0318
G01 X-115.1618 Y-20.8980
G01 X-115.2704 Y-20.7429
G01 X-115.2998 Y-20.6878
G01 X-115.3851 Y-20.5921
G01 X-115.4526 Y-20.5521
G01 X-115.5772 Y-20.5193
G01 X-115.6470 Y-20.5227
G01 X-115.7346 Y-20.5482
G01 X-115.8166 Y-20.5931
G01 X-115.8983 Y-20.6851
G01 X-115.9296 Y-20.7429
G01 X-116.0382 Y-20.8980
G01 X-116.1720 Y-21.0318
G01 X-116.3271 Y-21.1404
G01 X-116.4986 Y-21.2203
G01 X-116.6814 Y-21.2693
G01 X-116.8700 Y-21.2858
G01 X-117.0586 Y-21.2693
G01 X-117.2414 Y-21.2203
G01 X-117.4129 Y-21.1404
G01 X-117.5680 Y-21.0318
G01 X-117.7018 Y-20.8980
G01 X-117.8104 Y-20.7429
G01 X-117.8398 Y-20.6878
G01 X-117.9251 Y-20.5921
G01 X-118.0015 Y-20.5489
G01 X-118.0936 Y-20.5230
G01 X-118.1410 Y-20.5180
G01 X-118.1968 Y-20.5250
G01 X-118.2827 Y-20.5509
G01 X-118.3566 Y-20.5931
G01 X-118.4383 Y-20.6851
G01 X-118.4696 Y-20.7429
G01 X-118.5782 Y-20.8980
G01 X-118.7120 Y-21.0318
G01 X-118.8671 Y-21.1404
G01 X-119.0386 Y-21.2203
G01 X-119.2214 Y-21.2693
G01 X-119.4100 Y-21.2858
G01 X-119.5986 Y-21.2693
G01 X-119.7814 Y-21.2203
G01 X-119.9529 Y-21.1404
G01 X-120.1080 Y-21.0318
G01 X-120.2418 Y-20.8980
G01 X-120.3504 Y-20.7429
G01 X-120.3798 Y-20.6878
G01 X-120.4651 Y-20.5921
G01 X-120.5415 Y-20.5489
G01 X-120.6336 Y-20.5230
G01 X-120.6810 Y-20.5180
G01 X-120.7368 Y-20.5250
G01 X-120.8227 Y-20.5509
G01 X-120.8871 Y-20.5854
G01 X-120.9783 Y-20.6851
G01 X-121.0096 Y-20.7429
G01 X-121.1182 Y-20.8980
G01 X-121.2520 Y-21.0318
G01 X-121.4071 Y-21.1404
G01 X-121.5786 Y-21.2203
G01 X-121.7614 Y-21.2693
G01 X-121.9500 Y-21.2858
G01 X-122.1386 Y-21.2693
G01 X-122.3214 Y-21.2203
G01 X-122.4929 Y-21.1404
G01 X-122.6480 Y-21.0318
G01 X-122.7818 Y-20.8980
G01 X-122.8904 Y-20.7429
G01 X-122.9703 Y-20.5714
G01 X-122.9808 Y-20.5322
G01 X-123.0193 Y-20.3886
G01 X-123.0358 Y-20.2000
G01 X-123.0193 Y-20.0114
G01 X-122.9703 Y-19.8286
G01 X-122.8904 Y-19.6571
G01 X-122.7749 Y-19.4856
G01 X-122.7383 Y-19.3737
G01 X-122.7317 Y-19.3193
G01 X-122.7317 Y-7.0857
G01 X-122.7386 Y-7.0300
G01 X-122.7802 Y-6.9075
G01 X-122.8249 Y-6.8471
G01 X-122.9030 Y-6.7685
G01 X-123.0164 Y-6.6107
G01 X-123.1025 Y-6.4365
G01 X-123.1590 Y-6.2506
G01 X-123.1852 Y-6.0514
G01 X-123.1698 Y-5.8063
G00 X-123.1698 Y-5.8063
G01 F60.00
G01 Z-0.1000
G01 F120.00
G01 X-123.1852 Y-6.0514
G01 X-123.1590 Y-6.2506
G01 X-123.1025 Y-6.4365
G01 X-123.0164 Y-6.6107
G01 X-122.9030 Y-6.7685
G01 X-122.8249 Y-6.8471
G01 X-122.7802 Y-6.9075
G01 X-122.7386 Y-7.0300
G01 X-122.7317 Y-7.0857
G01 X-122.7317 Y-19.3193
G01 X-122.7383 Y-19.3737
G01 X-122.7749 Y-19.4856
G01 X-122.8904 Y-19.6571
G01 X-122.9703 Y-19.8286
G01 X-123.0193 Y-20.0114
G01 X-123.0358 Y-20.2000
G01 X-123.0193 Y-20.3886
G01 X-122.9808 Y-20.5322
G01 X-122.9703 Y-20.5714
G01 X-122.8904 Y-20.7429
G01 X-122.7818 Y-20.8980
G01 X-122.6480 Y-21.0318
G01 X-122.4929 Y-21.1404
G01 X-122.3214 Y-21.2203
G01 X-122.1386 Y-21.2693
G01 X-121.9500 Y-21.2858
G01 X-121.7614 Y-21.2693
G01 X-121.5786 Y-21.2203
G01 X-121.4071 Y-21.1404
G01 X-121.2520 Y-21.0318
G01 X-121.1182 Y-20.8980
G01 X-121.0096 Y-20.7429
G01 X-120.9783 Y-20.6851
G01 X-120.8871 Y-20.5854
G01 X-120.8227 Y-20.5509
G01 X-120.7368 Y-20.5250
G01 X-120.6810 Y-20.5180
G01 X-120.6336 Y-20.5230
G01 X-120.5415 Y-20.5489
G01 X-120.4651 Y-20.5921
G01 X-120.3798 Y-20.6878
G01 X-120.3504 Y-20.7429
G01 X-120.2418 Y-20.8980
G01 X-120.1080 Y-21.0318
G01 X-119.9529 Y-21.1404
G01 X-119.7814 Y-21.2203
G01 X-119.5986 Y-21.2693
G01 X-119.4100 Y-21.2858
G01 X-119.2214 Y-21.2693
G01 X-119.0386 Y-21.2203
G01 X-118.8671 Y-21.1404
G01 X-118.7120 Y-21.0318
G01 X-118.5782 Y-20.8980
G01 X-118.4696 Y-20.7429
G01 X-118.4383 Y-20.6851
G01 X-118.3566 Y-20.5931
G01 X-118.2827 Y-20.5509
G01 X-118.1968 Y-20.5250
G01 X-118.1410 Y-20.5180
G01 X-118.0936 Y-20.5230
G01 X-118.0015 Y-20.5489
G01 X-117.9251 Y-20.5921
G01 X-117.8398 Y-20.6878
G01 X-117.8104 Y-20.7429
G01 X-117.7018 Y-20.8980
G01 X-117.5680 Y-21.0318
G01 X-117.4129 Y-21.1404
G01 X-117.2414 Y-21.2203
G01 X-117.0586 Y-21.2693
G01 X-116.8700 Y-21.2858
G01 X-116.6814 Y-21.2693
G01 X-116.4986 Y-21.2203
G01 X-116.3271 Y-21.1404
G01 X-116.1720 Y-21.0318
G01 X-116.0382 Y-20.8980
G01 X-115.9296 Y-20.7429
G01 X-115.8983 Y-20.6851
G01 X-115.8166 Y-20.5931
G01 X-115.7346 Y-20.5482
G01 X-115.6470 Y-20.5227
G01 X-115.5772 Y-20.5193
G01 X-115.4526 Y-20.5521
G01 X-115.3851 Y-20.5921
G01 X-115.2998 Y-20.6878
G01 X-115.2704 Y-20.7429
G01 X-115.1618 Y-20.8980
G01 X-115.0280 Y-21.0318
G01 X-114.8729 Y-21.1404
G01 X-114.7014 Y-21.2203
G01 X-114.5186 Y-21.2693
G01 X-114.4095 Y-21.2867
G01 X-114.2830 Y-21.3552
G01 X-113.0835 Y-22.5574
G01 X-112.9615 Y-22.6569
G01 X-112.8257 Y-22.7282
G01 X-112.6786 Y-22.7717
G01 X-112.5218 Y-22.7854
G01 X-108.5680 Y-22.7855
G01 X-108.4114 Y-22.7696
G01 X-108.2649 Y-22.7240
G01 X-108.1301 Y-22.6508
G01 X-108.0095 Y-22.5496
G01 X-99.8604 Y-14.3952
G01 X-99.7571 Y-14.3014
G01 X-99.6968 Y-14.2668
G01 X-99.5830 Y-14.2345
G01 X-99.4676 Y-14.2294
G01 X-99.3883 Y-14.1996
G01 X-99.3237 Y-14.1513
G01 X-99.2754 Y-14.0867
G01 X-99.2456 Y-14.0074
G01 X-99.2433 Y-12.2141
G01 X-99.2754 Y-12.1133
G01 X-99.3237 Y-12.0487
G01 X-99.3883 Y-12.0004
G01 X-99.4891 Y-11.9683
G01 X-101.2609 Y-11.9683
G01 X-101.3617 Y-12.0004
G01 X-101.4263 Y-12.0487
G01 X-101.5030 Y-12.1504
G01 X-101.5583 Y-12.2090
G01 X-101.6038 Y-12.2367
G01 X-101.7083 Y-12.2801
G01 X-101.7751 Y-12.2863
G01 X-101.9044 Y-12.2650
G01 X-101.9634 Y-12.2352
G01 X-102.0350 Y-12.1747
G01 X-102.0655 Y-12.1425
G01 X-102.0938 Y-12.0954
G01 X-102.1330 Y-11.9471
G01 X-102.1330 Y-10.0439
G01 X-102.1454 Y-9.9256
G01 X-102.1910 Y-9.7792
G01 X-102.2642 Y-9.6444
G01 X-102.3654 Y-9.5238
G01 X-105.7309 Y-6.1621
G01 X-105.7642 Y-6.1137
G01 X-105.8079 Y-6.0054
G01 X-105.8352 Y-5.7778
G01 X-105.8872 Y-5.5906
G01 X-105.9690 Y-5.4143
G01 X-106.0785 Y-5.2538
G01 X-106.2127 Y-5.1133
G01 X-106.3681 Y-4.9966
G01 X-106.5405 Y-4.9069
G01 X-106.7252 Y-4.8465
G01 X-106.9173 Y-4.8171
G01 X-107.1116 Y-4.8195
G01 X-107.3029 Y-4.8536
G01 X-107.4861 Y-4.9184
G01 X-107.6562 Y-5.0124
G01 X-107.8087 Y-5.1328
G01 X-107.9395 Y-5.2765
G01 X-108.0450 Y-5.4397
G01 X-108.1225 Y-5.6179
G01 X-108.1698 Y-5.8063
G01 X-108.1852 Y-6.0514
G01 X-108.1590 Y-6.2506
G01 X-108.1025 Y-6.4365
G01 X-108.0164 Y-6.6107
G01 X-107.9030 Y-6.7685
G01 X-107.7654 Y-6.9057
G01 X-107.6072 Y-7.0185
G01 X-107.4327 Y-7.1040
G01 X-107.2465 Y-7.1598
G01 X-106.9681 Y-7.1993
G01 X-106.8303 Y-7.2762
G01 X-103.7633 Y-10.3491
G01 X-103.7285 Y-10.4145
G01 X-103.6970 Y-10.5430
G01 X-103.6967 Y-12.1409
G01 X-103.7039 Y-12.2111
G01 X-103.7617 Y-12.3423
G01 X-103.9386 Y-12.5819
G01 X-103.9793 Y-12.6142
G01 X-104.0707 Y-12.6600
G01 X-104.1628 Y-12.6796
G01 X-104.2824 Y-12.6660
G01 X-104.3584 Y-12.6338
G01 X-104.4543 Y-12.5541
G01 X-104.5725 Y-12.3854
G01 X-104.7011 Y-12.2508
G01 X-104.8499 Y-12.1391
G01 X-105.0149 Y-12.0531
G01 X-105.1918 Y-11.9953
G01 X-105.3758 Y-11.9672
G01 X-105.5619 Y-11.9694
G01 X-105.7451 Y-12.0021
G01 X-105.9205 Y-12.0642
G01 X-106.0834 Y-12.1541
G01 X-106.2295 Y-12.2695
G01 X-106.3547 Y-12.4071
G01 X-106.4558 Y-12.5634
G01 X-106.5300 Y-12.7340
G01 X-106.5753 Y-12.9145
G01 X-106.5964 Y-13.0745
G01 X-106.6730 Y-13.2116
G01 X-109.8074 Y-16.3415
G01 X-109.9069 Y-16.4635
G01 X-109.9782 Y-16.5993
G01 X-110.0217 Y-16.7464
G01 X-110.0354 Y-16.9032
G01 X-110.0317 Y-19.3193
G01 X-110.0383 Y-19.3737
G01 X-110.0696 Y-19.4728
G01 X-110.0910 Y-19.5149
G01 X-110.2279 Y-19.7231
G01 X-110.3228 Y-19.8217
G01 X-110.3773 Y-19.8491
G01 X-110.5074 Y-19.8817
G01 X-110.5664 Y-19.8770
G01 X-110.6875 Y-19.8392
G01 X-110.7412 Y-19.8023
G01 X-110.8135 Y-19.7213
G01 X-110.8496 Y-19.6571
G01 X-110.9490 Y-19.5149
G01 X-110.9691 Y-19.4762
G01 X-110.9987 Y-19.3844
G01 X-111.0083 Y-19.3193
G01 X-111.0077 Y-14.0069
G01 X-110.9962 Y-13.9361
G01 X-110.9542 Y-13.8403
G01 X-110.8064 Y-13.6120
G01 X-110.7364 Y-13.4396
G01 X-110.6955 Y-13.2580
G01 X-110.6847 Y-13.0723
G01 X-110.7045 Y-12.8872
G01 X-110.7543 Y-12.7079
G01 X-110.8326 Y-12.5391
G01 X-110.9375 Y-12.3854
G01 X-111.0661 Y-12.2508
G01 X-111.2149 Y-12.1391
G01 X-111.3799 Y-12.0531
G01 X-111.5568 Y-11.9953
G01 X-111.7408 Y-11.9672
G01 X-111.9269 Y-11.9694
G01 X-112.1101 Y-12.0021
G01 X-112.2855 Y-12.0642
G01 X-112.4484 Y-12.1541
G01 X-112.5945 Y-12.2695
G01 X-112.7197 Y-12.4071
G01 X-112.7999 Y-12.5305
G01 X-112.8588 Y-12.5957
G01 X-112.9757 Y-12.6600
G01 X-113.0565 Y-12.6793
G01 X-113.1644 Y-12.6699
G01 X-113.2202 Y-12.6561
G01 X-113.2724 Y-12.6275
G01 X-113.3593 Y-12.5541
G01 X-113.5344 Y-12.3078
G01 X-113.5714 Y-12.1941
G01 X-113.5783 Y-12.1384
G01 X-113.5783 Y-8.8299
G01 X-113.5728 Y-8.7685
G01 X-113.5582 Y-8.7164
G01 X-113.5092 Y-8.6244
G01 X-113.4796 Y-8.5853
G01 X-112.1393 Y-7.2502
G01 X-112.0864 Y-7.2197
G01 X-111.9938 Y-7.1885
G01 X-111.8596 Y-7.1774
G01 X-111.6692 Y-7.1387
G01 X-111.4876 Y-7.0694
G01 X-111.3199 Y-6.9713
G01 X-111.1704 Y-6.8472
G01 X-111.0431 Y-6.7003
G01 X-110.9416 Y-6.5346
G01 X-110.8685 Y-6.3546
G01 X-110.8258 Y-6.1650
G01 X-110.8146 Y-5.9710
G01 X-110.8352 Y-5.7778
G01 X-110.8872 Y-5.5906
G01 X-110.9690 Y-5.4143
G01 X-111.0785 Y-5.2538
G01 X-111.2127 Y-5.1133
G01 X-111.3681 Y-4.9966
G01 X-111.5405 Y-4.9069
G01 X-111.7252 Y-4.8465
G01 X-111.9173 Y-4.8171
G01 X-112.1116 Y-4.8195
G01 X-112.3029 Y-4.8536
G01 X-112.4861 Y-4.9184
G01 X-112.6562 Y-5.0124
G01 X-112.8087 Y-5.1328
G01 X-112.9395 Y-5.2765
G01 X-113.0450 Y-5.4397
G01 X-113.1225 Y-5.6179
G01 X-113.1698 Y-5.8063
G01 X-113.1928 Y-6.0188
G01 X-113.2650 Y-6.1567
G01 X-114.9174 Y-7.8065
G01 X-115.0169 Y-7.9285
G01 X-115.0882 Y-8.0643
G01 X-115.1317 Y-8.2114
G01 X-115.1454 Y-8.3682
G01 X-115.1420 Y-11.9475
G01 X-115.1550 Y-12.0282
G01 X-115.1725 Y-12.0784
G01 X-115.2648 Y-12.2023
G01 X-115.3268 Y-12.2432
G01 X-115.4453 Y-12.2840
G01 X-115.5092 Y-12.2864
G01 X-115.6285 Y-12.2603
G01 X-115.6929 Y-12.2257
G01 X-115.7558 Y-12.1675
G01 X-115.8487 Y-12.0487
G01 X-115.9133 Y-12.0004
G01 X-116.0141 Y-11.9683
G01 X-117.7859 Y-11.9683
G01 X-117.8867 Y-12.0004
G01 X-117.9513 Y-12.0487
G01 X-118.0270 Y-12.1429
G01 X-118.0822 Y-12.1862
G01 X-118.2033 Y-12.2380
G01 X-118.2898 Y-12.2423
G01 X-118.3770 Y-12.2291
G01 X-118.4281 Y-12.2112
G01 X-118.5380 Y-12.1254
G01 X-118.5888 Y-12.0534
G01 X-118.6270 Y-11.9170
G01 X-118.6283 Y-8.8799
G01 X-118.6228 Y-8.8185
G01 X-118.6082 Y-8.7664
G01 X-118.5592 Y-8.6744
G01 X-118.5296 Y-8.6353
G01 X-117.1393 Y-7.2502
G01 X-117.0864 Y-7.2197
G01 X-116.9938 Y-7.1885
G01 X-116.8596 Y-7.1774
G01 X-116.6692 Y-7.1387
G01 X-116.4876 Y-7.0694
G01 X-116.3199 Y-6.9713
G01 X-116.1704 Y-6.8472
G01 X-116.0431 Y-6.7003
G01 X-115.9416 Y-6.5346
G01 X-115.8685 Y-6.3546
G01 X-115.8258 Y-6.1650
G01 X-115.8146 Y-5.9710
G01 X-115.8352 Y-5.7778
G01 X-115.8872 Y-5.5906
G01 X-115.9690 Y-5.4143
G01 X-116.0785 Y-5.2538
G01 X-116.2127 Y-5.1133
G01 X-116.3681 Y-4.9966
G01 X-116.5405 Y-4.9069
G01 X-116.7252 Y-4.8465
G01 X-116.9173 Y-4.8171
G01 X-117.0573 Y-4.8188
G01 X-117.1116 Y-4.8195
G01 X-117.3029 Y-4.8536
G01 X-117.4861 Y-4.9184
G01 X-117.6562 Y-5.0124
G01 X-117.8087 Y-5.1328
G01 X-117.9395 Y-5.2765
G01 X-118.0450 Y-5.4397
G01 X-118.1225 Y-5.6179
G01 X-118.1698 Y-5.8063
G01 X-118.1928 Y-6.0188
G01 X-118.2650 Y-6.1567
G01 X-119.9674 Y-7.8565
G01 X-120.0669 Y-7.9785
G01 X-120.1382 Y-8.1143
G01 X-120.1817 Y-8.2614
G01 X-120.1954 Y-8.4182
G01 X-120.1920 Y-19.3300
G01 X-120.2013 Y-19.3844
G01 X-120.2430 Y-19.5017
G01 X-120.3504 Y-19.6571
G01 X-120.3817 Y-19.7149
G01 X-120.4634 Y-19.8069
G01 X-120.5292 Y-19.8462
G01 X-120.6558 Y-19.8808
G01 X-120.7146 Y-19.8792
G01 X-120.8185 Y-19.8511
G01 X-120.8949 Y-19.8079
G01 X-120.9864 Y-19.7028
G01 X-121.0096 Y-19.6571
G01 X-121.1251 Y-19.4856
G01 X-121.1617 Y-19.3737
G01 X-121.1683 Y-19.3193
G01 X-121.1683 Y-6.9764
G01 X-121.1562 Y-6.8894
G01 X-121.1142 Y-6.7936
G01 X-121.0431 Y-6.7003
G01 X-120.9416 Y-6.5346
G01 X-120.8685 Y-6.3546
G01 X-120.8258 Y-6.1650
G01 X-120.8146 Y-5.9710
G01 X-120.8352 Y-5.7778
G01 X-120.8872 Y-5.5906
G01 X-120.9690 Y-5.4143
G01 X-121.0785 Y-5.2538
G01 X-121.2127 Y-5.1133
G01 X-121.3681 Y-4.9966
G01 X-121.5405 Y-4.9069
G01 X-121.7252 Y-4.8465
G01 X-121.9173 Y-4.8171
G01 X-122.0573 Y-4.8188
G01 X-122.1116 Y-4.8195
G01 X-122.3029 Y-4.8536
G01 X-122.4861 Y-4.9184
G01 X-122.6562 Y-5.0124
G01 X-122.8087 Y-5.1328
G01 X-122.9395 Y-5.2765
G01 X-123.0450 Y-5.4397
G01 X-123.1225 Y-5.6179
G01 X-123.1698 Y-5.8063
G00 Z2.0000
(Block-name: block)
(Block-expand: 0)
(Block-enable: 1)
G00 X-144.7552 Y-30.6494
G01 F60.00
G01 Z-0.0250
G01 F120.00
G01 X-144.2470 Y-30.1412
G01 X-136.9934 Y-30.1412
G01 X-136.8860 Y-30.2548
G01 X-136.7234 Y-30.3900
G01 X-136.8860 Y-30.5252
G01 X-136.9935 Y-30.6388
G01 X-144.6100 Y-30.6388
G01 X-144.7552 Y-30.6494
G00 X-144.7552 Y-30.6494
G01 F60.00
G01 Z-0.0500
G01 F120.00
G01 X-144.6100 Y-30.6388
G01 X-136.9935 Y-30.6388
G01 X-136.8860 Y-30.5252
G01 X-136.7234 Y-30.3900
G01 X-136.8860 Y-30.2548
G01 X-136.9934 Y-30.1412
G01 X-144.2470 Y-30.1412
G01 X-144.7552 Y-30.6494
G00 X-144.7552 Y-30.6494
G01 F60.00
G01 Z-0.0750
G01 F120.00
G01 X-144.2470 Y-30.1412
G01 X-136.9934 Y-30.1412
G01 X-136.8860 Y-30.2548
G01 X-136.7234 Y-30.3900
G01 X-136.8860 Y-30.5252
G01 X-136.9935 Y-30.6388
G01 X-144.6100 Y-30.6388
G01 X-144.7552 Y-30.6494
G00 X-144.7552 Y-30.6494
G01 F60.00
G01 Z-0.1000
G01 F120.00
G01 X-144.6100 Y-30.6388
G01 X-136.9935 Y-30.6388
G01 X-136.8860 Y-30.5252
G01 X-136.7234 Y-30.3900
G01 X-136.8860 Y-30.2548
G01 X-136.9934 Y-30.1412
G01 X-144.2470 Y-30.1412
G01 X-144.7552 Y-30.6494
G00 Z2.0000
(Block-name: block)
(Block-expand: 0)
(Block-enable: 1)
G00 X-144.6884 Y-33.1827
G01 F60.00
G01 Z-0.0250
G01 F120.00
G01 X-144.1870 Y-32.6812
G01 X-136.9934 Y-32.6812
G01 X-136.8860 Y-32.7948
G01 X-136.7234 Y-32.9300
G01 X-136.8860 Y-33.0652
G01 X-136.9935 Y-33.1788
G01 X-144.6884 Y-33.1827
G00 X-144.6884 Y-33.1827
G01 F60.00
G01 Z-0.0500
G01 F120.00
G01 X-136.9935 Y-33.1788
G01 X-136.8860 Y-33.0652
G01 X-136.7234 Y-32.9300
G01 X-136.8860 Y-32.7948
G01 X-136.9934 Y-32.6812
G01 X-144.1870 Y-32.6812
G01 X-144.6884 Y-33.1827
G00 X-144.6884 Y-33.1827
G01 F60.00
G01 Z-0.0750
G01 F120.00
G01 X-144.1870 Y-32.6812
G01 X-136.9934 Y-32.6812
G01 X-136.8860 Y-32.7948
G01 X-136.7234 Y-32.9300
G01 X-136.8860 Y-33.0652
G01 X-136.9935 Y-33.1788
G01 X-144.6884 Y-33.1827
G00 X-144.6884 Y-33.1827
G01 F60.00
G01 Z-0.1000
G01 F120.00
G01 X-136.9935 Y-33.1788
G01 X-136.8860 Y-33.0652
G01 X-136.7234 Y-32.9300
G01 X-136.8860 Y-32.7948
G01 X-136.9934 Y-32.6812
G01 X-144.1870 Y-32.6812
G01 X-144.6884 Y-33.1827
G00 Z2.0000
(Block-name: block)
(Block-expand: 0)
(Block-enable: 1)
G00 X-148.8009 Y-34.7915
G01 F60.00
G01 Z-0.0250
G01 F120.00
G01 X-148.8009 Y-34.3103
G01 X-144.3597 Y-29.8691
G01 X-136.8605 Y-29.8691
G01 X-136.7998 Y-29.9492
G01 X-136.7137 Y-30.0432
G01 X-136.6179 Y-30.1291
G01 X-136.5161 Y-30.2037
G01 X-136.4074 Y-30.2681
G01 X-136.3032 Y-30.3175
G01 X-136.1834 Y-30.3610
G01 X-136.0715 Y-30.3900
G01 X-136.1843 Y-30.4193
G01 X-136.3031 Y-30.4625
G01 X-136.4064 Y-30.5113
G01 X-136.5161 Y-30.5763
G01 X-136.6188 Y-30.6517
G01 X-136.7137 Y-30.7368
G01 X-136.8012 Y-30.8325
G01 X-136.8605 Y-30.9109
G01 X-144.6100 Y-30.9109
G01 X-144.7375 Y-30.9220
G01 X-144.8507 Y-30.9509
G01 X-145.0081 Y-31.0256
G01 X-145.1349 Y-31.1257
G01 X-148.8009 Y-34.7915
G00 X-148.8009 Y-34.7915
G01 F60.00
G01 Z-0.0500
G01 F120.00
G01 X-145.1349 Y-31.1257
G01 X-145.0081 Y-31.0256
G01 X-144.8507 Y-30.9509
G01 X-144.7375 Y-30.9220
G01 X-144.6100 Y-30.9109
G01 X-136.8605 Y-30.9109
G01 X-136.8012 Y-30.8325
G01 X-136.7137 Y-30.7368
G01 X-136.6188 Y-30.6517
G01 X-136.5161 Y-30.5763
G01 X-136.4064 Y-30.5113
G01 X-136.3031 Y-30.4625
G01 X-136.1843 Y-30.4193
G01 X-136.0715 Y-30.3900
G01 X-136.1834 Y-30.3610
G01 X-136.3032 Y-30.3175
G01 X-136.4074 Y-30.2681
G01 X-136.5161 Y-30.2037
G01 X-136.6179 Y-30.1291
G01 X-136.7137 Y-30.0432
G01 X-136.7998 Y-29.9492
G01 X-136.8605 Y-29.8691
G01 X-144.3597 Y-29.8691
G01 X-148.8009 Y-34.3103
G01 X-148.8009 Y-34.7915
G00 X-148.8009 Y-34.7915
G01 F60.00
G01 Z-0.0750
G01 F120.00
G01 X-148.8009 Y-34.3103
G01 X-144.3597 Y-29.8691
G01 X-136.8605 Y-29.8691
G01 X-136.7998 Y-29.9492
G01 X-136.7137 Y-30.0432
G01 X-136.6179 Y-30.1291
G01 X-136.5161 Y-30.2037
G01 X-136.4074 Y-30.2681
G01 X-136.3032 Y-30.3175
G01 X-136.1834 Y-30.3610
G01 X-136.0715 Y-30.3900
G01 X-136.1843 Y-30.4193
G01 X-136.3031 Y-30.4625
G01 X-136.4064 Y-30.5113
G01 X-136.5161 Y-30.5763
G01 X-136.6188 Y-30.6517
G01 X-136.7137 Y-30.7368
G01 X-136.8012 Y-30.8325
G01 X-136.8605 Y-30.9109
G01 X-144.6100 Y-30.9109
G01 X-144.7375 Y-30.9220
G01 X-144.8507 Y-30.9509
G01 X-145.0081 Y-31.0256
G01 X-145.1349 Y-31.1257
G01 X-148.8009 Y-34.7915
G00 X-148.8009 Y-34.7915
G01 F60.00
G01 Z-0.1000
G01 F120.00
G01 X-145.1349 Y-31.1257
G01 X-145.0081 Y-31.0256
G01 X-144.8507 Y-30.9509
G01 X-144.7375 Y-30.9220
G01 X-144.6100 Y-30.9109
G01 X-136.8605 Y-30.9109
G01 X-136.8012 Y-30.8325
G01 X-136.7137 Y-30.7368
G01 X-136.6188 Y-30.6517
G01 X-136.5161 Y-30.5763
G01 X-136.4064 Y-30.5113
G01 X-136.3031 Y-30.4625
G01 X-136.1843 Y-30.4193
G01 X-136.0715 Y-30.3900
G01 X-136.1834 Y-30.3610
G01 X-136.3032 Y-30.3175
G01 X-136.4074 Y-30.2681
G01 X-136.5161 Y-30.2037
G01 X-136.6179 Y-30.1291
G01 X-136.7137 Y-30.0432
G01 X-136.7998 Y-29.9492
G01 X-136.8605 Y-29.8691
G01 X-144.3597 Y-29.8691
G01 X-148.8009 Y-34.3103
G01 X-148.8009 Y-34.7915
G00 Z2.0000
(Block-name: block)
(Block-expand: 0)
(Block-enable: 1)
G00 X-162.2226 Y-49.5295
G01 F60.00
G01 Z-0.0250
G01 F120.00
G01 X-162.2074 Y-49.6385
G01 X-162.1823 Y-49.7390
G01 X-162.1056 Y-49.9240
G01 X-161.9937 Y-50.0914
G01 X-161.8508 Y-50.2342
G01 X-161.6845 Y-50.3453
G01 X-161.4981 Y-50.4226
G01 X-161.3006 Y-50.4619
G01 X-161.2000 Y-50.4668
G01 X-161.0982 Y-50.4617
G01 X-160.9014 Y-50.4224
G01 X-160.7160 Y-50.3456
G01 X-160.5486 Y-50.2337
G01 X-160.4058 Y-50.0908
G01 X-160.2947 Y-49.9245
G01 X-160.2174 Y-49.7381
G01 X-160.1781 Y-49.5406
G01 X-160.1732 Y-49.4400
G01 X-160.1783 Y-49.3382
G01 X-160.2177 Y-49.1410
G01 X-160.2944 Y-48.9560
G01 X-160.4063 Y-48.7886
G01 X-160.5492 Y-48.6458
G01 X-160.7153 Y-48.5348
G01 X-160.9019 Y-48.4574
G01 X-161.0994 Y-48.4181
G01 X-161.2000 Y-48.4132
G01 X-161.3018 Y-48.4183
G01 X-161.4986 Y-48.4576
G01 X-161.6840 Y-48.5344
G01 X-161.8514 Y-48.6463
G01 X-161.9942 Y-48.7892
G01 X-162.1052 Y-48.9553
G01 X-162.1826 Y-49.1419
G01 X-162.2219 Y-49.3394
G01 X-162.2226 Y-49.5295
G00 X-162.2226 Y-49.5295
G01 F60.00
G01 Z-0.0500
G01 F120.00
G01 X-162.2219 Y-49.3394
G01 X-162.1826 Y-49.1419
G01 X-162.1052 Y-48.9553
G01 X-161.9942 Y-48.7892
G01 X-161.8514 Y-48.6463
G01 X-161.6840 Y-48.5344
G01 X-161.4986 Y-48.4576
G01 X-161.3018 Y-48.4183
G01 X-161.2000 Y-48.4132
G01 X-161.0994 Y-48.4181
G01 X-160.9019 Y-48.4574
G01 X-160.7153 Y-48.5348
G01 X-160.5492 Y-48.6458
G01 X-160.4063 Y-48.7886
G01 X-160.2944 Y-48.9560
G01 X-160.2177 Y-49.1410
G01 X-160.1783 Y-49.3382
G01 X-160.1732 Y-49.4400
G01 X-160.1781 Y-49.5406
G01 X-160.2174 Y-49.7381
G01 X-160.2947 Y-49.9245
G01 X-160.4058 Y-50.0908
G01 X-160.5486 Y-50.2337
G01 X-160.7160 Y-50.3456
G01 X-160.9014 Y-50.4224
G01 X-161.0982 Y-50.4617
G01 X-161.2000 Y-50.4668
G01 X-161.3006 Y-50.4619
G01 X-161.4981 Y-50.4226
G01 X-161.6845 Y-50.3453
G01 X-161.8508 Y-50.2342
G01 X-161.9937 Y-50.0914
G01 X-162.1056 Y-49.9240
G01 X-162.1823 Y-49.7390
G01 X-162.2074 Y-49.6385
G01 X-162.2226 Y-49.5295
G00 X-162.2226 Y-49.5295
G01 F60.00
G01 Z-0.0750
G01 F120.00
G01 X-162.2074 Y-49.6385
G01 X-162.1823 Y-49.7390
G01 X-162.1056 Y-49.9240
G01 X-161.9937 Y-50.0914
G01 X-161.8508 Y-50.2342
G01 X-161.6845 Y-50.3453
G01 X-161.4981 Y-50.4226
G01 X-161.3006 Y-50.4619
G01 X-161.2000 Y-50.4668
G01 X-161.0982 Y-50.4617
G01 X-160.9014 Y-50.4224
G01 X-160.7160 Y-50.3456
G01 X-160.5486 Y-50.2337
G01 X-160.4058 Y-50.0908
G01 X-160.2947 Y-49.9245
G01 X-160.2174 Y-49.7381
G01 X-160.1781 Y-49.5406
G01 X-160.1732 Y-49.4400
G01 X-160.1783 Y-49.3382
G01 X-160.2177 Y-49.1410
G01 X-160.2944 Y-48.9560
G01 X-160.4063 Y-48.7886
G01 X-160.5492 Y-48.6458
G01 X-160.7153 Y-48.5348
G01 X-160.9019 Y-48.4574
G01 X-161.0994 Y-48.4181
G01 X-161.2000 Y-48.4132
G01 X-161.3018 Y-48.4183
G01 X-161.4986 Y-48.4576
G01 X-161.6840 Y-48.5344
G01 X-161.8514 Y-48.6463
G01 X-161.9942 Y-48.7892
G01 X-162.1052 Y-48.9553
G01 X-162.1826 Y-49.1419
G01 X-162.2219 Y-49.3394
G01 X-162.2226 Y-49.5295
G00 X-162.2226 Y-49.5295
G01 F60.00
G01 Z-0.1000
G01 F120.00
G01 X-162.2219 Y-49.3394
G01 X-162.1826 Y-49.1419
G01 X-162.1052 Y-48.9553
G01 X-161.9942 Y-48.7892
G01 X-161.8514 Y-48.6463
G01 X-161.6840 Y-48.5344
G01 X-161.4986 Y-48.4576
G01 X-161.3018 Y-48.4183
G01 X-161.2000 Y-48.4132
G01 X-161.0994 Y-48.4181
G01 X-160.9019 Y-48.4574
