(G-CODE GENERATED BY FLATCAM vUnstable - www.flatcam.org - Version Date: 2022/3/1)

(Name: digiMatex_DS410-B_Cu.gbr_ncc_cnc)
(Type: G-code from Geometry)
(Units: MM)

(Created on Sunday, 06 February 2022 at 18:20)

(This preprocessor is the default preprocessor used by FlatCAM.)
(It is made to work with MACH3 compatible motion controllers.)

(TOOL DIAMETER: 1.0 mm)
(Feedrate_XY: 120.0 mm/min)
(Feedrate_Z: 60.0 mm/min)
(Feedrate rapids 1500.0 mm/min)

(Z_Cut: -0.1 mm)
(DepthPerCut: 0.025 mm <=>4 passes)
(Z_Move: 2.0 mm)
(Z Start: None mm)
(Z End: 15.0 mm)
(X,Y End: None mm)
(Steps per circle: 16)
(Preprocessor Geometry: default)

(X range: -181.2652 ...   -0.7348  mm)
(Y range: -116.2652 ...   -0.7348  mm)

(Spindle Speed: 300.0 RPM)
G21
G90
G94

G01 F120.00
G00 Z2.0000

M03 S300.0
G01 F120.00
G00 X-6.8499 Y-13.7369
G01 F60.00
G01 Z-0.0250
G01 F120.00
G01 X-94.0098 Y-13.7395
G01 X-94.2097 Y-13.7274
G01 X-94.4423 Y-13.6814
G01 X-94.6170 Y-13.6270
G01 X-94.8086 Y-13.5407
G01 X-94.9885 Y-13.4320
G01 X-95.1539 Y-13.3024
G01 X-95.3024 Y-13.1539
G01 X-95.4320 Y-12.9885
G01 X-95.5093 Y-12.8606
G01 X-95.5407 Y-12.8086
G01 X-95.6270 Y-12.6170
G01 X-95.6895 Y-12.4164
G01 X-95.7274 Y-12.2097
G01 X-95.7392 Y-12.0144
G01 X-95.7410 Y-2.9156
G01 X-95.7621 Y-2.6671
G01 X-95.8144 Y-2.4185
G01 X-95.8425 Y-2.3202
G01 X-95.9259 Y-2.0969
G01 X-96.0918 Y-1.7844
G01 X-96.3110 Y-1.4948
G01 X-6.8499 Y-13.7369
G00 X-6.8499 Y-13.7369
G01 F60.00
G01 Z-0.0500
G01 F120.00
G01 X-96.3110 Y-1.4948
G01 X-96.0918 Y-1.7844
G01 X-95.9259 Y-2.0969
G01 X-95.8425 Y-2.3202
G01 X-95.8144 Y-2.4185
G01 X-95.7621 Y-2.6671
G01 X-95.7410 Y-2.9156
G01 X-95.7392 Y-12.0144
G01 X-95.7274 Y-12.2097
G01 X-95.6895 Y-12.4164
G01 X-95.6270 Y-12.6170
G01 X-95.5407 Y-12.8086
G01 X-95.5093 Y-12.8606
G01 X-95.4320 Y-12.9885
G01 X-95.3024 Y-13.1539
G01 X-95.1539 Y-13.3024
G01 X-94.9885 Y-13.4320
G01 X-94.8086 Y-13.5407
G01 X-94.6170 Y-13.6270
G01 X-94.4423 Y-13.6814
G01 X-94.2097 Y-13.7274
G01 X-94.0098 Y-13.7395
G01 X-6.8499 Y-13.7369
G00 X-6.8499 Y-13.7369
G01 F60.00
G01 Z-0.0750
G01 F120.00
G01 X-94.0098 Y-13.7395
G01 X-94.2097 Y-13.7274
G01 X-94.4423 Y-13.6814
G01 X-94.6170 Y-13.6270
G01 X-94.8086 Y-13.5407
G01 X-94.9885 Y-13.4320
G01 X-95.1539 Y-13.3024
G01 X-95.3024 Y-13.1539
G01 X-95.4320 Y-12.9885
G01 X-95.5093 Y-12.8606
G01 X-95.5407 Y-12.8086
G01 X-95.6270 Y-12.6170
G01 X-95.6895 Y-12.4164
G01 X-95.7274 Y-12.2097
G01 X-95.7392 Y-12.0144
G01 X-95.7410 Y-2.9156
G01 X-95.7621 Y-2.6671
G01 X-95.8144 Y-2.4185
G01 X-95.8425 Y-2.3202
G01 X-95.9259 Y-2.0969
G01 X-96.0918 Y-1.7844
G01 X-96.3110 Y-1.4948
G01 X-6.8499 Y-13.7369
G00 X-6.8499 Y-13.7369
G01 F60.00
G01 Z-0.1000
G01 F120.00
G01 X-96.3110 Y-1.4948
G01 X-96.0918 Y-1.7844
G01 X-95.9259 Y-2.0969
G01 X-95.8425 Y-2.3202
G01 X-95.8144 Y-2.4185
G01 X-95.7621 Y-2.6671
G01 X-95.7410 Y-2.9156
G01 X-95.7392 Y-12.0144
G01 X-95.7274 Y-12.2097
G01 X-95.6895 Y-12.4164
G01 X-95.6270 Y-12.6170
G01 X-95.5407 Y-12.8086
G01 X-95.5093 Y-12.8606
G01 X-95.4320 Y-12.9885
G01 X-95.3024 Y-13.1539
G01 X-95.1539 Y-13.3024
G01 X-94.9885 Y-13.4320
G01 X-94.8086 Y-13.5407
G01 X-94.6170 Y-13.6270
G01 X-94.4423 Y-13.6814
G01 X-94.2097 Y-13.7274
G01 X-94.0098 Y-13.7395
G01 X-6.8499 Y-13.7369
G00 Z2.0000
G00 X-10.2072 Y-21.4032
G01 F60.00
G01 Z-0.0250
G01 F120.00
G01 X-10.1456 Y-21.8246
G01 X-10.0448 Y-22.2270
G01 X-9.9051 Y-22.6174
G01 X-9.7277 Y-22.9925
G01 X-9.5145 Y-23.3483
G01 X-9.2674 Y-23.6815
G01 X-8.9888 Y-23.9888
G01 X-8.6815 Y-24.2674
G01 X-8.3475 Y-24.5150
G01 X-7.9925 Y-24.7277
G01 X-7.6175 Y-24.9051
G01 X-7.2268 Y-25.0448
G01 X-6.8239 Y-25.1457
G01 X-6.4143 Y-25.2064
G01 X-6.0000 Y-25.2268
G01 X-5.5845 Y-25.2063
G01 X-5.1754 Y-25.1456
G01 X-4.7730 Y-25.0448
G01 X-4.3826 Y-24.9051
G01 X-4.0075 Y-24.7277
G01 X-3.6517 Y-24.5145
G01 X-3.3185 Y-24.2674
G01 X-3.0112 Y-23.9888
G01 X-2.7326 Y-23.6815
G01 X-2.4850 Y-23.3475
G01 X-2.2723 Y-22.9925
G01 X-2.0949 Y-22.6175
G01 X-1.9552 Y-22.2269
G01 X-1.8543 Y-21.8239
G01 X-1.7936 Y-21.4143
G01 X-1.7732 Y-21.0000
G01 X-1.7937 Y-20.5845
G01 X-1.8544 Y-20.1754
G01 X-1.9552 Y-19.7730
G01 X-2.0949 Y-19.3826
G01 X-2.2723 Y-19.0075
G01 X-2.4855 Y-18.6517
G01 X-2.7326 Y-18.3185
G01 X-3.0112 Y-18.0112
G01 X-3.3185 Y-17.7326
G01 X-3.6525 Y-17.4850
G01 X-4.0075 Y-17.2723
G01 X-4.3825 Y-17.0949
G01 X-4.7732 Y-16.9552
G01 X-5.1761 Y-16.8543
G01 X-5.5857 Y-16.7936
G01 X-6.0000 Y-16.7732
G01 X-6.4155 Y-16.7937
G01 X-6.8246 Y-16.8544
G01 X-7.2270 Y-16.9552
G01 X-7.6174 Y-17.0949
G01 X-7.9925 Y-17.2723
G01 X-8.3483 Y-17.4855
G01 X-8.6815 Y-17.7326
G01 X-8.9888 Y-18.0112
G01 X-9.2674 Y-18.3185
G01 X-9.5150 Y-18.6525
G01 X-9.7277 Y-19.0075
G01 X-9.9051 Y-19.3825
G01 X-10.0448 Y-19.7732
G01 X-10.1457 Y-20.1761
G01 X-10.2064 Y-20.5857
G01 X-10.2268 Y-21.0000
G01 X-10.2072 Y-21.4032
G00 X-10.2072 Y-21.4032
G01 F60.00
G01 Z-0.0500
G01 F120.00
G01 X-10.2268 Y-21.0000
G01 X-10.2064 Y-20.5857
G01 X-10.1457 Y-20.1761
G01 X-10.0448 Y-19.7732
G01 X-9.9051 Y-19.3825
G01 X-9.7277 Y-19.0075
G01 X-9.5150 Y-18.6525
G01 X-9.2674 Y-18.3185
G01 X-8.9888 Y-18.0112
G01 X-8.6815 Y-17.7326
G01 X-8.3483 Y-17.4855
G01 X-7.9925 Y-17.2723
G01 X-7.6174 Y-17.0949
G01 X-7.2270 Y-16.9552
G01 X-6.8246 Y-16.8544
G01 X-6.4155 Y-16.7937
G01 X-6.0000 Y-16.7732
G01 X-5.5857 Y-16.7936
G01 X-5.1761 Y-16.8543
G01 X-4.7732 Y-16.9552
G01 X-4.3825 Y-17.0949
G01 X-4.0075 Y-17.2723
G01 X-3.6525 Y-17.4850
G01 X-3.3185 Y-17.7326
G01 X-3.0112 Y-18.0112
G01 X-2.7326 Y-18.3185
G01 X-2.4855 Y-18.6517
G01 X-2.2723 Y-19.0075
G01 X-2.0949 Y-19.3826
G01 X-1.9552 Y-19.7730
G01 X-1.8544 Y-20.1754
G01 X-1.7937 Y-20.5845
G01 X-1.7732 Y-21.0000
G01 X-1.7936 Y-21.4143
G01 X-1.8543 Y-21.8239
G01 X-1.9552 Y-22.2269
G01 X-2.0949 Y-22.6175
G01 X-2.2723 Y-22.9925
G01 X-2.4850 Y-23.3475
G01 X-2.7326 Y-23.6815
G01 X-3.0112 Y-23.9888
G01 X-3.3185 Y-24.2674
G01 X-3.6517 Y-24.5145
G01 X-4.0075 Y-24.7277
G01 X-4.3826 Y-24.9051
G01 X-4.7730 Y-25.0448
G01 X-5.1754 Y-25.1456
G01 X-5.5845 Y-25.2063
G01 X-6.0000 Y-25.2268
G01 X-6.4143 Y-25.2064
G01 X-6.8239 Y-25.1457
G01 X-7.2268 Y-25.0448
G01 X-7.6175 Y-24.9051
G01 X-7.9925 Y-24.7277
G01 X-8.3475 Y-24.5150
G01 X-8.6815 Y-24.2674
G01 X-8.9888 Y-23.9888
G01 X-9.2674 Y-23.6815
G01 X-9.5145 Y-23.3483
G01 X-9.7277 Y-22.9925
G01 X-9.9051 Y-22.6174
G01 X-10.0448 Y-22.2270
G01 X-10.1456 Y-21.8246
G01 X-10.2072 Y-21.4032
G00 X-10.2072 Y-21.4032
G01 F60.00
G01 Z-0.0750
G01 F120.00
G01 X-10.1456 Y-21.8246
G01 X-10.0448 Y-22.2270
G01 X-9.9051 Y-22.6174
G01 X-9.7277 Y-22.9925
G01 X-9.5145 Y-23.3483
G01 X-9.2674 Y-23.6815
G01 X-8.9888 Y-23.9888
G01 X-8.6815 Y-24.2674
G01 X-8.3475 Y-24.5150
G01 X-7.9925 Y-24.7277
G01 X-7.6175 Y-24.9051
G01 X-7.2268 Y-25.0448
G01 X-6.8239 Y-25.1457
G01 X-6.4143 Y-25.2064
G01 X-6.0000 Y-25.2268
G01 X-5.5845 Y-25.2063
G01 X-5.1754 Y-25.1456
G01 X-4.7730 Y-25.0448
G01 X-4.3826 Y-24.9051
G01 X-4.0075 Y-24.7277
G01 X-3.6517 Y-24.5145
G01 X-3.3185 Y-24.2674
G01 X-3.0112 Y-23.9888
G01 X-2.7326 Y-23.6815
G01 X-2.4850 Y-23.3475
G01 X-2.2723 Y-22.9925
G01 X-2.0949 Y-22.6175
G01 X-1.9552 Y-22.2269
G01 X-1.8543 Y-21.8239
G01 X-1.7936 Y-21.4143
G01 X-1.7732 Y-21.0000
G01 X-1.7937 Y-20.5845
G01 X-1.8544 Y-20.1754
G01 X-1.9552 Y-19.7730
G01 X-2.0949 Y-19.3826
G01 X-2.2723 Y-19.0075
G01 X-2.4855 Y-18.6517
G01 X-2.7326 Y-18.3185
G01 X-3.0112 Y-18.0112
G01 X-3.3185 Y-17.7326
G01 X-3.6525 Y-17.4850
G01 X-4.0075 Y-17.2723
G01 X-4.3825 Y-17.0949
G01 X-4.7732 Y-16.9552
G01 X-5.1761 Y-16.8543
G01 X-5.5857 Y-16.7936
G01 X-6.0000 Y-16.7732
G01 X-6.4155 Y-16.7937
G01 X-6.8246 Y-16.8544
G01 X-7.2270 Y-16.9552
G01 X-7.6174 Y-17.0949
G01 X-7.9925 Y-17.2723
G01 X-8.3483 Y-17.4855
G01 X-8.6815 Y-17.7326
G01 X-8.9888 Y-18.0112
G01 X-9.2674 Y-18.3185
G01 X-9.5150 Y-18.6525
G01 X-9.7277 Y-19.0075
G01 X-9.9051 Y-19.3825
G01 X-10.0448 Y-19.7732
G01 X-10.1457 Y-20.1761
G01 X-10.2064 Y-20.5857
G01 X-10.2268 Y-21.0000
G01 X-10.2072 Y-21.4032
G00 X-10.2072 Y-21.4032
G01 F60.00
G01 Z-0.1000
G01 F120.00
G01 X-10.2268 Y-21.0000
G01 X-10.2064 Y-20.5857
G01 X-10.1457 Y-20.1761
G01 X-10.0448 Y-19.7732
G01 X-9.9051 Y-19.3825
G01 X-9.7277 Y-19.0075
G01 X-9.5150 Y-18.6525
G01 X-9.2674 Y-18.3185
G01 X-8.9888 Y-18.0112
G01 X-8.6815 Y-17.7326
G01 X-8.3483 Y-17.4855
G01 X-7.9925 Y-17.2723
G01 X-7.6174 Y-17.0949
G01 X-7.2270 Y-16.9552
G01 X-6.8246 Y-16.8544
G01 X-6.4155 Y-16.7937
G01 X-6.0000 Y-16.7732
G01 X-5.5857 Y-16.7936
G01 X-5.1761 Y-16.8543
G01 X-4.7732 Y-16.9552
G01 X-4.3825 Y-17.0949
G01 X-4.0075 Y-17.2723
G01 X-3.6525 Y-17.4850
G01 X-3.3185 Y-17.7326
G01 X-3.0112 Y-18.0112
G01 X-2.7326 Y-18.3185
G01 X-2.4855 Y-18.6517
G01 X-2.2723 Y-19.0075
G01 X-2.0949 Y-19.3826
G01 X-1.9552 Y-19.7730
G01 X-1.8544 Y-20.1754
G01 X-1.7937 Y-20.5845
G01 X-1.7732 Y-21.0000
G01 X-1.7936 Y-21.4143
G01 X-1.8543 Y-21.8239
G01 X-1.9552 Y-22.2269
G01 X-2.0949 Y-22.6175
G01 X-2.2723 Y-22.9925
G01 X-2.4850 Y-23.3475
G01 X-2.7326 Y-23.6815
G01 X-3.0112 Y-23.9888
G01 X-3.3185 Y-24.2674
G01 X-3.6517 Y-24.5145
G01 X-4.0075 Y-24.7277
G01 X-4.3826 Y-24.9051
G01 X-4.7730 Y-25.0448
G01 X-5.1754 Y-25.1456
G01 X-5.5845 Y-25.2063
G01 X-6.0000 Y-25.2268
G01 X-6.4143 Y-25.2064
G01 X-6.8239 Y-25.1457
G01 X-7.2268 Y-25.0448
G01 X-7.6175 Y-24.9051
G01 X-7.9925 Y-24.7277
G01 X-8.3475 Y-24.5150
G01 X-8.6815 Y-24.2674
G01 X-8.9888 Y-23.9888
G01 X-9.2674 Y-23.6815
G01 X-9.5145 Y-23.3483
G01 X-9.7277 Y-22.9925
G01 X-9.9051 Y-22.6174
G01 X-10.0448 Y-22.2270
G01 X-10.1456 Y-21.8246
G01 X-10.2072 Y-21.4032
G00 Z2.0000
G00 X-1.2791 Y-21.7319
G01 F60.00
G01 Z-0.0250
G01 F120.00
G01 X-1.2895 Y-21.7276
G01 X-1.2791 Y-21.6578
G01 X-1.2791 Y-21.7319
G01 X-1.2791 Y-20.3422
G01 X-1.2904 Y-20.2661
G01 X-1.2791 Y-20.2616
G01 X-1.2791 Y-20.3422
G00 X-1.2791 Y-20.3422
G01 F60.00
G01 Z-0.0500
G01 F120.00
G01 X-1.2791 Y-20.2616
G01 X-1.2904 Y-20.2661
G01 X-1.2791 Y-20.3422
G01 X-1.2791 Y-21.7319
G01 X-1.2791 Y-21.6578
G01 X-1.2895 Y-21.7276
G01 X-1.2791 Y-21.7319
G00 X-1.2791 Y-21.7319
G01 F60.00
G01 Z-0.0750
G01 F120.00
G01 X-1.2895 Y-21.7276
G01 X-1.2791 Y-21.6578
G01 X-1.2791 Y-21.7319
G01 X-1.2791 Y-20.3422
G01 X-1.2904 Y-20.2661
G01 X-1.2791 Y-20.2616
G01 X-1.2791 Y-20.3422
G00 X-1.2791 Y-20.3422
G01 F60.00
G01 Z-0.1000
G01 F120.00
G01 X-1.2791 Y-20.2616
G01 X-1.2904 Y-20.2661
G01 X-1.2791 Y-20.3422
G01 X-1.2791 Y-21.7319
G01 X-1.2791 Y-21.6578
G01 X-1.2895 Y-21.7276
G01 X-1.2791 Y-21.7319
G00 Z2.0000
G00 X-15.3692 Y-30.4187
G01 F60.00
G01 Z-0.0250
G01 F120.00
G01 X-15.3692 Y-30.3643
G01 X-14.7278 Y-30.3632
G01 X-14.6530 Y-30.3425
G01 X-14.5896 Y-30.2979
G01 X-14.5450 Y-30.2345
G01 X-14.5243 Y-30.1597
G01 X-14.5232 Y-29.5183
G01 X-14.4688 Y-29.5183
G01 X-14.4688 Y-30.1733
G01 X-14.5008 Y-30.2739
G01 X-14.5491 Y-30.3384
G01 X-14.6136 Y-30.3867
G01 X-14.7142 Y-30.4187
G01 X-15.3692 Y-30.4187
G00 X-15.3692 Y-30.4187
G01 F60.00
G01 Z-0.0500
G01 F120.00
G01 X-14.7142 Y-30.4187
G01 X-14.6136 Y-30.3867
G01 X-14.5491 Y-30.3384
G01 X-14.5008 Y-30.2739
G01 X-14.4688 Y-30.1733
G01 X-14.4688 Y-29.5183
G01 X-14.5232 Y-29.5183
G01 X-14.5243 Y-30.1597
G01 X-14.5450 Y-30.2345
G01 X-14.5896 Y-30.2979
G01 X-14.6530 Y-30.3425
G01 X-14.7278 Y-30.3632
G01 X-15.3692 Y-30.3643
G01 X-15.3692 Y-30.4187
G00 X-15.3692 Y-30.4187
G01 F60.00
G01 Z-0.0750
G01 F120.00
G01 X-15.3692 Y-30.3643
G01 X-14.7278 Y-30.3632
G01 X-14.6530 Y-30.3425
G01 X-14.5896 Y-30.2979
G01 X-14.5450 Y-30.2345
G01 X-14.5243 Y-30.1597
G01 X-14.5232 Y-29.5183
G01 X-14.4688 Y-29.5183
G01 X-14.4688 Y-30.1733
G01 X-14.5008 Y-30.2739
G01 X-14.5491 Y-30.3384
G01 X-14.6136 Y-30.3867
G01 X-14.7142 Y-30.4187
G01 X-15.3692 Y-30.4187
G00 X-15.3692 Y-30.4187
G01 F60.00
G01 Z-0.1000
G01 F120.00
G01 X-14.7142 Y-30.4187
G01 X-14.6136 Y-30.3867
G01 X-14.5491 Y-30.3384
G01 X-14.5008 Y-30.2739
G01 X-14.4688 Y-30.1733
G01 X-14.4688 Y-29.5183
G01 X-14.5232 Y-29.5183
G01 X-14.5243 Y-30.1597
G01 X-14.5450 Y-30.2345
G01 X-14.5896 Y-30.2979
G01 X-14.6530 Y-30.3425
G01 X-14.7278 Y-30.3632
G01 X-15.3692 Y-30.3643
G01 X-15.3692 Y-30.4187
G00 Z2.0000
G00 X-17.6056 Y-30.6566
G01 F60.00
G01 Z-0.0250
G01 F120.00
G01 X-17.6049 Y-36.5840
G01 X-17.5664 Y-36.7068
G01 X-17.5110 Y-36.7790
G01 X-17.4471 Y-36.8338
G01 X-17.3964 Y-36.8633
G01 X-17.2615 Y-36.8898
G01 X-17.2037 Y-36.8883
G01 X-17.1443 Y-36.8705
G01 X-17.0597 Y-36.8307
G01 X-16.9513 Y-36.7508
G01 X-16.8722 Y-36.7211
G01 X-16.2956 Y-36.7188
G01 X-16.2956 Y-36.7732
G01 X-16.8148 Y-36.7732
G01 X-16.8912 Y-36.7865
G01 X-16.9499 Y-36.8178
G01 X-17.0034 Y-36.8740
G01 X-17.0319 Y-36.9342
G01 X-17.0416 Y-37.0000
G01 X-17.0416 Y-39.0000
G01 X-17.0319 Y-39.0658
G01 X-17.0094 Y-39.1166
G01 X-16.9752 Y-39.1604
G01 X-16.9314 Y-39.1945
G01 X-16.8807 Y-39.2170
G01 X-16.8148 Y-39.2268
G01 X-16.2956 Y-39.2268
G01 X-16.2956 Y-39.2812
G01 X-16.8722 Y-39.2789
G01 X-16.9513 Y-39.2492
G01 X-17.0597 Y-39.1693
G01 X-17.1536 Y-39.1238
G01 X-17.2194 Y-39.1108
G01 X-17.3231 Y-39.1168
G01 X-17.3682 Y-39.1260
G01 X-17.4171 Y-39.1479
G01 X-17.5251 Y-39.2324
G01 X-17.5699 Y-39.3058
G01 X-17.6004 Y-39.3897
G01 X-17.6088 Y-39.4434
G01 X-17.6068 Y-48.3764
G01 X-17.5664 Y-48.5101
G01 X-17.5110 Y-48.5823
G01 X-17.4471 Y-48.6371
G01 X-17.3964 Y-48.6666
G01 X-17.2500 Y-48.6940
G01 X-17.1734 Y-48.6847
G01 X-17.0617 Y-48.6351
G01 X-17.0080 Y-48.5926
G01 X-16.9384 Y-48.5066
G01 X-16.8739 Y-48.4583
G01 X-16.7948 Y-48.4286
G01 X-16.2183 Y-48.4263
G01 X-16.2183 Y-48.4807
G01 X-16.7375 Y-48.4807
G01 X-16.8033 Y-48.4905
G01 X-16.8541 Y-48.5130
G01 X-16.8979 Y-48.5471
G01 X-16.9320 Y-48.5909
G01 X-16.9545 Y-48.6417
G01 X-16.9643 Y-48.7075
G01 X-16.9643 Y-50.6125
G01 X-16.9510 Y-50.6889
G01 X-16.9197 Y-50.7476
G01 X-16.8726 Y-50.7947
G01 X-16.8139 Y-50.8260
G01 X-16.7486 Y-50.8390
G01 X-14.6933 Y-50.8349
G01 X-14.6306 Y-50.8125
G01 X-14.5852 Y-50.7805
G01 X-14.5489 Y-50.7385
G01 X-14.5240 Y-50.6889
G01 X-14.5107 Y-50.6125
G01 X-14.5107 Y-50.1408
G01 X-14.4563 Y-50.1408
G01 X-14.4586 Y-50.6698
G01 X-14.5569 Y-50.8932
G01 X-14.5674 Y-50.9424
G01 X-14.5674 Y-50.9875
G01 X-14.5433 Y-51.1014
G01 X-14.5081 Y-51.1704
G01 X-14.4158 Y-51.2636
G01 X-14.3327 Y-51.3043
G01 X-14.2161 Y-51.3268
G01 X-10.7887 Y-51.3268
G01 X-10.5555 Y-51.3044
G01 X-10.3356 Y-51.2411
G01 X-10.1310 Y-51.1373
G01 X-10.0735 Y-51.0989
G01 X-9.9072 Y-50.9579
G01 X-9.7703 Y-50.7912
G01 X-9.6645 Y-50.6005
G01 X-9.6380 Y-50.5366
G01 X-9.5781 Y-50.3270
G01 X-9.5560 Y-50.1049
G01 X-9.5602 Y-45.9295
G01 X-9.5936 Y-45.8180
G01 X-9.6287 Y-45.7605
G01 X-9.7268 Y-45.6735
G01 X-9.8005 Y-45.6399
G01 X-9.9372 Y-45.6231
G01 X-10.0090 Y-45.6367
G01 X-10.1467 Y-45.6812
G01 X-10.5017 Y-45.6812
G01 X-10.5017 Y-45.6268
G01 X-10.1714 Y-45.6265
G01 X-10.1167 Y-45.6170
G01 X-10.0756 Y-45.6000
G01 X-10.0221 Y-45.5604
G01 X-9.9880 Y-45.5166
G01 X-9.9655 Y-45.4658
G01 X-9.9557 Y-45.4000
G01 X-9.9557 Y-43.8000
G01 X-9.9655 Y-43.7342
G01 X-9.9880 Y-43.6834
G01 X-10.0145 Y-43.6477
G01 X-10.0474 Y-43.6178
G01 X-10.0957 Y-43.5905
G01 X-10.1714 Y-43.5735
G01 X-10.5017 Y-43.5732
G01 X-10.5017 Y-43.5188
G01 X-10.1467 Y-43.5188
G01 X-9.9879 Y-43.5676
G01 X-9.8819 Y-43.5756
G01 X-9.8156 Y-43.5657
G01 X-9.6956 Y-43.5048
G01 X-9.6434 Y-43.4577
G01 X-9.5733 Y-43.3328
G01 X-9.5559 Y-43.2359
G01 X-9.5557 Y-28.5062
G01 X-9.5781 Y-28.2730
G01 X-9.6414 Y-28.0531
G01 X-9.7452 Y-27.8485
G01 X-9.7836 Y-27.7910
G01 X-9.9246 Y-27.6247
G01 X-10.0913 Y-27.4878
G01 X-10.2820 Y-27.3820
G01 X-10.3459 Y-27.3555
G01 X-10.5555 Y-27.2956
G01 X-10.7776 Y-27.2735
G01 X-14.1932 Y-27.2732
G01 X-14.2475 Y-27.2798
G01 X-14.3336 Y-27.3050
G01 X-14.4071 Y-27.3462
G01 X-14.4941 Y-27.4443
G01 X-14.5251 Y-27.5085
G01 X-14.5436 Y-27.6210
G01 X-14.5380 Y-27.6991
G01 X-14.4688 Y-27.9017
G01 X-14.4688 Y-28.5567
G01 X-14.5232 Y-28.5567
G01 X-14.5232 Y-27.9375
G01 X-14.5300 Y-27.8824
G01 X-14.5500 Y-27.8306
G01 X-14.5820 Y-27.7852
G01 X-14.6334 Y-27.7430
G01 X-14.6842 Y-27.7205
G01 X-14.7500 Y-27.7107
G01 X-16.9500 Y-27.7107
G01 X-17.0158 Y-27.7205
G01 X-17.0760 Y-27.7489
G01 X-17.1322 Y-27.8024
G01 X-17.1635 Y-27.8611
G01 X-17.1765 Y-27.9264
G01 X-17.1768 Y-30.1375
G01 X-17.1700 Y-30.1926
G01 X-17.1500 Y-30.2444
G01 X-17.1104 Y-30.2979
G01 X-17.0569 Y-30.3375
G01 X-17.0051 Y-30.3575
G01 X-16.9500 Y-30.3643
G01 X-16.3308 Y-30.3643
G01 X-16.3308 Y-30.4187
G01 X-16.9858 Y-30.4187
G01 X-17.1287 Y-30.3699
G01 X-17.2169 Y-30.3497
G01 X-17.3096 Y-30.3489
G01 X-17.4319 Y-30.3925
G01 X-17.4923 Y-30.4357
G01 X-17.5774 Y-30.5514
G01 X-17.6056 Y-30.6566
G00 X-17.6056 Y-30.6566
G01 F60.00
G01 Z-0.0500
G01 F120.00
G01 X-17.5774 Y-30.5514
G01 X-17.4923 Y-30.4357
G01 X-17.4319 Y-30.3925
G01 X-17.3096 Y-30.3489
G01 X-17.2169 Y-30.3497
G01 X-17.1287 Y-30.3699
G01 X-16.9858 Y-30.4187
G01 X-16.3308 Y-30.4187
G01 X-16.3308 Y-30.3643
G01 X-16.9500 Y-30.3643
G01 X-17.0051 Y-30.3575
G01 X-17.0569 Y-30.3375
G01 X-17.1104 Y-30.2979
G01 X-17.1500 Y-30.2444
G01 X-17.1700 Y-30.1926
G01 X-17.1768 Y-30.1375
G01 X-17.1765 Y-27.9264
G01 X-17.1635 Y-27.8611
G01 X-17.1322 Y-27.8024
G01 X-17.0760 Y-27.7489
G01 X-17.0158 Y-27.7205
G01 X-16.9500 Y-27.7107
G01 X-14.7500 Y-27.7107
G01 X-14.6842 Y-27.7205
G01 X-14.6334 Y-27.7430
G01 X-14.5820 Y-27.7852
G01 X-14.5500 Y-27.8306
G01 X-14.5300 Y-27.8824
G01 X-14.5232 Y-27.9375
G01 X-14.5232 Y-28.5567
G01 X-14.4688 Y-28.5567
G01 X-14.4688 Y-27.9017
G01 X-14.5380 Y-27.6991
G01 X-14.5436 Y-27.6210
G01 X-14.5251 Y-27.5085
G01 X-14.4941 Y-27.4443
G01 X-14.4071 Y-27.3462
G01 X-14.3336 Y-27.3050
G01 X-14.2475 Y-27.2798
G01 X-14.1932 Y-27.2732
G01 X-10.7776 Y-27.2735
G01 X-10.5555 Y-27.2956
G01 X-10.3459 Y-27.3555
G01 X-10.2820 Y-27.3820
G01 X-10.0913 Y-27.4878
G01 X-9.9246 Y-27.6247
G01 X-9.7836 Y-27.7910
G01 X-9.7452 Y-27.8485
G01 X-9.6414 Y-28.0531
G01 X-9.5781 Y-28.2730
G01 X-9.5557 Y-28.5062
G01 X-9.5559 Y-43.2359
G01 X-9.5733 Y-43.3328
G01 X-9.6434 Y-43.4577
G01 X-9.6956 Y-43.5048
G01 X-9.8156 Y-43.5657
G01 X-9.8819 Y-43.5756
G01 X-9.9879 Y-43.5676
G01 X-10.1467 Y-43.5188
G01 X-10.5017 Y-43.5188
G01 X-10.5017 Y-43.5732
G01 X-10.1714 Y-43.5735
G01 X-10.0957 Y-43.5905
G01 X-10.0474 Y-43.6178
G01 X-10.0145 Y-43.6477
G01 X-9.9880 Y-43.6834
G01 X-9.9655 Y-43.7342
G01 X-9.9557 Y-43.8000
G01 X-9.9557 Y-45.4000
G01 X-9.9655 Y-45.4658
G01 X-9.9880 Y-45.5166
G01 X-10.0221 Y-45.5604
G01 X-10.0756 Y-45.6000
G01 X-10.1167 Y-45.6170
G01 X-10.1714 Y-45.6265
G01 X-10.5017 Y-45.6268
G01 X-10.5017 Y-45.6812
G01 X-10.1467 Y-45.6812
G01 X-10.0090 Y-45.6367
G01 X-9.9372 Y-45.6231
G01 X-9.8005 Y-45.6399
G01 X-9.7268 Y-45.6735
G01 X-9.6287 Y-45.7605
G01 X-9.5936 Y-45.8180
G01 X-9.5602 Y-45.9295
G01 X-9.5560 Y-50.1049
G01 X-9.5781 Y-50.3270
G01 X-9.6380 Y-50.5366
G01 X-9.6645 Y-50.6005
G01 X-9.7703 Y-50.7912
G01 X-9.9072 Y-50.9579
G01 X-10.0735 Y-51.0989
G01 X-10.1310 Y-51.1373
G01 X-10.3356 Y-51.2411
G01 X-10.5555 Y-51.3044
G01 X-10.7887 Y-51.3268
G01 X-14.2161 Y-51.3268
G01 X-14.3327 Y-51.3043
G01 X-14.4158 Y-51.2636
G01 X-14.5081 Y-51.1704
G01 X-14.5433 Y-51.1014
G01 X-14.5674 Y-50.9875
G01 X-14.5674 Y-50.9424
G01 X-14.5569 Y-50.8932
G01 X-14.4586 Y-50.6698
G01 X-14.4563 Y-50.1408
G01 X-14.5107 Y-50.1408
G01 X-14.5107 Y-50.6125
G01 X-14.5240 Y-50.6889
G01 X-14.5489 Y-50.7385
G01 X-14.5852 Y-50.7805
G01 X-14.6306 Y-50.8125
G01 X-14.6933 Y-50.8349
G01 X-16.7486 Y-50.8390
G01 X-16.8139 Y-50.8260
G01 X-16.8726 Y-50.7947
G01 X-16.9197 Y-50.7476
G01 X-16.9510 Y-50.6889
G01 X-16.9643 Y-50.6125
G01 X-16.9643 Y-48.7075
G01 X-16.9545 Y-48.6417
G01 X-16.9320 Y-48.5909
G01 X-16.8979 Y-48.5471
G01 X-16.8541 Y-48.5130
G01 X-16.8033 Y-48.4905
G01 X-16.7375 Y-48.4807
G01 X-16.2183 Y-48.4807
G01 X-16.2183 Y-48.4263
G01 X-16.7948 Y-48.4286
G01 X-16.8739 Y-48.4583
G01 X-16.9384 Y-48.5066
G01 X-17.0080 Y-48.5926
G01 X-17.0617 Y-48.6351
G01 X-17.1734 Y-48.6847
G01 X-17.2500 Y-48.6940
G01 X-17.3964 Y-48.6666
G01 X-17.4471 Y-48.6371
G01 X-17.5110 Y-48.5823
G01 X-17.5664 Y-48.5101
G01 X-17.6068 Y-48.3764
G01 X-17.6088 Y-39.4434
G01 X-17.6004 Y-39.3897
G01 X-17.5699 Y-39.3058
G01 X-17.5251 Y-39.2324
G01 X-17.4171 Y-39.1479
G01 X-17.3682 Y-39.1260
G01 X-17.3231 Y-39.1168
G01 X-17.2194 Y-39.1108
G01 X-17.1536 Y-39.1238
G01 X-17.0597 Y-39.1693
G01 X-16.9513 Y-39.2492
G01 X-16.8722 Y-39.2789
G01 X-16.2956 Y-39.2812
G01 X-16.2956 Y-39.2268
G01 X-16.8148 Y-39.2268
G01 X-16.8807 Y-39.2170
G01 X-16.9314 Y-39.1945
G01 X-16.9752 Y-39.1604
G01 X-17.0094 Y-39.1166
G01 X-17.0319 Y-39.0658
G01 X-17.0416 Y-39.0000
G01 X-17.0416 Y-37.0000
G01 X-17.0319 Y-36.9342
G01 X-17.0034 Y-36.8740
G01 X-16.9499 Y-36.8178
G01 X-16.8912 Y-36.7865
G01 X-16.8148 Y-36.7732
G01 X-16.2956 Y-36.7732
G01 X-16.2956 Y-36.7188
G01 X-16.8722 Y-36.7211
G01 X-16.9513 Y-36.7508
G01 X-17.0597 Y-36.8307
G01 X-17.1443 Y-36.8705
G01 X-17.2037 Y-36.8883
G01 X-17.2615 Y-36.8898
G01 X-17.3964 Y-36.8633
G01 X-17.4471 Y-36.8338
G01 X-17.5110 Y-36.7790
G01 X-17.5664 Y-36.7068
G01 X-17.6049 Y-36.5840
G01 X-17.6056 Y-30.6566
G00 X-17.6056 Y-30.6566
G01 F60.00
G01 Z-0.0750
G01 F120.00
G01 X-17.6049 Y-36.5840
G01 X-17.5664 Y-36.7068
G01 X-17.5110 Y-36.7790
G01 X-17.4471 Y-36.8338
G01 X-17.3964 Y-36.8633
G01 X-17.2615 Y-36.8898
G01 X-17.2037 Y-36.8883
G01 X-17.1443 Y-36.8705
G01 X-17.0597 Y-36.8307
G01 X-16.9513 Y-36.7508
G01 X-16.8722 Y-36.7211
G01 X-16.2956 Y-36.7188
G01 X-16.2956 Y-36.7732
G01 X-16.8148 Y-36.7732
G01 X-16.8912 Y-36.7865
G01 X-16.9499 Y-36.8178
G01 X-17.0034 Y-36.8740
G01 X-17.0319 Y-36.9342
G01 X-17.0416 Y-37.0000
G01 X-17.0416 Y-39.0000
G01 X-17.0319 Y-39.0658
G01 X-17.0094 Y-39.1166
G01 X-16.9752 Y-39.1604
G01 X-16.9314 Y-39.1945
G01 X-16.8807 Y-39.2170
G01 X-16.8148 Y-39.2268
G01 X-16.2956 Y-39.2268
G01 X-16.2956 Y-39.2812
G01 X-16.8722 Y-39.2789
G01 X-16.9513 Y-39.2492
G01 X-17.0597 Y-39.1693
G01 X-17.1536 Y-39.1238
G01 X-17.2194 Y-39.1108
G01 X-17.3231 Y-39.1168
G01 X-17.3682 Y-39.1260
G01 X-17.4171 Y-39.1479
G01 X-17.5251 Y-39.2324
G01 X-17.5699 Y-39.3058
G01 X-17.6004 Y-39.3897
G01 X-17.6088 Y-39.4434
G01 X-17.6068 Y-48.3764
G01 X-17.5664 Y-48.5101
G01 X-17.5110 Y-48.5823
G01 X-17.4471 Y-48.6371
G01 X-17.3964 Y-48.6666
G01 X-17.2500 Y-48.6940
G01 X-17.1734 Y-48.6847
G01 X-17.0617 Y-48.6351
G01 X-17.0080 Y-48.5926
G01 X-16.9384 Y-48.5066
G01 X-16.8739 Y-48.4583
G01 X-16.7948 Y-48.4286
G01 X-16.2183 Y-48.4263
G01 X-16.2183 Y-48.4807
G01 X-16.7375 Y-48.4807
G01 X-16.8033 Y-48.4905
G01 X-16.8541 Y-48.5130
G01 X-16.8979 Y-48.5471
G01 X-16.9320 Y-48.5909
G01 X-16.9545 Y-48.6417
G01 X-16.9643 Y-48.7075
G01 X-16.9643 Y-50.6125
G01 X-16.9510 Y-50.6889
G01 X-16.9197 Y-50.7476
G01 X-16.8726 Y-50.7947
G01 X-16.8139 Y-50.8260
G01 X-16.7486 Y-50.8390
G01 X-14.6933 Y-50.8349
G01 X-14.6306 Y-50.8125
G01 X-14.5852 Y-50.7805
G01 X-14.5489 Y-50.7385
G01 X-14.5240 Y-50.6889
G01 X-14.5107 Y-50.6125
G01 X-14.5107 Y-50.1408
G01 X-14.4563 Y-50.1408
G01 X-14.4586 Y-50.6698
G01 X-14.5569 Y-50.8932
G01 X-14.5674 Y-50.9424
G01 X-14.5674 Y-50.9875
G01 X-14.5433 Y-51.1014
G01 X-14.5081 Y-51.1704
G01 X-14.4158 Y-51.2636
G01 X-14.3327 Y-51.3043
G01 X-14.2161 Y-51.3268
G01 X-10.7887 Y-51.3268
G01 X-10.5555 Y-51.3044
G01 X-10.3356 Y-51.2411
G01 X-10.1310 Y-51.1373
G01 X-10.0735 Y-51.0989
G01 X-9.9072 Y-50.9579
G01 X-9.7703 Y-50.7912
G01 X-9.6645 Y-50.6005
G01 X-9.6380 Y-50.5366
G01 X-9.5781 Y-50.3270
G01 X-9.5560 Y-50.1049
G01 X-9.5602 Y-45.9295
G01 X-9.5936 Y-45.8180
G01 X-9.6287 Y-45.7605
G01 X-9.7268 Y-45.6735
G01 X-9.8005 Y-45.6399
G01 X-9.9372 Y-45.6231
G01 X-10.0090 Y-45.6367
G01 X-10.1467 Y-45.6812
G01 X-10.5017 Y-45.6812
G01 X-10.5017 Y-45.6268
G01 X-10.1714 Y-45.6265
G01 X-10.1167 Y-45.6170
G01 X-10.0756 Y-45.6000
G01 X-10.0221 Y-45.5604
G01 X-9.9880 Y-45.5166
G01 X-9.9655 Y-45.4658
G01 X-9.9557 Y-45.4000
G01 X-9.9557 Y-43.8000
G01 X-9.9655 Y-43.7342
G01 X-9.9880 Y-43.6834
G01 X-10.0145 Y-43.6477
G01 X-10.0474 Y-43.6178
G01 X-10.0957 Y-43.5905
G01 X-10.1714 Y-43.5735
G01 X-10.5017 Y-43.5732
G01 X-10.5017 Y-43.5188
G01 X-10.1467 Y-43.5188
G01 X-9.9879 Y-43.5676
G01 X-9.8819 Y-43.5756
G01 X-9.8156 Y-43.5657
G01 X-9.6956 Y-43.5048
G01 X-9.6434 Y-43.4577
G01 X-9.5733 Y-43.3328
G01 X-9.5559 Y-43.2359
G01 X-9.5557 Y-28.5062
G01 X-9.5781 Y-28.2730
G01 X-9.6414 Y-28.0531
G01 X-9.7452 Y-27.8485
G01 X-9.7836 Y-27.7910
G01 X-9.9246 Y-27.6247
G01 X-10.0913 Y-27.4878
G01 X-10.2820 Y-27.3820
G01 X-10.3459 Y-27.3555
G01 X-10.5555 Y-27.2956
G01 X-10.7776 Y-27.2735
G01 X-14.1932 Y-27.2732
G01 X-14.2475 Y-27.2798
G01 X-14.3336 Y-27.3050
G01 X-14.4071 Y-27.3462
G01 X-14.4941 Y-27.4443
G01 X-14.5251 Y-27.5085
G01 X-14.5436 Y-27.6210
G01 X-14.5380 Y-27.6991
G01 X-14.4688 Y-27.9017
G01 X-14.4688 Y-28.5567
G01 X-14.5232 Y-28.5567
G01 X-14.5232 Y-27.9375
G01 X-14.5300 Y-27.8824
G01 X-14.5500 Y-27.8306
G01 X-14.5820 Y-27.7852
G01 X-14.6334 Y-27.7430
G01 X-14.6842 Y-27.7205
G01 X-14.7500 Y-27.7107
G01 X-16.9500 Y-27.7107
G01 X-17.0158 Y-27.7205
G01 X-17.0760 Y-27.7489
G01 X-17.1322 Y-27.8024
G01 X-17.1635 Y-27.8611
G01 X-17.1765 Y-27.9264
G01 X-17.1768 Y-30.1375
G01 X-17.1700 Y-30.1926
G01 X-17.1500 Y-30.2444
G01 X-17.1104 Y-30.2979
G01 X-17.0569 Y-30.3375
G01 X-17.0051 Y-30.3575
G01 X-16.9500 Y-30.3643
G01 X-16.3308 Y-30.3643
G01 X-16.3308 Y-30.4187
G01 X-16.9858 Y-30.4187
G01 X-17.1287 Y-30.3699
G01 X-17.2169 Y-30.3497
G01 X-17.3096 Y-30.3489
G01 X-17.4319 Y-30.3925
G01 X-17.4923 Y-30.4357
G01 X-17.5774 Y-30.5514
G01 X-17.6056 Y-30.6566
G00 X-17.6056 Y-30.6566
G01 F60.00
G01 Z-0.1000
G01 F120.00
G01 X-17.5774 Y-30.5514
G01 X-17.4923 Y-30.4357
G01 X-17.4319 Y-30.3925
G01 X-17.3096 Y-30.3489
G01 X-17.2169 Y-30.3497
G01 X-17.1287 Y-30.3699
G01 X-16.9858 Y-30.4187
G01 X-16.3308 Y-30.4187
G01 X-16.3308 Y-30.3643
G01 X-16.9500 Y-30.3643
G01 X-17.0051 Y-30.3575
G01 X-17.0569 Y-30.3375
G01 X-17.1104 Y-30.2979
G01 X-17.1500 Y-30.2444
G01 X-17.1700 Y-30.1926
G01 X-17.1768 Y-30.1375
G01 X-17.1765 Y-27.9264
G01 X-17.1635 Y-27.8611
G01 X-17.1322 Y-27.8024
G01 X-17.0760 Y-27.7489
G01 X-17.0158 Y-27.7205
G01 X-16.9500 Y-27.7107
G01 X-14.7500 Y-27.7107
G01 X-14.6842 Y-27.7205
G01 X-14.6334 Y-27.7430
G01 X-14.5820 Y-27.7852
G01 X-14.5500 Y-27.8306
G01 X-14.5300 Y-27.8824
G01 X-14.5232 Y-27.9375
G01 X-14.5232 Y-28.5567
G01 X-14.4688 Y-28.5567
G01 X-14.4688 Y-27.9017
G01 X-14.5380 Y-27.6991
G01 X-14.5436 Y-27.6210
G01 X-14.5251 Y-27.5085
G01 X-14.4941 Y-27.4443
G01 X-14.4071 Y-27.3462
G01 X-14.3336 Y-27.3050
G01 X-14.2475 Y-27.2798
G01 X-14.1932 Y-27.2732
G01 X-10.7776 Y-27.2735
G01 X-10.5555 Y-27.2956
G01 X-10.3459 Y-27.3555
G01 X-10.2820 Y-27.3820
G01 X-10.0913 Y-27.4878
G01 X-9.9246 Y-27.6247
G01 X-9.7836 Y-27.7910
G01 X-9.7452 Y-27.8485
G01 X-9.6414 Y-28.0531
G01 X-9.5781 Y-28.2730
G01 X-9.5557 Y-28.5062
G01 X-9.5559 Y-43.2359
G01 X-9.5733 Y-43.3328
G01 X-9.6434 Y-43.4577
G01 X-9.6956 Y-43.5048
G01 X-9.8156 Y-43.5657
G01 X-9.8819 Y-43.5756
G01 X-9.9879 Y-43.5676
G01 X-10.1467 Y-43.5188
G01 X-10.5017 Y-43.5188
G01 X-10.5017 Y-43.5732
G01 X-10.1714 Y-43.5735
G01 X-10.0957 Y-43.5905
G01 X-10.0474 Y-43.6178
G01 X-10.0145 Y-43.6477
G01 X-9.9880 Y-43.6834
G01 X-9.9655 Y-43.7342
G01 X-9.9557 Y-43.8000
G01 X-9.9557 Y-45.4000
G01 X-9.9655 Y-45.4658
G01 X-9.9880 Y-45.5166
G01 X-10.0221 Y-45.5604
G01 X-10.0756 Y-45.6000
G01 X-10.1167 Y-45.6170
G01 X-10.1714 Y-45.6265
G01 X-10.5017 Y-45.6268
G01 X-10.5017 Y-45.6812
G01 X-10.1467 Y-45.6812
G01 X-10.0090 Y-45.6367
G01 X-9.9372 Y-45.6231
G01 X-9.8005 Y-45.6399
G01 X-9.7268 Y-45.6735
G01 X-9.6287 Y-45.7605
G01 X-9.5936 Y-45.8180
G01 X-9.5602 Y-45.9295
G01 X-9.5560 Y-50.1049
G01 X-9.5781 Y-50.3270
G01 X-9.6380 Y-50.5366
G01 X-9.6645 Y-50.6005
G01 X-9.7703 Y-50.7912
G01 X-9.9072 Y-50.9579
G01 X-10.0735 Y-51.0989
G01 X-10.1310 Y-51.1373
G01 X-10.3356 Y-51.2411
G01 X-10.5555 Y-51.3044
G01 X-10.7887 Y-51.3268
G01 X-14.2161 Y-51.3268
G01 X-14.3327 Y-51.3043
G01 X-14.4158 Y-51.2636
G01 X-14.5081 Y-51.1704
G01 X-14.5433 Y-51.1014
G01 X-14.5674 Y-50.9875
G01 X-14.5674 Y-50.9424
G01 X-14.5569 Y-50.8932
G01 X-14.4586 Y-50.6698
G01 X-14.4563 Y-50.1408
G01 X-14.5107 Y-50.1408
G01 X-14.5107 Y-50.6125
G01 X-14.5240 Y-50.6889
G01 X-14.5489 Y-50.7385
G01 X-14.5852 Y-50.7805
G01 X-14.6306 Y-50.8125
G01 X-14.6933 Y-50.8349
G01 X-16.7486 Y-50.8390
G01 X-16.8139 Y-50.8260
G01 X-16.8726 Y-50.7947
G01 X-16.9197 Y-50.7476
G01 X-16.9510 Y-50.6889
G01 X-16.9643 Y-50.6125
G01 X-16.9643 Y-48.7075
G01 X-16.9545 Y-48.6417
G01 X-16.9320 Y-48.5909
G01 X-16.8979 Y-48.5471
G01 X-16.8541 Y-48.5130
G01 X-16.8033 Y-48.4905
G01 X-16.7375 Y-48.4807
G01 X-16.2183 Y-48.4807
G01 X-16.2183 Y-48.4263
G01 X-16.7948 Y-48.4286
G01 X-16.8739 Y-48.4583
G01 X-16.9384 Y-48.5066
G01 X-17.0080 Y-48.5926
G01 X-17.0617 Y-48.6351
G01 X-17.1734 Y-48.6847
G01 X-17.2500 Y-48.6940
G01 X-17.3964 Y-48.6666
G01 X-17.4471 Y-48.6371
G01 X-17.5110 Y-48.5823
G01 X-17.5664 Y-48.5101
G01 X-17.6068 Y-48.3764
G01 X-17.6088 Y-39.4434
G01 X-17.6004 Y-39.3897
G01 X-17.5699 Y-39.3058
G01 X-17.5251 Y-39.2324
G01 X-17.4171 Y-39.1479
G01 X-17.3682 Y-39.1260
G01 X-17.3231 Y-39.1168
G01 X-17.2194 Y-39.1108
G01 X-17.1536 Y-39.1238
G01 X-17.0597 Y-39.1693
G01 X-16.9513 Y-39.2492
G01 X-16.8722 Y-39.2789
G01 X-16.2956 Y-39.2812
G01 X-16.2956 Y-39.2268
G01 X-16.8148 Y-39.2268
G01 X-16.8807 Y-39.2170
G01 X-16.9314 Y-39.1945
G01 X-16.9752 Y-39.1604
G01 X-17.0094 Y-39.1166
G01 X-17.0319 Y-39.0658
G01 X-17.0416 Y-39.0000
G01 X-17.0416 Y-37.0000
G01 X-17.0319 Y-36.9342
G01 X-17.0034 Y-36.8740
G01 X-16.9499 Y-36.8178
G01 X-16.8912 Y-36.7865
G01 X-16.8148 Y-36.7732
G01 X-16.2956 Y-36.7732
G01 X-16.2956 Y-36.7188
G01 X-16.8722 Y-36.7211
G01 X-16.9513 Y-36.7508
G01 X-17.0597 Y-36.8307
G01 X-17.1443 Y-36.8705
G01 X-17.2037 Y-36.8883
G01 X-17.2615 Y-36.8898
G01 X-17.3964 Y-36.8633
G01 X-17.4471 Y-36.8338
G01 X-17.5110 Y-36.7790
G01 X-17.5664 Y-36.7068
G01 X-17.6049 Y-36.5840
G01 X-17.6056 Y-30.6566
G00 Z2.0000
G00 X-17.6734 Y-30.6245
G01 F60.00
G01 Z-0.0250
G01 F120.00
G01 X-17.5666 Y-30.4402
G01 X-17.4988 Y-30.3726
G01 X-17.3766 Y-30.3004
G01 X-17.2967 Y-30.2195
G01 X-17.2606 Y-30.1549
G01 X-17.2362 Y-30.0623
G01 X-17.2317 Y-27.9016
G01 X-17.1996 Y-27.8008
G01 X-17.1513 Y-27.7362
G01 X-17.0867 Y-27.6879
G01 X-17.0074 Y-27.6581
G01 X-14.8441 Y-27.6530
G01 X-14.7312 Y-27.6210
G01 X-14.6636 Y-27.5808
G01 X-14.5900 Y-27.5007
G01 X-14.5097 Y-27.3773
G01 X-14.4121 Y-27.2854
G01 X-14.2880 Y-27.2348
G01 X-14.1770 Y-27.2188
G01 X-10.7653 Y-27.2196
G01 X-10.5404 Y-27.2431
G01 X-10.3354 Y-27.3018
G01 X-10.2514 Y-27.3366
G01 X-10.0657 Y-27.4395
G01 X-9.8822 Y-27.5901
G01 X-9.7451 Y-27.7521
G01 X-9.6955 Y-27.8262
G01 X-9.6191 Y-27.9690
G01 X-9.5849 Y-28.0514
G01 X-9.5258 Y-28.2570
G01 X-9.5013 Y-28.5090
G01 X-9.5013 Y-43.2195
G01 X-9.5065 Y-43.3369
G01 X-9.4951 Y-43.4250
G01 X-9.4797 Y-43.4741
G01 X-9.4538 Y-43.5184
G01 X-9.3929 Y-43.5914
G01 X-9.3190 Y-43.6441
G01 X-9.2013 Y-43.6810
G01 X-9.1376 Y-43.6839
G01 X-9.0438 Y-43.6652
G01 X-8.8537 Y-43.5801
G01 X-8.6710 Y-43.5312
G01 X-8.4825 Y-43.5147
G01 X-8.2940 Y-43.5312
G01 X-8.1360 Y-43.5735
G01 X-8.1810 Y-43.6185
G01 X-8.2931 Y-43.5910
G01 X-8.4714 Y-43.5735
G01 X-8.5843 Y-43.5783
G01 X-8.6937 Y-43.5954
G01 X-8.7911 Y-43.6209
G01 X-8.9566 Y-43.6894
G01 X-9.0530 Y-43.7462
G01 X-9.1339 Y-43.8063
G01 X-9.2086 Y-43.8739
G01 X-9.2831 Y-43.9574
G01 X-9.3826 Y-44.1063
G01 X-9.4311 Y-44.2071
G01 X-9.4681 Y-44.3127
G01 X-9.5030 Y-44.4883
G01 X-9.5093 Y-44.6000
G01 X-9.5042 Y-44.7018
G01 X-9.4898 Y-44.7991
G01 X-9.4616 Y-44.9086
G01 X-9.3931 Y-45.0741
G01 X-9.3422 Y-45.1611
G01 X-9.2762 Y-45.2514
G01 X-9.2086 Y-45.3261
G01 X-9.0530 Y-45.4538
G01 X-8.8754 Y-45.5486
G01 X-8.6828 Y-45.6071
G01 X-8.5720 Y-45.6227
G01 X-8.3930 Y-45.6227
G01 X-8.2840 Y-45.6074
G01 X-8.1810 Y-45.5815
G01 X-8.1360 Y-45.6265
G01 X-8.2940 Y-45.6688
G01 X-8.4825 Y-45.6853
G01 X-8.6710 Y-45.6688
G01 X-8.8537 Y-45.6199
G01 X-9.0480 Y-45.5325
G01 X-9.1569 Y-45.5145
G01 X-9.2035 Y-45.5145
G01 X-9.2623 Y-45.5288
G01 X-9.3828 Y-45.5892
G01 X-9.4276 Y-45.6350
G01 X-9.4943 Y-45.7448
G01 X-9.5082 Y-45.7977
G01 X-9.5145 Y-45.8829
G01 X-9.5013 Y-45.9906
G01 X-9.5013 Y-50.0910
G01 X-9.5258 Y-50.3432
G01 X-9.5843 Y-50.5471
G01 X-9.6191 Y-50.6311
G01 X-9.7145 Y-50.8055
G01 X-9.8466 Y-50.9716
G01 X-9.9109 Y-51.0359
G01 X-10.0770 Y-51.1680
G01 X-10.2514 Y-51.2634
G01 X-10.3354 Y-51.2982
G01 X-10.5398 Y-51.3568
G01 X-10.7907 Y-51.3812
G01 X-14.1958 Y-51.3825
G01 X-14.3205 Y-51.4160
G01 X-14.3793 Y-51.4490
G01 X-14.4579 Y-51.5331
G01 X-14.4900 Y-51.5814
G01 X-14.5079 Y-51.6325
G01 X-14.5210 Y-51.7192
G01 X-14.6141 Y-51.7192
G01 X-14.7099 Y-51.5441
G01 X-14.7784 Y-51.4519
G01 X-14.8484 Y-51.3742
G01 X-14.9506 Y-51.2815
G01 X-15.0348 Y-51.2194
G01 X-15.1341 Y-51.1600
G01 X-15.2491 Y-51.1065
G01 X-15.3477 Y-51.0715
G01 X-15.4599 Y-51.0434
G01 X-15.5744 Y-51.0264
G01 X-15.6789 Y-51.0210
G01 X-15.8919 Y-51.0257
G01 X-16.0132 Y-51.0430
G01 X-16.1379 Y-51.0750
G01 X-16.3310 Y-51.1549
G01 X-16.4410 Y-51.2200
G01 X-16.5331 Y-51.2884
G01 X-16.6108 Y-51.3584
G01 X-16.6971 Y-51.4525
G01 X-16.7715 Y-51.5542
G01 X-16.8609 Y-51.7192
G01 X-16.9256 Y-51.7192
G01 X-16.8325 Y-51.5403
G01 X-16.7056 Y-51.3651
G01 X-16.6654 Y-51.2591
G01 X-16.6572 Y-51.1861
G01 X-16.6802 Y-51.0671
G01 X-16.7116 Y-50.9998
G01 X-16.8012 Y-50.9055
G01 X-16.9388 Y-50.8138
G01 X-16.9871 Y-50.7492
G01 X-17.0169 Y-50.6699
G01 X-17.0242 Y-49.0414
G01 X-17.0510 Y-48.9484
G01 X-17.0739 Y-48.9001
G01 X-17.1095 Y-48.8566
G01 X-17.1803 Y-48.7953
G01 X-17.2439 Y-48.7604
G01 X-17.4247 Y-48.7111
G01 X-17.5344 Y-48.6340
G01 X-17.5971 Y-48.5617
G01 X-17.6369 Y-48.4746
G01 X-17.6637 Y-48.3266
G01 X-17.6633 Y-39.4454
G01 X-17.6400 Y-39.3381
G01 X-17.5806 Y-39.2179
G01 X-17.4820 Y-39.1271
G01 X-17.3980 Y-39.0812
G01 X-17.3247 Y-39.0590
G01 X-17.2126 Y-38.9926
G01 X-17.1656 Y-38.9368
G01 X-17.1062 Y-38.8132
G01 X-17.0965 Y-38.7313
G01 X-17.0965 Y-37.2682
G01 X-17.1035 Y-37.2125
G01 X-17.1313 Y-37.1196
G01 X-17.1792 Y-37.0436
G01 X-17.2868 Y-36.9554
G01 X-17.4247 Y-36.9078
G01 X-17.5052 Y-36.8560
G01 X-17.5971 Y-36.7584
G01 X-17.6477 Y-36.6343
G01 X-17.6637 Y-36.5233
G01 X-17.6634 Y-30.6929
G01 X-17.6734 Y-30.6245
G00 X-17.6734 Y-30.6245
G01 F60.00
G01 Z-0.0500
G01 F120.00
G01 X-17.6634 Y-30.6929
G01 X-17.6637 Y-36.5233
G01 X-17.6477 Y-36.6343
G01 X-17.5971 Y-36.7584
G01 X-17.5052 Y-36.8560
G01 X-17.4247 Y-36.9078
G01 X-17.2868 Y-36.9554
G01 X-17.1792 Y-37.0436
G01 X-17.1313 Y-37.1196
G01 X-17.1035 Y-37.2125
G01 X-17.0965 Y-37.2682
G01 X-17.0965 Y-38.7313
G01 X-17.1062 Y-38.8132
G01 X-17.1656 Y-38.9368
G01 X-17.2126 Y-38.9926
G01 X-17.3247 Y-39.0590
G01 X-17.3980 Y-39.0812
G01 X-17.4820 Y-39.1271
G01 X-17.5806 Y-39.2179
G01 X-17.6400 Y-39.3381
G01 X-17.6633 Y-39.4454
G01 X-17.6637 Y-48.3266
G01 X-17.6369 Y-48.4746
G01 X-17.5971 Y-48.5617
G01 X-17.5344 Y-48.6340
G01 X-17.4247 Y-48.7111
G01 X-17.2439 Y-48.7604
G01 X-17.1803 Y-48.7953
G01 X-17.1095 Y-48.8566
G01 X-17.0739 Y-48.9001
G01 X-17.0510 Y-48.9484
G01 X-17.0242 Y-49.0414
G01 X-17.0169 Y-50.6699
G01 X-16.9871 Y-50.7492
G01 X-16.9388 Y-50.8138
G01 X-16.8012 Y-50.9055
G01 X-16.7116 Y-50.9998
G01 X-16.6802 Y-51.0671
G01 X-16.6572 Y-51.1861
G01 X-16.6654 Y-51.2591
G01 X-16.7056 Y-51.3651
G01 X-16.8325 Y-51.5403
G01 X-16.9256 Y-51.7192
G01 X-16.8609 Y-51.7192
G01 X-16.7715 Y-51.5542
G01 X-16.6971 Y-51.4525
G01 X-16.6108 Y-51.3584
G01 X-16.5331 Y-51.2884
G01 X-16.4410 Y-51.2200
G01 X-16.3310 Y-51.1549
G01 X-16.1379 Y-51.0750
G01 X-16.0132 Y-51.0430
G01 X-15.8919 Y-51.0257
G01 X-15.6789 Y-51.0210
G01 X-15.5744 Y-51.0264
G01 X-15.4599 Y-51.0434
G01 X-15.3477 Y-51.0715
G01 X-15.2491 Y-51.1065
G01 X-15.1341 Y-51.1600
G01 X-15.0348 Y-51.2194
G01 X-14.9506 Y-51.2815
G01 X-14.8484 Y-51.3742
G01 X-14.7784 Y-51.4519
G01 X-14.7099 Y-51.5441
G01 X-14.6141 Y-51.7192
G01 X-14.5210 Y-51.7192
G01 X-14.5079 Y-51.6325
G01 X-14.4900 Y-51.5814
G01 X-14.4579 Y-51.5331
G01 X-14.3793 Y-51.4490
G01 X-14.3205 Y-51.4160
G01 X-14.1958 Y-51.3825
G01 X-10.7907 Y-51.3812
G01 X-10.5398 Y-51.3568
G01 X-10.3354 Y-51.2982
G01 X-10.2514 Y-51.2634
G01 X-10.0770 Y-51.1680
G01 X-9.9109 Y-51.0359
G01 X-9.8466 Y-50.9716
G01 X-9.7145 Y-50.8055
G01 X-9.6191 Y-50.6311
G01 X-9.5843 Y-50.5471
G01 X-9.5258 Y-50.3432
G01 X-9.5013 Y-50.0910
G01 X-9.5013 Y-45.9906
G01 X-9.5145 Y-45.8829
G01 X-9.5082 Y-45.7977
G01 X-9.4943 Y-45.7448
G01 X-9.4276 Y-45.6350
G01 X-9.3828 Y-45.5892
G01 X-9.2623 Y-45.5288
G01 X-9.2035 Y-45.5145
G01 X-9.1569 Y-45.5145
G01 X-9.0480 Y-45.5325
G01 X-8.8537 Y-45.6199
G01 X-8.6710 Y-45.6688
G01 X-8.4825 Y-45.6853
G01 X-8.2940 Y-45.6688
G01 X-8.1360 Y-45.6265
G01 X-8.1810 Y-45.5815
G01 X-8.2840 Y-45.6074
G01 X-8.3930 Y-45.6227
G01 X-8.5720 Y-45.6227
G01 X-8.6828 Y-45.6071
G01 X-8.8754 Y-45.5486
G01 X-9.0530 Y-45.4538
G01 X-9.2086 Y-45.3261
G01 X-9.2762 Y-45.2514
G01 X-9.3422 Y-45.1611
G01 X-9.3931 Y-45.0741
G01 X-9.4616 Y-44.9086
G01 X-9.4898 Y-44.7991
G01 X-9.5042 Y-44.7018
G01 X-9.5093 Y-44.6000
G01 X-9.5030 Y-44.4883
G01 X-9.4681 Y-44.3127
G01 X-9.4311 Y-44.2071
G01 X-9.3826 Y-44.1063
G01 X-9.2831 Y-43.9574
G01 X-9.2086 Y-43.8739
G01 X-9.1339 Y-43.8063
G01 X-9.0530 Y-43.7462
G01 X-8.9566 Y-43.6894
G01 X-8.7911 Y-43.6209
G01 X-8.6937 Y-43.5954
G01 X-8.5843 Y-43.5783
G01 X-8.4714 Y-43.5735
G01 X-8.2931 Y-43.5910
G01 X-8.1810 Y-43.6185
G01 X-8.1360 Y-43.5735
G01 X-8.2940 Y-43.5312
G01 X-8.4825 Y-43.5147
G01 X-8.6710 Y-43.5312
G01 X-8.8537 Y-43.5801
G01 X-9.0438 Y-43.6652
G01 X-9.1376 Y-43.6839
G01 X-9.2013 Y-43.6810
G01 X-9.3190 Y-43.6441
G01 X-9.3929 Y-43.5914
G01 X-9.4538 Y-43.5184
G01 X-9.4797 Y-43.4741
G01 X-9.4951 Y-43.4250
G01 X-9.5065 Y-43.3369
G01 X-9.5013 Y-43.2195
G01 X-9.5013 Y-28.5090
G01 X-9.5258 Y-28.2570
G01 X-9.5849 Y-28.0514
G01 X-9.6191 Y-27.9690
G01 X-9.6955 Y-27.8262
G01 X-9.7451 Y-27.7521
G01 X-9.8822 Y-27.5901
G01 X-10.0657 Y-27.4395
G01 X-10.2514 Y-27.3366
G01 X-10.3354 Y-27.3018
G01 X-10.5404 Y-27.2431
G01 X-10.7653 Y-27.2196
G01 X-14.1770 Y-27.2188
G01 X-14.2880 Y-27.2348
G01 X-14.4121 Y-27.2854
G01 X-14.5097 Y-27.3773
G01 X-14.5900 Y-27.5007
G01 X-14.6636 Y-27.5808
G01 X-14.7312 Y-27.6210
G01 X-14.8441 Y-27.6530
G01 X-17.0074 Y-27.6581
G01 X-17.0867 Y-27.6879
G01 X-17.1513 Y-27.7362
G01 X-17.1996 Y-27.8008
G01 X-17.2317 Y-27.9016
G01 X-17.2362 Y-30.0623
G01 X-17.2606 Y-30.1549
G01 X-17.2967 Y-30.2195
G01 X-17.3766 Y-30.3004
G01 X-17.4988 Y-30.3726
G01 X-17.5666 Y-30.4402
G01 X-17.6734 Y-30.6245
G00 X-17.6734 Y-30.6245
G01 F60.00
G01 Z-0.0750
G01 F120.00
G01 X-17.5666 Y-30.4402
G01 X-17.4988 Y-30.3726
G01 X-17.3766 Y-30.3004
G01 X-17.2967 Y-30.2195
G01 X-17.2606 Y-30.1549
G01 X-17.2362 Y-30.0623
G01 X-17.2317 Y-27.9016
G01 X-17.1996 Y-27.8008
G01 X-17.1513 Y-27.7362
G01 X-17.0867 Y-27.6879
G01 X-17.0074 Y-27.6581
G01 X-14.8441 Y-27.6530
G01 X-14.7312 Y-27.6210
G01 X-14.6636 Y-27.5808
G01 X-14.5900 Y-27.5007
G01 X-14.5097 Y-27.3773
G01 X-14.4121 Y-27.2854
G01 X-14.2880 Y-27.2348
G01 X-14.1770 Y-27.2188
G01 X-10.7653 Y-27.2196
G01 X-10.5404 Y-27.2431
G01 X-10.3354 Y-27.3018
G01 X-10.2514 Y-27.3366
G01 X-10.0657 Y-27.4395
G01 X-9.8822 Y-27.5901
G01 X-9.7451 Y-27.7521
G01 X-9.6955 Y-27.8262
G01 X-9.6191 Y-27.9690
G01 X-9.5849 Y-28.0514
G01 X-9.5258 Y-28.2570
G01 X-9.5013 Y-28.5090
G01 X-9.5013 Y-43.2195
G01 X-9.5065 Y-43.3369
G01 X-9.4951 Y-43.4250
G01 X-9.4797 Y-43.4741
G01 X-9.4538 Y-43.5184
G01 X-9.3929 Y-43.5914
G01 X-9.3190 Y-43.6441
G01 X-9.2013 Y-43.6810
G01 X-9.1376 Y-43.6839
G01 X-9.0438 Y-43.6652
G01 X-8.8537 Y-43.5801
G01 X-8.6710 Y-43.5312
G01 X-8.4825 Y-43.5147
G01 X-8.2940 Y-43.5312
G01 X-8.1360 Y-43.5735
G01 X-8.1810 Y-43.6185
G01 X-8.2931 Y-43.5910
G01 X-8.4714 Y-43.5735
G01 X-8.5843 Y-43.5783
G01 X-8.6937 Y-43.5954
G01 X-8.7911 Y-43.6209
G01 X-8.9566 Y-43.6894
G01 X-9.0530 Y-43.7462
G01 X-9.1339 Y-43.8063
G01 X-9.2086 Y-43.8739
G01 X-9.2831 Y-43.9574
G01 X-9.3826 Y-44.1063
G01 X-9.4311 Y-44.2071
G01 X-9.4681 Y-44.3127
G01 X-9.5030 Y-44.4883
G01 X-9.5093 Y-44.6000
G01 X-9.5042 Y-44.7018
G01 X-9.4898 Y-44.7991
G01 X-9.4616 Y-44.9086
G01 X-9.3931 Y-45.0741
G01 X-9.3422 Y-45.1611
G01 X-9.2762 Y-45.2514
G01 X-9.2086 Y-45.3261
G01 X-9.0530 Y-45.4538
G01 X-8.8754 Y-45.5486
G01 X-8.6828 Y-45.6071
G01 X-8.5720 Y-45.6227
G01 X-8.3930 Y-45.6227
G01 X-8.2840 Y-45.6074
G01 X-8.1810 Y-45.5815
G01 X-8.1360 Y-45.6265
G01 X-8.2940 Y-45.6688
G01 X-8.4825 Y-45.6853
G01 X-8.6710 Y-45.6688
G01 X-8.8537 Y-45.6199
G01 X-9.0480 Y-45.5325
G01 X-9.1569 Y-45.5145
G01 X-9.2035 Y-45.5145
G01 X-9.2623 Y-45.5288
G01 X-9.3828 Y-45.5892
G01 X-9.4276 Y-45.6350
G01 X-9.4943 Y-45.7448
G01 X-9.5082 Y-45.7977
G01 X-9.5145 Y-45.8829
G01 X-9.5013 Y-45.9906
G01 X-9.5013 Y-50.0910
G01 X-9.5258 Y-50.3432
G01 X-9.5843 Y-50.5471
G01 X-9.6191 Y-50.6311
G01 X-9.7145 Y-50.8055
G01 X-9.8466 Y-50.9716
G01 X-9.9109 Y-51.0359
G01 X-10.0770 Y-51.1680
G01 X-10.2514 Y-51.2634
G01 X-10.3354 Y-51.2982
G01 X-10.5398 Y-51.3568
G01 X-10.7907 Y-51.3812
G01 X-14.1958 Y-51.3825
G01 X-14.3205 Y-51.4160
G01 X-14.3793 Y-51.4490
G01 X-14.4579 Y-51.5331
G01 X-14.4900 Y-51.5814
G01 X-14.5079 Y-51.6325
G01 X-14.5210 Y-51.7192
G01 X-14.6141 Y-51.7192
G01 X-14.7099 Y-51.5441
G01 X-14.7784 Y-51.4519
G01 X-14.8484 Y-51.3742
G01 X-14.9506 Y-51.2815
G01 X-15.0348 Y-51.2194
G01 X-15.1341 Y-51.1600
G01 X-15.2491 Y-51.1065
G01 X-15.3477 Y-51.0715
G01 X-15.4599 Y-51.0434
G01 X-15.5744 Y-51.0264
G01 X-15.6789 Y-51.0210
G01 X-15.8919 Y-51.0257
G01 X-16.0132 Y-51.0430
G01 X-16.1379 Y-51.0750
G01 X-16.3310 Y-51.1549
G01 X-16.4410 Y-51.2200
G01 X-16.5331 Y-51.2884
G01 X-16.6108 Y-51.3584
G01 X-16.6971 Y-51.4525
G01 X-16.7715 Y-51.5542
G01 X-16.8609 Y-51.7192
G01 X-16.9256 Y-51.7192
G01 X-16.8325 Y-51.5403
G01 X-16.7056 Y-51.3651
G01 X-16.6654 Y-51.2591
G01 X-16.6572 Y-51.1861
G01 X-16.6802 Y-51.0671
G01 X-16.7116 Y-50.9998
G01 X-16.8012 Y-50.9055
G01 X-16.9388 Y-50.8138
G01 X-16.9871 Y-50.7492
G01 X-17.0169 Y-50.6699
G01 X-17.0242 Y-49.0414
G01 X-17.0510 Y-48.9484
G01 X-17.0739 Y-48.9001
G01 X-17.1095 Y-48.8566
G01 X-17.1803 Y-48.7953
G01 X-17.2439 Y-48.7604
G01 X-17.4247 Y-48.7111
G01 X-17.5344 Y-48.6340
G01 X-17.5971 Y-48.5617
G01 X-17.6369 Y-48.4746
G01 X-17.6637 Y-48.3266
G01 X-17.6633 Y-39.4454
G01 X-17.6400 Y-39.3381
G01 X-17.5806 Y-39.2179
G01 X-17.4820 Y-39.1271
G01 X-17.3980 Y-39.0812
G01 X-17.3247 Y-39.0590
G01 X-17.2126 Y-38.9926
G01 X-17.1656 Y-38.9368
G01 X-17.1062 Y-38.8132
G01 X-17.0965 Y-38.7313
G01 X-17.0965 Y-37.2682
G01 X-17.1035 Y-37.2125
G01 X-17.1313 Y-37.1196
G01 X-17.1792 Y-37.0436
G01 X-17.2868 Y-36.9554
G01 X-17.4247 Y-36.9078
G01 X-17.5052 Y-36.8560
G01 X-17.5971 Y-36.7584
G01 X-17.6477 Y-36.6343
G01 X-17.6637 Y-36.5233
G01 X-17.6634 Y-30.6929
G01 X-17.6734 Y-30.6245
G00 X-17.6734 Y-30.6245
G01 F60.00
G01 Z-0.1000
G01 F120.00
G01 X-17.6634 Y-30.6929
G01 X-17.6637 Y-36.5233
G01 X-17.6477 Y-36.6343
G01 X-17.5971 Y-36.7584
G01 X-17.5052 Y-36.8560
G01 X-17.4247 Y-36.9078
G01 X-17.2868 Y-36.9554
G01 X-17.1792 Y-37.0436
G01 X-17.1313 Y-37.1196
G01 X-17.1035 Y-37.2125
G01 X-17.0965 Y-37.2682
G01 X-17.0965 Y-38.7313
G01 X-17.1062 Y-38.8132
G01 X-17.1656 Y-38.9368
G01 X-17.2126 Y-38.9926
G01 X-17.3247 Y-39.0590
G01 X-17.3980 Y-39.0812
G01 X-17.4820 Y-39.1271
G01 X-17.5806 Y-39.2179
G01 X-17.6400 Y-39.3381
G01 X-17.6633 Y-39.4454
G01 X-17.6637 Y-48.3266
G01 X-17.6369 Y-48.4746
G01 X-17.5971 Y-48.5617
G01 X-17.5344 Y-48.6340
G01 X-17.4247 Y-48.7111
G01 X-17.2439 Y-48.7604
G01 X-17.1803 Y-48.7953
G01 X-17.1095 Y-48.8566
G01 X-17.0739 Y-48.9001
G01 X-17.0510 Y-48.9484
G01 X-17.0242 Y-49.0414
G01 X-17.0169 Y-50.6699
G01 X-16.9871 Y-50.7492
G01 X-16.9388 Y-50.8138
G01 X-16.8012 Y-50.9055
G01 X-16.7116 Y-50.9998
G01 X-16.6802 Y-51.0671
G01 X-16.6572 Y-51.1861
G01 X-16.6654 Y-51.2591
G01 X-16.7056 Y-51.3651
G01 X-16.8325 Y-51.5403
G01 X-16.9256 Y-51.7192
G01 X-16.8609 Y-51.7192
G01 X-16.7715 Y-51.5542
G01 X-16.6971 Y-51.4525
G01 X-16.6108 Y-51.3584
G01 X-16.5331 Y-51.2884
G01 X-16.4410 Y-51.2200
G01 X-16.3310 Y-51.1549
G01 X-16.1379 Y-51.0750
G01 X-16.0132 Y-51.0430
G01 X-15.8919 Y-51.0257
G01 X-15.6789 Y-51.0210
G01 X-15.5744 Y-51.0264
G01 X-15.4599 Y-51.0434
G01 X-15.3477 Y-51.0715
G01 X-15.2491 Y-51.1065
G01 X-15.1341 Y-51.1600
G01 X-15.0348 Y-51.2194
G01 X-14.9506 Y-51.2815
G01 X-14.8484 Y-51.3742
G01 X-14.7784 Y-51.4519
G01 X-14.7099 Y-51.5441
G01 X-14.6141 Y-51.7192
G01 X-14.5210 Y-51.7192
G01 X-14.5079 Y-51.6325
G01 X-14.4900 Y-51.5814
G01 X-14.4579 Y-51.5331
G01 X-14.3793 Y-51.4490
G01 X-14.3205 Y-51.4160
G01 X-14.1958 Y-51.3825
G01 X-10.7907 Y-51.3812
G01 X-10.5398 Y-51.3568
G01 X-10.3354 Y-51.2982
G01 X-10.2514 Y-51.2634
G01 X-10.0770 Y-51.1680
G01 X-9.9109 Y-51.0359
G01 X-9.8466 Y-50.9716
G01 X-9.7145 Y-50.8055
G01 X-9.6191 Y-50.6311
G01 X-9.5843 Y-50.5471
G01 X-9.5258 Y-50.3432
G01 X-9.5013 Y-50.0910
G01 X-9.5013 Y-45.9906
G01 X-9.5145 Y-45.8829
G01 X-9.5082 Y-45.7977
G01 X-9.4943 Y-45.7448
G01 X-9.4276 Y-45.6350
G01 X-9.3828 Y-45.5892
G01 X-9.2623 Y-45.5288
G01 X-9.2035 Y-45.5145
G01 X-9.1569 Y-45.5145
G01 X-9.0480 Y-45.5325
G01 X-8.8537 Y-45.6199
G01 X-8.6710 Y-45.6688
G01 X-8.4825 Y-45.6853
G01 X-8.2940 Y-45.6688
G01 X-8.1360 Y-45.6265
G01 X-8.1810 Y-45.5815
G01 X-8.2840 Y-45.6074
G01 X-8.3930 Y-45.6227
G01 X-8.5720 Y-45.6227
G01 X-8.6828 Y-45.6071
G01 X-8.8754 Y-45.5486
G01 X-9.0530 Y-45.4538
G01 X-9.2086 Y-45.3261
G01 X-9.2762 Y-45.2514
G01 X-9.3422 Y-45.1611
G01 X-9.3931 Y-45.0741
G01 X-9.4616 Y-44.9086
G01 X-9.4898 Y-44.7991
G01 X-9.5042 Y-44.7018
G01 X-9.5093 Y-44.6000
G01 X-9.5030 Y-44.4883
G01 X-9.4681 Y-44.3127
G01 X-9.4311 Y-44.2071
G01 X-9.3826 Y-44.1063
G01 X-9.2831 Y-43.9574
G01 X-9.2086 Y-43.8739
G01 X-9.1339 Y-43.8063
G01 X-9.0530 Y-43.7462
G01 X-8.9566 Y-43.6894
G01 X-8.7911 Y-43.6209
G01 X-8.6937 Y-43.5954
G01 X-8.5843 Y-43.5783
G01 X-8.4714 Y-43.5735
G01 X-8.2931 Y-43.5910
G01 X-8.1810 Y-43.6185
G01 X-8.1360 Y-43.5735
G01 X-8.2940 Y-43.5312
G01 X-8.4825 Y-43.5147
G01 X-8.6710 Y-43.5312
G01 X-8.8537 Y-43.5801
G01 X-9.0438 Y-43.6652
G01 X-9.1376 Y-43.6839
G01 X-9.2013 Y-43.6810
G01 X-9.3190 Y-43.6441
G01 X-9.3929 Y-43.5914
G01 X-9.4538 Y-43.5184
G01 X-9.4797 Y-43.4741
G01 X-9.4951 Y-43.4250
G01 X-9.5065 Y-43.3369
G01 X-9.5013 Y-43.2195
G01 X-9.5013 Y-28.5090
G01 X-9.5258 Y-28.2570
G01 X-9.5849 Y-28.0514
G01 X-9.6191 Y-27.9690
G01 X-9.6955 Y-27.8262
G01 X-9.7451 Y-27.7521
G01 X-9.8822 Y-27.5901
G01 X-10.0657 Y-27.4395
G01 X-10.2514 Y-27.3366
G01 X-10.3354 Y-27.3018
G01 X-10.5404 Y-27.2431
G01 X-10.7653 Y-27.2196
G01 X-14.1770 Y-27.2188
G01 X-14.2880 Y-27.2348
G01 X-14.4121 Y-27.2854
G01 X-14.5097 Y-27.3773
G01 X-14.5900 Y-27.5007
G01 X-14.6636 Y-27.5808
G01 X-14.7312 Y-27.6210
G01 X-14.8441 Y-27.6530
G01 X-17.0074 Y-27.6581
G01 X-17.0867 Y-27.6879
G01 X-17.1513 Y-27.7362
G01 X-17.1996 Y-27.8008
G01 X-17.2317 Y-27.9016
G01 X-17.2362 Y-30.0623
G01 X-17.2606 Y-30.1549
G01 X-17.2967 Y-30.2195
G01 X-17.3766 Y-30.3004
G01 X-17.4988 Y-30.3726
G01 X-17.5666 Y-30.4402
G01 X-17.6734 Y-30.6245
G00 Z2.0000
G00 X-20.8923 Y-30.1010
G01 F60.00
G01 Z-0.0250
G01 F120.00
G01 X-22.3577 Y-30.1010
G01 X-22.2109 Y-29.9108
G01 X-22.1373 Y-29.7864
G01 X-22.0663 Y-29.6328
G01 X-22.0180 Y-29.4952
G01 X-21.9802 Y-29.3410
G01 X-21.9582 Y-29.1876
G01 X-21.9511 Y-29.0308
G01 X-21.9585 Y-28.8841
G01 X-21.9828 Y-28.7209
G01 X-22.0222 Y-28.5661
G01 X-22.0753 Y-28.4196
G01 X-22.1431 Y-28.2779
G01 X-22.2183 Y-28.1525
G01 X-22.3098 Y-28.0283
G01 X-22.4157 Y-27.9106
G01 X-22.4157 Y-21.4054
G01 X-22.3646 Y-21.3248
G01 X-22.3290 Y-21.4857
G01 X-22.2915 Y-21.5762
G01 X-22.2464 Y-21.6555
G01 X-22.1943 Y-21.7257
G01 X-22.1319 Y-21.7915
G01 X-22.0537 Y-21.8554
G01 X-21.9789 Y-21.9023
G01 X-21.8437 Y-21.9597
G01 X-21.6868 Y-21.9909
G01 X-20.9960 Y-21.9940
G01 X-20.8243 Y-22.1657
G01 X-20.8243 Y-27.9007
G01 X-20.9314 Y-28.0176
G01 X-21.0257 Y-28.1437
G01 X-21.1064 Y-28.2769
G01 X-21.1746 Y-28.4195
G01 X-21.2281 Y-28.5670
G01 X-21.2669 Y-28.7190
G01 X-21.2905 Y-28.8741
G01 X-21.2989 Y-29.0308
G01 X-21.2915 Y-29.1909
G01 X-21.2698 Y-29.3410
G01 X-21.2315 Y-29.4968
G01 X-21.1838 Y-29.6327
G01 X-21.1132 Y-29.7853
G01 X-21.0410 Y-29.9077
G01 X-20.8923 Y-30.1010
G00 X-20.8923 Y-30.1010
G01 F60.00
G01 Z-0.0500
G01 F120.00
G01 X-21.0410 Y-29.9077
G01 X-21.1132 Y-29.7853
G01 X-21.1838 Y-29.6327
G01 X-21.2315 Y-29.4968
G01 X-21.2698 Y-29.3410
G01 X-21.2915 Y-29.1909
G01 X-21.2989 Y-29.0308
G01 X-21.2905 Y-28.8741
G01 X-21.2669 Y-28.7190
G01 X-21.2281 Y-28.5670
G01 X-21.1746 Y-28.4195
G01 X-21.1064 Y-28.2769
G01 X-21.0257 Y-28.1437
G01 X-20.9314 Y-28.0176
G01 X-20.8243 Y-27.9007
G01 X-20.8243 Y-22.1657
G01 X-20.9960 Y-21.9940
G01 X-21.6868 Y-21.9909
G01 X-21.8437 Y-21.9597
G01 X-21.9789 Y-21.9023
G01 X-22.0537 Y-21.8554
G01 X-22.1319 Y-21.7915
G01 X-22.1943 Y-21.7257
G01 X-22.2464 Y-21.6555
G01 X-22.2915 Y-21.5762
G01 X-22.3290 Y-21.4857
G01 X-22.3646 Y-21.3248
G01 X-22.4157 Y-21.4054
G01 X-22.4157 Y-27.9106
G01 X-22.3098 Y-28.0283
G01 X-22.2183 Y-28.1525
G01 X-22.1431 Y-28.2779
G01 X-22.0753 Y-28.4196
G01 X-22.0222 Y-28.5661
G01 X-21.9828 Y-28.7209
G01 X-21.9585 Y-28.8841
G01 X-21.9511 Y-29.0308
G01 X-21.9582 Y-29.1876
G01 X-21.9802 Y-29.3410
G01 X-22.0180 Y-29.4952
G01 X-22.0663 Y-29.6328
G01 X-22.1373 Y-29.7864
G01 X-22.2109 Y-29.9108
G01 X-22.3577 Y-30.1010
G01 X-20.8923 Y-30.1010
G00 X-20.8923 Y-30.1010
G01 F60.00
G01 Z-0.0750
G01 F120.00
G01 X-22.3577 Y-30.1010
G01 X-22.2109 Y-29.9108
G01 X-22.1373 Y-29.7864
G01 X-22.0663 Y-29.6328
G01 X-22.0180 Y-29.4952
G01 X-21.9802 Y-29.3410
G01 X-21.9582 Y-29.1876
G01 X-21.9511 Y-29.0308
G01 X-21.9585 Y-28.8841
G01 X-21.9828 Y-28.7209
G01 X-22.0222 Y-28.5661
G01 X-22.0753 Y-28.4196
G01 X-22.1431 Y-28.2779
G01 X-22.2183 Y-28.1525
G01 X-22.3098 Y-28.0283
G01 X-22.4157 Y-27.9106
G01 X-22.4157 Y-21.4054
G01 X-22.3646 Y-21.3248
G01 X-22.3290 Y-21.4857
G01 X-22.2915 Y-21.5762
G01 X-22.2464 Y-21.6555
G01 X-22.1943 Y-21.7257
G01 X-22.1319 Y-21.7915
G01 X-22.0537 Y-21.8554
G01 X-21.9789 Y-21.9023
G01 X-21.8437 Y-21.9597
G01 X-21.6868 Y-21.9909
G01 X-20.9960 Y-21.9940
G01 X-20.8243 Y-22.1657
G01 X-20.8243 Y-27.9007
G01 X-20.9314 Y-28.0176
G01 X-21.0257 Y-28.1437
G01 X-21.1064 Y-28.2769
G01 X-21.1746 Y-28.4195
G01 X-21.2281 Y-28.5670
G01 X-21.2669 Y-28.7190
G01 X-21.2905 Y-28.8741
G01 X-21.2989 Y-29.0308
G01 X-21.2915 Y-29.1909
G01 X-21.2698 Y-29.3410
G01 X-21.2315 Y-29.4968
G01 X-21.1838 Y-29.6327
G01 X-21.1132 Y-29.7853
G01 X-21.0410 Y-29.9077
G01 X-20.8923 Y-30.1010
G00 X-20.8923 Y-30.1010
G01 F60.00
G01 Z-0.1000
G01 F120.00
G01 X-21.0410 Y-29.9077
G01 X-21.1132 Y-29.7853
G01 X-21.1838 Y-29.6327
G01 X-21.2315 Y-29.4968
G01 X-21.2698 Y-29.3410
G01 X-21.2915 Y-29.1909
G01 X-21.2989 Y-29.0308
G01 X-21.2905 Y-28.8741
G01 X-21.2669 Y-28.7190
G01 X-21.2281 Y-28.5670
G01 X-21.1746 Y-28.4195
G01 X-21.1064 Y-28.2769
G01 X-21.0257 Y-28.1437
G01 X-20.9314 Y-28.0176
G01 X-20.8243 Y-27.9007
G01 X-20.8243 Y-22.1657
G01 X-20.9960 Y-21.9940
G01 X-21.6868 Y-21.9909
G01 X-21.8437 Y-21.9597
G01 X-21.9789 Y-21.9023
G01 X-22.0537 Y-21.8554
G01 X-22.1319 Y-21.7915
G01 X-22.1943 Y-21.7257
G01 X-22.2464 Y-21.6555
G01 X-22.2915 Y-21.5762
G01 X-22.3290 Y-21.4857
G01 X-22.3646 Y-21.3248
G01 X-22.4157 Y-21.4054
G01 X-22.4157 Y-27.9106
G01 X-22.3098 Y-28.0283
G01 X-22.2183 Y-28.1525
G01 X-22.1431 Y-28.2779
G01 X-22.0753 Y-28.4196
G01 X-22.0222 Y-28.5661
G01 X-21.9828 Y-28.7209
G01 X-21.9585 Y-28.8841
G01 X-21.9511 Y-29.0308
G01 X-21.9582 Y-29.1876
G01 X-21.9802 Y-29.3410
G01 X-22.0180 Y-29.4952
G01 X-22.0663 Y-29.6328
G01 X-22.1373 Y-29.7864
G01 X-22.2109 Y-29.9108
G01 X-22.3577 Y-30.1010
G01 X-20.8923 Y-30.1010
G00 Z2.0000
G00 X-24.8712 Y-29.1564
G01 F60.00
G01 Z-0.0250
G01 F120.00
G01 X-24.8489 Y-29.3072
G01 X-24.8195 Y-29.4232
G01 X-24.7713 Y-29.5554
G01 X-24.7201 Y-29.6629
G01 X-24.6527 Y-29.7754
G01 X-24.5756 Y-29.8792
G01 X-24.4801 Y-29.9834
G01 X-24.3920 Y-30.0629
G01 X-24.2871 Y-30.1407
G01 X-24.1761 Y-30.2073
G01 X-24.0577 Y-30.2633
G01 X-23.9351 Y-30.3072
G01 X-23.8088 Y-30.3388
G01 X-23.6800 Y-30.3579
G01 X-23.5500 Y-30.3643
G01 X-23.4187 Y-30.3578
G01 X-23.2924 Y-30.3390
G01 X-23.1643 Y-30.3070
G01 X-23.0526 Y-30.2673
G01 X-22.9149 Y-30.2021
G01 X-22.8121 Y-30.1402
G01 X-22.6999 Y-30.0559
G01 X-22.6118 Y-29.9757
G01 X-22.5246 Y-29.8795
G01 X-22.4468 Y-29.7746
G01 X-22.3802 Y-29.6636
G01 X-22.3242 Y-29.5452
G01 X-22.2803 Y-29.4226
G01 X-22.2486 Y-29.2957
G01 X-22.2310 Y-29.1786
G01 X-22.2232 Y-29.0375
G01 X-22.2310 Y-28.8964
G01 X-22.2485 Y-28.7799
G01 X-22.2777 Y-28.6619
G01 X-22.3242 Y-28.5299
G01 X-22.3799 Y-28.4121
G01 X-22.4532 Y-28.2913
G01 X-22.5316 Y-28.1874
G01 X-22.6118 Y-28.0993
G01 X-22.6879 Y-28.0300
G01 X-22.6879 Y-21.3153
G01 X-22.6221 Y-21.2249
G01 X-22.5312 Y-21.0549
G01 X-22.4904 Y-20.9434
G01 X-22.4643 Y-20.8390
G01 X-22.4485 Y-20.7325
G01 X-22.4432 Y-20.6250
G01 X-22.4486 Y-20.0663
G01 X-22.4640 Y-19.9622
G01 X-22.4906 Y-19.8561
G01 X-22.5677 Y-19.6679
G01 X-22.6345 Y-19.5565
G01 X-22.7644 Y-19.3994
G01 X-22.9215 Y-19.2695
G01 X-23.0329 Y-19.2027
G01 X-23.2216 Y-19.1254
G01 X-23.4214 Y-19.0848
G01 X-23.5400 Y-19.0782
G01 X-23.6487 Y-19.0836
G01 X-23.7528 Y-19.0990
G01 X-23.8589 Y-19.1256
G01 X-23.9597 Y-19.1617
G01 X-24.0562 Y-19.2073
G01 X-24.1501 Y-19.2636
G01 X-24.2362 Y-19.3275
G01 X-24.3156 Y-19.3994
G01 X-24.3878 Y-19.4792
G01 X-24.4520 Y-19.5657
G01 X-24.5073 Y-19.6580
G01 X-24.5529 Y-19.7543
G01 X-24.5896 Y-19.8566
G01 X-24.6302 Y-20.0564
G01 X-24.6368 Y-20.1750
G01 X-24.6368 Y-20.6250
G01 X-24.6314 Y-20.7337
G01 X-24.6160 Y-20.8378
G01 X-24.5894 Y-20.9439
G01 X-24.5488 Y-21.0549
G01 X-24.4579 Y-21.2249
G01 X-24.3921 Y-21.3153
G01 X-24.3921 Y-28.0122
G01 X-24.4959 Y-28.1074
G01 X-24.5754 Y-28.1955
G01 X-24.6468 Y-28.2913
G01 X-24.7198 Y-28.4114
G01 X-24.7758 Y-28.5298
G01 X-24.8197 Y-28.6524
G01 X-24.8532 Y-28.7896
G01 X-24.8704 Y-28.9075
G01 X-24.8765 Y-29.0264
G01 X-24.8712 Y-29.1564
G00 X-24.8712 Y-29.1564
G01 F60.00
G01 Z-0.0500
G01 F120.00
G01 X-24.8765 Y-29.0264
G01 X-24.8704 Y-28.9075
G01 X-24.8532 Y-28.7896
G01 X-24.8197 Y-28.6524
G01 X-24.7758 Y-28.5298
G01 X-24.7198 Y-28.4114
G01 X-24.6468 Y-28.2913
G01 X-24.5754 Y-28.1955
G01 X-24.4959 Y-28.1074
G01 X-24.3921 Y-28.0122
G01 X-24.3921 Y-21.3153
G01 X-24.4579 Y-21.2249
G01 X-24.5488 Y-21.0549
G01 X-24.5894 Y-20.9439
G01 X-24.6160 Y-20.8378
G01 X-24.6314 Y-20.7337
G01 X-24.6368 Y-20.6250
G01 X-24.6368 Y-20.1750
G01 X-24.6302 Y-20.0564
G01 X-24.5896 Y-19.8566
G01 X-24.5529 Y-19.7543
G01 X-24.5073 Y-19.6580
G01 X-24.4520 Y-19.5657
G01 X-24.3878 Y-19.4792
G01 X-24.3156 Y-19.3994
G01 X-24.2362 Y-19.3275
G01 X-24.1501 Y-19.2636
G01 X-24.0562 Y-19.2073
G01 X-23.9597 Y-19.1617
G01 X-23.8589 Y-19.1256
G01 X-23.7528 Y-19.0990
G01 X-23.6487 Y-19.0836
G01 X-23.5400 Y-19.0782
G01 X-23.4214 Y-19.0848
G01 X-23.2216 Y-19.1254
G01 X-23.0329 Y-19.2027
G01 X-22.9215 Y-19.2695
G01 X-22.7644 Y-19.3994
G01 X-22.6345 Y-19.5565
G01 X-22.5677 Y-19.6679
G01 X-22.4906 Y-19.8561
G01 X-22.4640 Y-19.9622
G01 X-22.4486 Y-20.0663
G01 X-22.4432 Y-20.6250
G01 X-22.4485 Y-20.7325
G01 X-22.4643 Y-20.8390
G01 X-22.4904 Y-20.9434
G01 X-22.5312 Y-21.0549
G01 X-22.6221 Y-21.2249
G01 X-22.6879 Y-21.3153
G01 X-22.6879 Y-28.0300
G01 X-22.6118 Y-28.0993
G01 X-22.5316 Y-28.1874
G01 X-22.4532 Y-28.2913
G01 X-22.3799 Y-28.4121
G01 X-22.3242 Y-28.5299
G01 X-22.2777 Y-28.6619
G01 X-22.2485 Y-28.7799
G01 X-22.2310 Y-28.8964
G01 X-22.2232 Y-29.0375
G01 X-22.2310 Y-29.1786
G01 X-22.2486 Y-29.2957
G01 X-22.2803 Y-29.4226
G01 X-22.3242 Y-29.5452
G01 X-22.3802 Y-29.6636
G01 X-22.4468 Y-29.7746
G01 X-22.5246 Y-29.8795
G01 X-22.6118 Y-29.9757
G01 X-22.6999 Y-30.0559
G01 X-22.8121 Y-30.1402
G01 X-22.9149 Y-30.2021
G01 X-23.0526 Y-30.2673
G01 X-23.1643 Y-30.3070
G01 X-23.2924 Y-30.3390
G01 X-23.4187 Y-30.3578
G01 X-23.5500 Y-30.3643
G01 X-23.6800 Y-30.3579
G01 X-23.8088 Y-30.3388
G01 X-23.9351 Y-30.3072
G01 X-24.0577 Y-30.2633
G01 X-24.1761 Y-30.2073
G01 X-24.2871 Y-30.1407
G01 X-24.3920 Y-30.0629
G01 X-24.4801 Y-29.9834
G01 X-24.5756 Y-29.8792
G01 X-24.6527 Y-29.7754
G01 X-24.7201 Y-29.6629
G01 X-24.7713 Y-29.5554
G01 X-24.8195 Y-29.4232
G01 X-24.8489 Y-29.3072
G01 X-24.8712 Y-29.1564
G00 X-24.8712 Y-29.1564
G01 F60.00
G01 Z-0.0750
G01 F120.00
G01 X-24.8489 Y-29.3072
G01 X-24.8195 Y-29.4232
G01 X-24.7713 Y-29.5554
G01 X-24.7201 Y-29.6629
G01 X-24.6527 Y-29.7754
G01 X-24.5756 Y-29.8792
G01 X-24.4801 Y-29.9834
G01 X-24.3920 Y-30.0629
G01 X-24.2871 Y-30.1407
G01 X-24.1761 Y-30.2073
G01 X-24.0577 Y-30.2633
G01 X-23.9351 Y-30.3072
G01 X-23.8088 Y-30.3388
G01 X-23.6800 Y-30.3579
G01 X-23.5500 Y-30.3643
G01 X-23.4187 Y-30.3578
G01 X-23.2924 Y-30.3390
G01 X-23.1643 Y-30.3070
G01 X-23.0526 Y-30.2673
G01 X-22.9149 Y-30.2021
G01 X-22.8121 Y-30.1402
G01 X-22.6999 Y-30.0559
G01 X-22.6118 Y-29.9757
G01 X-22.5246 Y-29.8795
G01 X-22.4468 Y-29.7746
G01 X-22.3802 Y-29.6636
G01 X-22.3242 Y-29.5452
G01 X-22.2803 Y-29.4226
G01 X-22.2486 Y-29.2957
G01 X-22.2310 Y-29.1786
G01 X-22.2232 Y-29.0375
G01 X-22.2310 Y-28.8964
G01 X-22.2485 Y-28.7799
G01 X-22.2777 Y-28.6619
G01 X-22.3242 Y-28.5299
G01 X-22.3799 Y-28.4121
G01 X-22.4532 Y-28.2913
G01 X-22.5316 Y-28.1874
G01 X-22.6118 Y-28.0993
G01 X-22.6879 Y-28.0300
G01 X-22.6879 Y-21.3153
G01 X-22.6221 Y-21.2249
G01 X-22.5312 Y-21.0549
G01 X-22.4904 Y-20.9434
G01 X-22.4643 Y-20.8390
G01 X-22.4485 Y-20.7325
G01 X-22.4432 Y-20.6250
G01 X-22.4486 Y-20.0663
G01 X-22.4640 Y-19.9622
G01 X-22.4906 Y-19.8561
G01 X-22.5677 Y-19.6679
G01 X-22.6345 Y-19.5565
G01 X-22.7644 Y-19.3994
G01 X-22.9215 Y-19.2695
G01 X-23.0329 Y-19.2027
G01 X-23.2216 Y-19.1254
G01 X-23.4214 Y-19.0848
G01 X-23.5400 Y-19.0782
G01 X-23.6487 Y-19.0836
G01 X-23.7528 Y-19.0990
G01 X-23.8589 Y-19.1256
G01 X-23.9597 Y-19.1617
G01 X-24.0562 Y-19.2073
G01 X-24.1501 Y-19.2636
G01 X-24.2362 Y-19.3275
G01 X-24.3156 Y-19.3994
G01 X-24.3878 Y-19.4792
G01 X-24.4520 Y-19.5657
G01 X-24.5073 Y-19.6580
G01 X-24.5529 Y-19.7543
G01 X-24.5896 Y-19.8566
G01 X-24.6302 Y-20.0564
G01 X-24.6368 Y-20.1750
G01 X-24.6368 Y-20.6250
G01 X-24.6314 Y-20.7337
G01 X-24.6160 Y-20.8378
G01 X-24.5894 Y-20.9439
G01 X-24.5488 Y-21.0549
G01 X-24.4579 Y-21.2249
G01 X-24.3921 Y-21.3153
G01 X-24.3921 Y-28.0122
G01 X-24.4959 Y-28.1074
G01 X-24.5754 Y-28.1955
G01 X-24.6468 Y-28.2913
G01 X-24.7198 Y-28.4114
G01 X-24.7758 Y-28.5298
G01 X-24.8197 Y-28.6524
G01 X-24.8532 Y-28.7896
G01 X-24.8704 Y-28.9075
G01 X-24.8765 Y-29.0264
G01 X-24.8712 Y-29.1564
G00 X-24.8712 Y-29.1564
G01 F60.00
G01 Z-0.1000
G01 F120.00
G01 X-24.8765 Y-29.0264
G01 X-24.8704 Y-28.9075
G01 X-24.8532 Y-28.7896
G01 X-24.8197 Y-28.6524
G01 X-24.7758 Y-28.5298
G01 X-24.7198 Y-28.4114
G01 X-24.6468 Y-28.2913
G01 X-24.5754 Y-28.1955
G01 X-24.4959 Y-28.1074
G01 X-24.3921 Y-28.0122
G01 X-24.3921 Y-21.3153
G01 X-24.4579 Y-21.2249
G01 X-24.5488 Y-21.0549
G01 X-24.5894 Y-20.9439
G01 X-24.6160 Y-20.8378
G01 X-24.6314 Y-20.7337
G01 X-24.6368 Y-20.6250
G01 X-24.6368 Y-20.1750
G01 X-24.6302 Y-20.0564
G01 X-24.5896 Y-19.8566
G01 X-24.5529 Y-19.7543
G01 X-24.5073 Y-19.6580
G01 X-24.4520 Y-19.5657
G01 X-24.3878 Y-19.4792
G01 X-24.3156 Y-19.3994
G01 X-24.2362 Y-19.3275
G01 X-24.1501 Y-19.2636
G01 X-24.0562 Y-19.2073
G01 X-23.9597 Y-19.1617
G01 X-23.8589 Y-19.1256
G01 X-23.7528 Y-19.0990
G01 X-23.6487 Y-19.0836
G01 X-23.5400 Y-19.0782
G01 X-23.4214 Y-19.0848
G01 X-23.2216 Y-19.1254
G01 X-23.0329 Y-19.2027
G01 X-22.9215 Y-19.2695
G01 X-22.7644 Y-19.3994
G01 X-22.6345 Y-19.5565
G01 X-22.5677 Y-19.6679
G01 X-22.4906 Y-19.8561
G01 X-22.4640 Y-19.9622
G01 X-22.4486 Y-20.0663
G01 X-22.4432 Y-20.6250
G01 X-22.4485 Y-20.7325
G01 X-22.4643 Y-20.8390
G01 X-22.4904 Y-20.9434
G01 X-22.5312 Y-21.0549
G01 X-22.6221 Y-21.2249
G01 X-22.6879 Y-21.3153
G01 X-22.6879 Y-28.0300
G01 X-22.6118 Y-28.0993
G01 X-22.5316 Y-28.1874
G01 X-22.4532 Y-28.2913
G01 X-22.3799 Y-28.4121
G01 X-22.3242 Y-28.5299
G01 X-22.2777 Y-28.6619
G01 X-22.2485 Y-28.7799
G01 X-22.2310 Y-28.8964
G01 X-22.2232 Y-29.0375
G01 X-22.2310 Y-29.1786
G01 X-22.2486 Y-29.2957
G01 X-22.2803 Y-29.4226
G01 X-22.3242 Y-29.5452
G01 X-22.3802 Y-29.6636
G01 X-22.4468 Y-29.7746
G01 X-22.5246 Y-29.8795
G01 X-22.6118 Y-29.9757
G01 X-22.6999 Y-30.0559
G01 X-22.8121 Y-30.1402
G01 X-22.9149 Y-30.2021
G01 X-23.0526 Y-30.2673
G01 X-23.1643 Y-30.3070
G01 X-23.2924 Y-30.3390
G01 X-23.4187 Y-30.3578
G01 X-23.5500 Y-30.3643
G01 X-23.6800 Y-30.3579
G01 X-23.8088 Y-30.3388
G01 X-23.9351 Y-30.3072
G01 X-24.0577 Y-30.2633
G01 X-24.1761 Y-30.2073
G01 X-24.2871 Y-30.1407
G01 X-24.3920 Y-30.0629
G01 X-24.4801 Y-29.9834
G01 X-24.5756 Y-29.8792
G01 X-24.6527 Y-29.7754
G01 X-24.7201 Y-29.6629
G01 X-24.7713 Y-29.5554
G01 X-24.8195 Y-29.4232
G01 X-24.8489 Y-29.3072
G01 X-24.8712 Y-29.1564
G00 Z2.0000
G00 X-24.9360 Y-29.0375
G01 F60.00
G01 Z-0.0250
G01 F120.00
G01 X-24.9189 Y-28.8207
G01 X-24.8803 Y-28.6585
G01 X-24.8732 Y-28.5885
G01 X-24.8735 Y-23.9141
G01 X-24.9050 Y-23.7856
G01 X-24.9410 Y-23.7186
G01 X-25.0432 Y-23.6259
G01 X-25.1169 Y-23.5918
G01 X-25.2260 Y-23.5732
G01 X-45.3732 Y-23.5732
G01 X-45.3732 Y-17.2268
G01 X-18.3268 Y-17.2268
G01 X-18.3268 Y-28.8613
G01 X-18.3140 Y-29.0375
G01 X-18.3268 Y-29.2137
G01 X-18.3268 Y-30.3732
G01 X-19.3125 Y-30.3734
G01 X-19.4832 Y-30.4064
G01 X-19.7000 Y-30.4235
G01 X-19.9168 Y-30.4064
G01 X-20.0269 Y-30.3803
G01 X-20.0969 Y-30.3732
G01 X-23.1531 Y-30.3732
G01 X-23.2231 Y-30.3803
G01 X-23.3332 Y-30.4064
G01 X-23.5500 Y-30.4235
G01 X-23.7668 Y-30.4064
G01 X-23.9375 Y-30.3734
G01 X-24.8732 Y-30.3732
G01 X-24.8734 Y-29.4770
G01 X-24.8803 Y-29.4165
G01 X-24.9189 Y-29.2543
G01 X-24.9360 Y-29.0375
G00 X-24.9360 Y-29.0375
G01 F60.00
G01 Z-0.0500
G01 F120.00
G01 X-24.9189 Y-29.2543
G01 X-24.8803 Y-29.4165
G01 X-24.8734 Y-29.4770
G01 X-24.8732 Y-30.3732
G01 X-23.9375 Y-30.3734
G01 X-23.7668 Y-30.4064
G01 X-23.5500 Y-30.4235
G01 X-23.3332 Y-30.4064
G01 X-23.2231 Y-30.3803
G01 X-23.1531 Y-30.3732
G01 X-20.0969 Y-30.3732
G01 X-20.0269 Y-30.3803
G01 X-19.9168 Y-30.4064
G01 X-19.7000 Y-30.4235
G01 X-19.4832 Y-30.4064
G01 X-19.3125 Y-30.3734
G01 X-18.3268 Y-30.3732
G01 X-18.3268 Y-29.2137
G01 X-18.3140 Y-29.0375
G01 X-18.3268 Y-28.8613
G01 X-18.3268 Y-17.2268
G01 X-45.3732 Y-17.2268
G01 X-45.3732 Y-23.5732
G01 X-25.2260 Y-23.5732
G01 X-25.1169 Y-23.5918
G01 X-25.0432 Y-23.6259
G01 X-24.9410 Y-23.7186
G01 X-24.9050 Y-23.7856
G01 X-24.8735 Y-23.9141
G01 X-24.8732 Y-28.5885
G01 X-24.8803 Y-28.6585
G01 X-24.9189 Y-28.8207
G01 X-24.9360 Y-29.0375
G00 X-24.9360 Y-29.0375
G01 F60.00
G01 Z-0.0750
G01 F120.00
G01 X-24.9189 Y-28.8207
G01 X-24.8803 Y-28.6585
G01 X-24.8732 Y-28.5885
G01 X-24.8735 Y-23.9141
G01 X-24.9050 Y-23.7856
G01 X-24.9410 Y-23.7186
G01 X-25.0432 Y-23.6259
G01 X-25.1169 Y-23.5918
G01 X-25.2260 Y-23.5732
G01 X-45.3732 Y-23.5732
G01 X-45.3732 Y-17.2268
G01 X-18.3268 Y-17.2268
G01 X-18.3268 Y-28.8613
G01 X-18.3140 Y-29.0375
G01 X-18.3268 Y-29.2137
G01 X-18.3268 Y-30.3732
G01 X-19.3125 Y-30.3734
G01 X-19.4832 Y-30.4064
G01 X-19.7000 Y-30.4235
G01 X-19.9168 Y-30.4064
G01 X-20.0269 Y-30.3803
G01 X-20.0969 Y-30.3732
G01 X-23.1531 Y-30.3732
G01 X-23.2231 Y-30.3803
G01 X-23.3332 Y-30.4064
G01 X-23.5500 Y-30.4235
G01 X-23.7668 Y-30.4064
G01 X-23.9375 Y-30.3734
G01 X-24.8732 Y-30.3732
G01 X-24.8734 Y-29.4770
G01 X-24.8803 Y-29.4165
G01 X-24.9189 Y-29.2543
G01 X-24.9360 Y-29.0375
G00 X-24.9360 Y-29.0375
G01 F60.00
G01 Z-0.1000
G01 F120.00
G01 X-24.9189 Y-29.2543
G01 X-24.8803 Y-29.4165
G01 X-24.8734 Y-29.4770
G01 X-24.8732 Y-30.3732
G01 X-23.9375 Y-30.3734
G01 X-23.7668 Y-30.4064
G01 X-23.5500 Y-30.4235
G01 X-23.3332 Y-30.4064
G01 X-23.2231 Y-30.3803
G01 X-23.1531 Y-30.3732
G01 X-20.0969 Y-30.3732
G01 X-20.0269 Y-30.3803
G01 X-19.9168 Y-30.4064
G01 X-19.7000 Y-30.4235
G01 X-19.4832 Y-30.4064
G01 X-19.3125 Y-30.3734
G01 X-18.3268 Y-30.3732
G01 X-18.3268 Y-29.2137
G01 X-18.3140 Y-29.0375
G01 X-18.3268 Y-28.8613
G01 X-18.3268 Y-17.2268
G01 X-45.3732 Y-17.2268
G01 X-45.3732 Y-23.5732
G01 X-25.2260 Y-23.5732
G01 X-25.1169 Y-23.5918
G01 X-25.0432 Y-23.6259
G01 X-24.9410 Y-23.7186
G01 X-24.9050 Y-23.7856
G01 X-24.8735 Y-23.9141
G01 X-24.8732 Y-28.5885
G01 X-24.8803 Y-28.6585
G01 X-24.9189 Y-28.8207
G01 X-24.9360 Y-29.0375
G00 Z2.0000
G00 X-26.1437 Y-29.6138
G01 F60.00
G01 Z-0.0250
G01 F120.00
G01 X-26.1862 Y-29.5713
G01 X-26.1303 Y-29.4226
G01 X-26.0987 Y-29.2963
G01 X-26.0796 Y-29.1675
G01 X-26.0732 Y-29.0375
G01 X-26.0797 Y-28.9062
G01 X-26.0985 Y-28.7799
G01 X-26.1305 Y-28.6518
G01 X-26.1862 Y-28.5037
G01 X-26.1437 Y-28.4612
G01 X-26.0823 Y-28.6094
G01 X-26.0316 Y-28.8208
G01 X-26.0145 Y-29.0375
G01 X-26.0316 Y-29.2542
G01 X-26.0823 Y-29.4656
G01 X-26.1437 Y-29.6138
G00 X-26.1437 Y-29.6138
G01 F60.00
G01 Z-0.0500
G01 F120.00
G01 X-26.0823 Y-29.4656
G01 X-26.0316 Y-29.2542
G01 X-26.0145 Y-29.0375
G01 X-26.0316 Y-28.8208
G01 X-26.0823 Y-28.6094
G01 X-26.1437 Y-28.4612
G01 X-26.1862 Y-28.5037
G01 X-26.1305 Y-28.6518
G01 X-26.0985 Y-28.7799
G01 X-26.0797 Y-28.9062
G01 X-26.0732 Y-29.0375
G01 X-26.0796 Y-29.1675
G01 X-26.0987 Y-29.2963
G01 X-26.1303 Y-29.4226
G01 X-26.1862 Y-29.5713
G01 X-26.1437 Y-29.6138
G00 X-26.1437 Y-29.6138
G01 F60.00
G01 Z-0.0750
G01 F120.00
G01 X-26.1862 Y-29.5713
G01 X-26.1303 Y-29.4226
G01 X-26.0987 Y-29.2963
G01 X-26.0796 Y-29.1675
G01 X-26.0732 Y-29.0375
G01 X-26.0797 Y-28.9062
G01 X-26.0985 Y-28.7799
G01 X-26.1305 Y-28.6518
G01 X-26.1862 Y-28.5037
G01 X-26.1437 Y-28.4612
G01 X-26.0823 Y-28.6094
G01 X-26.0316 Y-28.8208
G01 X-26.0145 Y-29.0375
G01 X-26.0316 Y-29.2542
G01 X-26.0823 Y-29.4656
G01 X-26.1437 Y-29.6138
G00 X-26.1437 Y-29.6138
G01 F60.00
G01 Z-0.1000
G01 F120.00
G01 X-26.0823 Y-29.4656
G01 X-26.0316 Y-29.2542
G01 X-26.0145 Y-29.0375
G01 X-26.0316 Y-28.8208
G01 X-26.0823 Y-28.6094
G01 X-26.1437 Y-28.4612
G01 X-26.1862 Y-28.5037
G01 X-26.1305 Y-28.6518
G01 X-26.0985 Y-28.7799
G01 X-26.0797 Y-28.9062
G01 X-26.0732 Y-29.0375
G01 X-26.0796 Y-29.1675
G01 X-26.0987 Y-29.2963
G01 X-26.1303 Y-29.4226
G01 X-26.1862 Y-29.5713
G01 X-26.1437 Y-29.6138
G00 Z2.0000
G00 X-27.9763 Y-30.2938
G01 F60.00
G01 Z-0.0250
G01 F120.00
G01 X-27.9338 Y-30.2513
G01 X-27.7851 Y-30.3072
G01 X-27.6588 Y-30.3388
G01 X-27.5300 Y-30.3579
G01 X-27.4000 Y-30.3643
G01 X-27.2687 Y-30.3578
G01 X-27.1424 Y-30.3390
G01 X-27.0143 Y-30.3070
G01 X-26.8662 Y-30.2513
G01 X-26.8237 Y-30.2938
G01 X-26.9719 Y-30.3552
G01 X-27.1833 Y-30.4059
G01 X-27.4000 Y-30.4230
G01 X-27.6167 Y-30.4059
G01 X-27.8281 Y-30.3552
G01 X-27.9763 Y-30.2938
G00 X-27.9763 Y-30.2938
G01 F60.00
G01 Z-0.0500
G01 F120.00
G01 X-27.8281 Y-30.3552
G01 X-27.6167 Y-30.4059
G01 X-27.4000 Y-30.4230
G01 X-27.1833 Y-30.4059
G01 X-26.9719 Y-30.3552
G01 X-26.8237 Y-30.2938
G01 X-26.8662 Y-30.2513
G01 X-27.0143 Y-30.3070
G01 X-27.1424 Y-30.3390
G01 X-27.2687 Y-30.3578
G01 X-27.4000 Y-30.3643
G01 X-27.5300 Y-30.3579
G01 X-27.6588 Y-30.3388
G01 X-27.7851 Y-30.3072
G01 X-27.9338 Y-30.2513
G01 X-27.9763 Y-30.2938
G00 X-27.9763 Y-30.2938
G01 F60.00
G01 Z-0.0750
G01 F120.00
G01 X-27.9338 Y-30.2513
G01 X-27.7851 Y-30.3072
G01 X-27.6588 Y-30.3388
G01 X-27.5300 Y-30.3579
G01 X-27.4000 Y-30.3643
G01 X-27.2687 Y-30.3578
G01 X-27.1424 Y-30.3390
G01 X-27.0143 Y-30.3070
G01 X-26.8662 Y-30.2513
G01 X-26.8237 Y-30.2938
G01 X-26.9719 Y-30.3552
G01 X-27.1833 Y-30.4059
G01 X-27.4000 Y-30.4230
G01 X-27.6167 Y-30.4059
G01 X-27.8281 Y-30.3552
G01 X-27.9763 Y-30.2938
G00 X-27.9763 Y-30.2938
G01 F60.00
G01 Z-0.1000
G01 F120.00
G01 X-27.8281 Y-30.3552
G01 X-27.6167 Y-30.4059
G01 X-27.4000 Y-30.4230
G01 X-27.1833 Y-30.4059
G01 X-26.9719 Y-30.3552
G01 X-26.8237 Y-30.2938
G01 X-26.8662 Y-30.2513
G01 X-27.0143 Y-30.3070
G01 X-27.1424 Y-30.3390
G01 X-27.2687 Y-30.3578
G01 X-27.4000 Y-30.3643
G01 X-27.5300 Y-30.3579
G01 X-27.6588 Y-30.3388
G01 X-27.7851 Y-30.3072
G01 X-27.9338 Y-30.2513
G01 X-27.9763 Y-30.2938
G00 Z2.0000
G00 X-28.6563 Y-29.6138
G01 F60.00
G01 Z-0.0250
G01 F120.00
G01 X-28.7177 Y-29.4656
G01 X-28.7684 Y-29.2542
G01 X-28.7855 Y-29.0375
G01 X-28.7684 Y-28.8208
G01 X-28.7177 Y-28.6094
G01 X-28.6563 Y-28.4612
G01 X-28.6138 Y-28.5037
G01 X-28.6697 Y-28.6524
G01 X-28.7013 Y-28.7787
G01 X-28.7204 Y-28.9075
G01 X-28.7268 Y-29.0375
G01 X-28.7203 Y-29.1688
G01 X-28.7015 Y-29.2951
G01 X-28.6695 Y-29.4232
G01 X-28.6138 Y-29.5713
G01 X-28.6563 Y-29.6138
G00 X-28.6563 Y-29.6138
G01 F60.00
G01 Z-0.0500
G01 F120.00
G01 X-28.6138 Y-29.5713
G01 X-28.6695 Y-29.4232
G01 X-28.7015 Y-29.2951
G01 X-28.7203 Y-29.1688
G01 X-28.7268 Y-29.0375
G01 X-28.7204 Y-28.9075
G01 X-28.7013 Y-28.7787
G01 X-28.6697 Y-28.6524
G01 X-28.6138 Y-28.5037
G01 X-28.6563 Y-28.4612
G01 X-28.7177 Y-28.6094
G01 X-28.7684 Y-28.8208
G01 X-28.7855 Y-29.0375
G01 X-28.7684 Y-29.2542
G01 X-28.7177 Y-29.4656
G01 X-28.6563 Y-29.6138
G00 X-28.6563 Y-29.6138
G01 F60.00
G01 Z-0.0750
G01 F120.00
G01 X-28.7177 Y-29.4656
G01 X-28.7684 Y-29.2542
G01 X-28.7855 Y-29.0375
G01 X-28.7684 Y-28.8208
G01 X-28.7177 Y-28.6094
G01 X-28.6563 Y-28.4612
G01 X-28.6138 Y-28.5037
G01 X-28.6697 Y-28.6524
G01 X-28.7013 Y-28.7787
G01 X-28.7204 Y-28.9075
G01 X-28.7268 Y-29.0375
G01 X-28.7203 Y-29.1688
G01 X-28.7015 Y-29.2951
G01 X-28.6695 Y-29.4232
G01 X-28.6138 Y-29.5713
G01 X-28.6563 Y-29.6138
G00 X-28.6563 Y-29.6138
G01 F60.00
G01 Z-0.1000
G01 F120.00
G01 X-28.6138 Y-29.5713
G01 X-28.6695 Y-29.4232
G01 X-28.7015 Y-29.2951
G01 X-28.7203 Y-29.1688
G01 X-28.7268 Y-29.0375
G01 X-28.7204 Y-28.9075
G01 X-28.7013 Y-28.7787
G01 X-28.6697 Y-28.6524
G01 X-28.6138 Y-28.5037
G01 X-28.6563 Y-28.4612
G01 X-28.7177 Y-28.6094
G01 X-28.7684 Y-28.8208
G01 X-28.7855 Y-29.0375
G01 X-28.7684 Y-29.2542
G01 X-28.7177 Y-29.4656
G01 X-28.6563 Y-29.6138
G00 Z2.0000
G00 X-27.9763 Y-27.7812
G01 F60.00
G01 Z-0.0250
G01 F120.00
G01 X-27.8281 Y-27.7198
G01 X-27.6167 Y-27.6691
G01 X-27.4000 Y-27.6520
G01 X-27.1833 Y-27.6691
G01 X-26.9719 Y-27.7198
G01 X-26.8237 Y-27.7812
G01 X-26.8662 Y-27.8237
G01 X-27.0149 Y-27.7678
G01 X-27.1412 Y-27.7362
G01 X-27.2700 Y-27.7171
G01 X-27.4000 Y-27.7107
G01 X-27.5313 Y-27.7172
G01 X-27.6576 Y-27.7360
G01 X-27.7857 Y-27.7680
G01 X-27.9338 Y-27.8237
G01 X-27.9763 Y-27.7812
G00 X-27.9763 Y-27.7812
G01 F60.00
G01 Z-0.0500
G01 F120.00
G01 X-27.9338 Y-27.8237
G01 X-27.7857 Y-27.7680
G01 X-27.6576 Y-27.7360
G01 X-27.5313 Y-27.7172
G01 X-27.4000 Y-27.7107
G01 X-27.2700 Y-27.7171
G01 X-27.1412 Y-27.7362
G01 X-27.0149 Y-27.7678
G01 X-26.8662 Y-27.8237
G01 X-26.8237 Y-27.7812
G01 X-26.9719 Y-27.7198
G01 X-27.1833 Y-27.6691
G01 X-27.4000 Y-27.6520
G01 X-27.6167 Y-27.6691
G01 X-27.8281 Y-27.7198
G01 X-27.9763 Y-27.7812
G00 X-27.9763 Y-27.7812
G01 F60.00
G01 Z-0.0750
G01 F120.00
G01 X-27.8281 Y-27.7198
G01 X-27.6167 Y-27.6691
G01 X-27.4000 Y-27.6520
G01 X-27.1833 Y-27.6691
G01 X-26.9719 Y-27.7198
G01 X-26.8237 Y-27.7812
G01 X-26.8662 Y-27.8237
G01 X-27.0149 Y-27.7678
G01 X-27.1412 Y-27.7362
G01 X-27.2700 Y-27.7171
G01 X-27.4000 Y-27.7107
G01 X-27.5313 Y-27.7172
G01 X-27.6576 Y-27.7360
G01 X-27.7857 Y-27.7680
G01 X-27.9338 Y-27.8237
G01 X-27.9763 Y-27.7812
G00 X-27.9763 Y-27.7812
G01 F60.00
G01 Z-0.1000
G01 F120.00
G01 X-27.9338 Y-27.8237
G01 X-27.7857 Y-27.7680
G01 X-27.6576 Y-27.7360
G01 X-27.5313 Y-27.7172
G01 X-27.4000 Y-27.7107
G01 X-27.2700 Y-27.7171
G01 X-27.1412 Y-27.7362
G01 X-27.0149 Y-27.7678
G01 X-26.8662 Y-27.8237
G01 X-26.8237 Y-27.7812
G01 X-26.9719 Y-27.7198
G01 X-27.1833 Y-27.6691
G01 X-27.4000 Y-27.6520
G01 X-27.6167 Y-27.6691
G01 X-27.8281 Y-27.7198
G01 X-27.9763 Y-27.7812
G00 Z2.0000
G00 X-24.6643 Y-23.6549
G01 F60.00
G01 Z-0.0250
G01 F120.00
G01 X-24.7012 Y-23.5868
G01 X-24.7466 Y-23.5270
G01 X-24.9010 Y-23.3936
G01 X-24.9711 Y-23.3555
G01 X-25.0353 Y-23.3320
G01 X-25.1411 Y-23.3084
G01 X-25.2198 Y-23.3011
G01 X-25.2260 Y-23.3010
G01 X-45.1010 Y-23.3010
G01 X-45.1010 Y-21.2004
G01 X-45.0060 Y-21.3736
G01 X-44.9064 Y-21.5072
G01 X-44.8232 Y-21.5977
G01 X-44.7420 Y-21.6716
G01 X-44.6055 Y-21.7728
G01 X-44.4063 Y-21.8798
G01 X-44.2510 Y-21.9369
G01 X-44.1336 Y-21.9663
G01 X-44.0185 Y-21.9844
G01 X-43.8422 Y-21.9936
G01 X-43.6171 Y-21.9718
G01 X-43.4553 Y-21.9327
G01 X-43.3423 Y-21.8922
G01 X-43.2366 Y-21.8433
G01 X-43.0928 Y-21.7587
G01 X-42.9959 Y-21.6867
G01 X-42.9097 Y-21.6099
G01 X-42.7976 Y-21.4882
G01 X-42.7255 Y-21.3911
G01 X-42.6648 Y-21.2916
G01 X-42.5900 Y-21.1355
G01 X-42.5152 Y-21.2916
G01 X-42.4714 Y-21.3649
G01 X-42.4698 Y-21.3675
G01 X-42.4536 Y-21.3923
G01 X-42.3815 Y-21.4894
G01 X-42.2703 Y-21.6099
G01 X-42.1832 Y-21.6874
G01 X-42.0861 Y-21.7595
G01 X-41.9434 Y-21.8433
G01 X-41.8393 Y-21.8916
G01 X-41.7238 Y-21.9330
G01 X-41.5629 Y-21.9718
G01 X-41.4475 Y-21.9879
G01 X-41.3133 Y-21.9939
G01 X-41.1891 Y-21.9877
G01 X-41.0771 Y-21.9718
G01 X-40.9153 Y-21.9327
G01 X-40.8023 Y-21.8922
G01 X-40.6966 Y-21.8433
G01 X-40.5528 Y-21.7587
G01 X-40.4559 Y-21.6867
G01 X-40.3697 Y-21.6099
G01 X-40.2576 Y-21.4882
G01 X-40.1855 Y-21.3911
G01 X-40.1248 Y-21.2916
G01 X-40.0500 Y-21.1355
G01 X-39.9752 Y-21.2916
G01 X-39.9314 Y-21.3649
G01 X-39.9298 Y-21.3675
G01 X-39.9136 Y-21.3923
G01 X-39.8415 Y-21.4894
G01 X-39.7303 Y-21.6099
G01 X-39.6432 Y-21.6874
G01 X-39.5461 Y-21.7595
G01 X-39.4034 Y-21.8433
G01 X-39.2993 Y-21.8916
G01 X-39.1838 Y-21.9330
G01 X-39.0229 Y-21.9718
G01 X-38.9075 Y-21.9879
G01 X-38.7733 Y-21.9939
G01 X-38.6491 Y-21.9877
G01 X-38.5371 Y-21.9718
G01 X-38.3753 Y-21.9327
G01 X-38.2623 Y-21.8922
G01 X-38.1566 Y-21.8433
G01 X-38.0128 Y-21.7587
G01 X-37.9159 Y-21.6867
G01 X-37.8297 Y-21.6099
G01 X-37.7176 Y-21.4882
G01 X-37.6455 Y-21.3911
G01 X-37.5848 Y-21.2916
G01 X-37.5100 Y-21.1355
G01 X-37.4352 Y-21.2916
G01 X-37.3914 Y-21.3649
G01 X-37.3898 Y-21.3675
G01 X-37.3736 Y-21.3923
G01 X-37.3015 Y-21.4894
G01 X-37.1903 Y-21.6099
G01 X-37.1032 Y-21.6874
G01 X-37.0061 Y-21.7595
G01 X-36.8634 Y-21.8433
G01 X-36.7593 Y-21.8916
G01 X-36.6438 Y-21.9330
G01 X-36.4829 Y-21.9718
G01 X-36.3675 Y-21.9879
G01 X-36.2333 Y-21.9939
G01 X-36.1091 Y-21.9877
G01 X-35.9971 Y-21.9718
G01 X-35.8353 Y-21.9327
G01 X-35.7223 Y-21.8922
G01 X-35.6166 Y-21.8433
G01 X-35.4728 Y-21.7587
G01 X-35.3759 Y-21.6867
G01 X-35.2897 Y-21.6099
G01 X-35.1776 Y-21.4882
G01 X-35.1055 Y-21.3911
G01 X-35.0448 Y-21.2916
G01 X-34.9700 Y-21.1355
G01 X-34.8952 Y-21.2916
G01 X-34.8514 Y-21.3649
G01 X-34.8498 Y-21.3675
G01 X-34.8336 Y-21.3923
G01 X-34.7615 Y-21.4894
G01 X-34.6503 Y-21.6099
G01 X-34.5632 Y-21.6874
G01 X-34.4661 Y-21.7595
G01 X-34.3234 Y-21.8433
G01 X-34.2193 Y-21.8916
G01 X-34.1038 Y-21.9330
G01 X-33.9429 Y-21.9718
G01 X-33.8275 Y-21.9879
G01 X-33.6933 Y-21.9939
G01 X-33.5691 Y-21.9877
G01 X-33.4571 Y-21.9718
G01 X-33.2953 Y-21.9327
G01 X-33.1823 Y-21.8922
G01 X-33.0766 Y-21.8433
G01 X-32.9328 Y-21.7587
G01 X-32.8359 Y-21.6867
G01 X-32.7497 Y-21.6099
G01 X-32.6376 Y-21.4882
G01 X-32.5655 Y-21.3911
G01 X-32.5048 Y-21.2916
G01 X-32.4300 Y-21.1355
G01 X-32.3552 Y-21.2916
G01 X-32.3114 Y-21.3649
G01 X-32.3098 Y-21.3675
G01 X-32.2936 Y-21.3923
G01 X-32.2215 Y-21.4894
G01 X-32.1103 Y-21.6099
G01 X-32.0232 Y-21.6874
G01 X-31.9261 Y-21.7595
G01 X-31.7834 Y-21.8433
G01 X-31.6793 Y-21.8916
G01 X-31.5638 Y-21.9330
G01 X-31.4029 Y-21.9718
G01 X-31.2875 Y-21.9879
G01 X-31.1533 Y-21.9939
G01 X-31.0291 Y-21.9877
G01 X-30.9171 Y-21.9718
G01 X-30.7553 Y-21.9327
G01 X-30.6423 Y-21.8922
G01 X-30.5366 Y-21.8433
G01 X-30.3927 Y-21.7586
G01 X-30.2956 Y-21.6865
G01 X-30.2097 Y-21.6099
G01 X-30.0976 Y-21.4882
G01 X-30.0255 Y-21.3911
G01 X-29.9648 Y-21.2916
G01 X-29.8900 Y-21.1355
G01 X-29.8152 Y-21.2916
G01 X-29.7714 Y-21.3649
G01 X-29.7698 Y-21.3675
G01 X-29.7536 Y-21.3923
G01 X-29.6815 Y-21.4894
G01 X-29.5703 Y-21.6099
G01 X-29.4832 Y-21.6874
G01 X-29.3861 Y-21.7595
G01 X-29.2434 Y-21.8433
G01 X-29.1393 Y-21.8916
G01 X-29.0238 Y-21.9330
G01 X-28.8629 Y-21.9718
G01 X-28.7475 Y-21.9879
G01 X-28.6133 Y-21.9939
G01 X-28.4891 Y-21.9877
G01 X-28.3771 Y-21.9718
G01 X-28.2153 Y-21.9327
G01 X-28.1023 Y-21.8922
G01 X-27.9966 Y-21.8433
G01 X-27.8527 Y-21.7586
G01 X-27.7556 Y-21.6865
G01 X-27.6697 Y-21.6099
G01 X-27.5576 Y-21.4882
G01 X-27.4855 Y-21.3911
G01 X-27.4248 Y-21.2916
G01 X-27.3500 Y-21.1355
G01 X-27.2752 Y-21.2916
G01 X-27.2314 Y-21.3649
G01 X-27.2298 Y-21.3675
G01 X-27.2136 Y-21.3923
G01 X-27.1415 Y-21.4894
G01 X-27.0303 Y-21.6099
G01 X-26.9432 Y-21.6874
G01 X-26.8461 Y-21.7595
G01 X-26.7034 Y-21.8433
G01 X-26.5993 Y-21.8916
G01 X-26.4838 Y-21.9330
G01 X-26.3229 Y-21.9718
G01 X-26.2075 Y-21.9879
G01 X-26.0733 Y-21.9939
G01 X-25.9491 Y-21.9877
G01 X-25.8371 Y-21.9718
G01 X-25.6753 Y-21.9327
G01 X-25.5623 Y-21.8922
G01 X-25.4566 Y-21.8433
G01 X-25.3127 Y-21.7586
G01 X-25.2156 Y-21.6865
G01 X-25.1297 Y-21.6099
G01 X-25.0176 Y-21.4882
G01 X-24.9455 Y-21.3911
G01 X-24.8848 Y-21.2916
G01 X-24.8100 Y-21.1355
G01 X-24.7448 Y-21.2748
G01 X-24.6643 Y-21.4054
G01 X-24.6643 Y-23.6549
G01 X-27.4735 Y-22.4846
G01 X-27.3500 Y-22.4027
G01 X-27.2265 Y-22.4846
G01 X-27.4735 Y-22.4846
G01 X-27.1723 Y-20.7214
G01 X-27.1533 Y-20.8498
G01 X-27.1294 Y-20.9439
G01 X-27.0888 Y-21.0549
G01 X-26.9914 Y-21.2351
G01 X-26.9275 Y-21.3212
G01 X-26.8475 Y-21.4082
G01 X-26.6893 Y-21.5370
G01 X-26.5970 Y-21.5923
G01 X-26.5007 Y-21.6379
G01 X-26.3984 Y-21.6746
G01 X-26.2940 Y-21.7007
G01 X-26.1875 Y-21.7165
G01 X-26.0800 Y-21.7218
G01 X-25.9713 Y-21.7164
G01 X-25.8672 Y-21.7010
G01 X-25.7611 Y-21.6744
G01 X-25.6603 Y-21.6383
G01 X-25.5638 Y-21.5927
G01 X-25.4699 Y-21.5364
G01 X-25.3125 Y-21.4082
G01 X-25.2322 Y-21.3208
G01 X-25.1745 Y-21.2435
G01 X-25.1077 Y-21.1321
G01 X-25.0304 Y-20.9434
G01 X-25.0041 Y-20.8383
G01 X-24.9877 Y-20.7214
G01 X-24.9832 Y-20.1750
G01 X-25.0024 Y-19.9720
G01 X-25.0306 Y-19.8561
G01 X-25.0667 Y-19.7553
G01 X-25.1123 Y-19.6588
G01 X-25.1686 Y-19.5649
G01 X-25.2394 Y-19.4708
G01 X-25.3758 Y-19.3344
G01 X-25.4707 Y-19.2630
G01 X-25.5630 Y-19.2077
G01 X-25.6593 Y-19.1621
G01 X-25.7723 Y-19.1225
G01 X-25.9614 Y-19.0848
G01 X-26.0800 Y-19.0782
G01 X-26.1887 Y-19.0836
G01 X-26.3048 Y-19.1017
G01 X-26.4893 Y-19.1577
G01 X-26.5962 Y-19.2073
G01 X-26.6901 Y-19.2636
G01 X-26.7842 Y-19.3344
G01 X-26.9206 Y-19.4708
G01 X-26.9920 Y-19.5657
G01 X-27.0473 Y-19.6580
G01 X-27.0929 Y-19.7543
G01 X-27.1296 Y-19.8566
G01 X-27.1576 Y-19.9720
G01 X-27.1768 Y-20.1750
G01 X-27.1768 Y-20.6250
G01 X-27.1765 Y-20.6361
G01 X-27.1723 Y-20.7214
G01 X-27.1723 Y-20.7214
G01 X-27.4735 Y-18.3154
G01 X-27.2265 Y-18.3154
G01 X-27.3500 Y-18.3973
G01 X-27.4735 Y-18.3154
G01 X-30.0135 Y-18.3154
G01 X-29.7665 Y-18.3154
G01 X-29.8900 Y-18.3973
G01 X-30.0135 Y-18.3154
G01 X-29.7123 Y-20.7214
G01 X-29.7102 Y-20.7436
G01 X-29.6933 Y-20.8498
G01 X-29.6333 Y-21.0447
G01 X-29.5877 Y-21.1412
G01 X-29.5314 Y-21.2351
G01 X-29.4675 Y-21.3212
G01 X-29.3956 Y-21.4006
G01 X-29.2385 Y-21.5305
G01 X-29.1271 Y-21.5973
G01 X-28.9384 Y-21.6746
G01 X-28.7386 Y-21.7152
G01 X-28.6089 Y-21.7215
G01 X-28.4072 Y-21.7010
G01 X-28.2107 Y-21.6423
G01 X-28.0933 Y-21.5868
G01 X-27.9238 Y-21.4725
G01 X-27.7794 Y-21.3292
G01 X-27.7080 Y-21.2343
G01 X-27.6477 Y-21.1321
G01 X-27.5704 Y-20.9434
G01 X-27.5441 Y-20.8383
G01 X-27.5277 Y-20.7214
G01 X-27.5278 Y-20.0762
G01 X-27.5467 Y-19.9502
G01 X-27.6067 Y-19.7553
G01 X-27.7021 Y-19.5751
G01 X-27.7725 Y-19.4788
G01 X-27.9158 Y-19.3344
G01 X-28.0107 Y-19.2630
G01 X-28.1129 Y-19.2027
G01 X-28.2910 Y-19.1289
G01 X-28.4170 Y-19.0974
G01 X-28.6089 Y-19.0785
G01 X-28.7287 Y-19.0836
G01 X-28.8448 Y-19.1017
G01 X-29.0293 Y-19.1577
G01 X-29.1362 Y-19.2073
G01 X-29.3079 Y-19.3209
G01 X-29.4032 Y-19.4075
G01 X-29.5255 Y-19.5565
G01 X-29.5873 Y-19.6580
G01 X-29.6661 Y-19.8460
G01 X-29.6957 Y-19.9610
G01 X-29.7115 Y-20.0675
G01 X-29.7168 Y-20.1750
G01 X-29.7123 Y-20.7214
G01 X-30.0135 Y-22.4846
G01 X-29.8900 Y-22.4027
G01 X-29.7665 Y-22.4846
G01 X-30.0135 Y-22.4846
G01 X-32.5535 Y-22.4846
G01 X-32.4300 Y-22.4027
G01 X-32.3672 Y-22.4467
G01 X-32.3367 Y-22.4662
G01 X-32.3225 Y-22.4749
G01 X-32.3196 Y-22.4767
G01 X-32.3065 Y-22.4846
G01 X-32.5535 Y-22.4846
G01 X-32.2523 Y-20.7214
G01 X-32.2333 Y-20.8498
G01 X-32.2094 Y-20.9439
G01 X-32.1688 Y-21.0549
G01 X-32.0714 Y-21.2351
G01 X-32.0075 Y-21.3212
G01 X-31.9275 Y-21.4082
G01 X-31.7693 Y-21.5370
G01 X-31.6770 Y-21.5923
G01 X-31.5807 Y-21.6379
G01 X-31.4784 Y-21.6746
G01 X-31.3740 Y-21.7007
G01 X-31.2675 Y-21.7165
G01 X-31.1600 Y-21.7218
G01 X-31.0513 Y-21.7164
G01 X-30.9472 Y-21.7010
G01 X-30.8411 Y-21.6744
G01 X-30.7403 Y-21.6383
G01 X-30.6438 Y-21.5927
G01 X-30.5499 Y-21.5364
G01 X-30.3925 Y-21.4082
G01 X-30.3122 Y-21.3208
G01 X-30.2545 Y-21.2435
G01 X-30.1877 Y-21.1321
G01 X-30.1104 Y-20.9434
G01 X-30.0841 Y-20.8383
G01 X-30.0677 Y-20.7214
G01 X-30.0632 Y-20.1750
G01 X-30.0824 Y-19.9720
G01 X-30.1106 Y-19.8561
G01 X-30.1467 Y-19.7553
G01 X-30.1923 Y-19.6588
G01 X-30.2486 Y-19.5649
G01 X-30.3194 Y-19.4708
G01 X-30.4558 Y-19.3344
G01 X-30.5507 Y-19.2630
G01 X-30.6430 Y-19.2077
G01 X-30.7393 Y-19.1621
G01 X-30.8523 Y-19.1225
G01 X-31.0414 Y-19.0848
G01 X-31.1600 Y-19.0782
G01 X-31.2687 Y-19.0836
G01 X-31.3848 Y-19.1017
G01 X-31.5693 Y-19.1577
G01 X-31.6762 Y-19.2073
G01 X-31.7701 Y-19.2636
G01 X-31.8642 Y-19.3344
G01 X-32.0006 Y-19.4708
G01 X-32.0720 Y-19.5657
G01 X-32.1273 Y-19.6580
G01 X-32.1729 Y-19.7543
G01 X-32.2096 Y-19.8566
G01 X-32.2376 Y-19.9720
G01 X-32.2568 Y-20.1750
G01 X-32.2568 Y-20.6250
G01 X-32.2565 Y-20.6361
G01 X-32.2523 Y-20.7214
G01 X-32.2523 Y-20.7214
G01 X-32.5535 Y-18.3154
G01 X-32.3065 Y-18.3154
G01 X-32.4300 Y-18.3973
G01 X-32.5535 Y-18.3154
G01 X-35.0935 Y-18.3154
G01 X-34.8465 Y-18.3154
G01 X-34.8596 Y-18.3233
G01 X-34.8605 Y-18.3239
G01 X-34.8656 Y-18.3270
G01 X-34.8802 Y-18.3360
G01 X-34.9095 Y-18.3548
G01 X-34.9700 Y-18.3973
G01 X-35.0935 Y-18.3154
G01 X-34.7923 Y-20.7214
G01 X-34.7902 Y-20.7436
G01 X-34.7733 Y-20.8498
G01 X-34.7133 Y-21.0447
G01 X-34.6677 Y-21.1412
G01 X-34.6114 Y-21.2351
G01 X-34.5475 Y-21.3212
G01 X-34.4756 Y-21.4006
G01 X-34.3185 Y-21.5305
G01 X-34.2071 Y-21.5973
G01 X-34.0184 Y-21.6746
G01 X-33.8186 Y-21.7152
G01 X-33.6889 Y-21.7215
G01 X-33.4872 Y-21.7010
G01 X-33.2907 Y-21.6423
G01 X-33.1733 Y-21.5868
G01 X-33.0039 Y-21.4726
G01 X-32.8594 Y-21.3292
G01 X-32.7880 Y-21.2343
G01 X-32.7277 Y-21.1321
G01 X-32.6504 Y-20.9434
G01 X-32.6241 Y-20.8383
G01 X-32.6077 Y-20.7214
G01 X-32.6078 Y-20.0762
G01 X-32.6267 Y-19.9502
G01 X-32.6867 Y-19.7553
G01 X-32.7821 Y-19.5751
G01 X-32.8525 Y-19.4788
G01 X-32.9958 Y-19.3344
G01 X-33.0907 Y-19.2630
G01 X-33.1929 Y-19.2027
G01 X-33.3710 Y-19.1289
G01 X-33.4970 Y-19.0974
G01 X-33.6889 Y-19.0785
G01 X-33.8087 Y-19.0836
G01 X-33.9248 Y-19.1017
G01 X-34.1093 Y-19.1577
G01 X-34.2163 Y-19.2073
G01 X-34.3877 Y-19.3208
G01 X-34.4832 Y-19.4075
G01 X-34.6055 Y-19.5565
G01 X-34.6673 Y-19.6580
G01 X-34.7461 Y-19.8460
G01 X-34.7757 Y-19.9610
G01 X-34.7915 Y-20.0675
G01 X-34.7968 Y-20.1750
G01 X-34.7923 Y-20.7214
G01 X-35.0935 Y-22.4846
G01 X-34.9700 Y-22.4027
G01 X-34.8465 Y-22.4846
G01 X-35.0935 Y-22.4846
G01 X-37.6335 Y-22.4846
G01 X-37.5100 Y-22.4027
G01 X-37.4472 Y-22.4467
G01 X-37.4167 Y-22.4662
G01 X-37.4025 Y-22.4749
G01 X-37.3996 Y-22.4767
G01 X-37.3865 Y-22.4846
G01 X-37.6335 Y-22.4846
G01 X-37.3323 Y-20.7214
G01 X-37.3133 Y-20.8498
G01 X-37.2894 Y-20.9439
G01 X-37.2488 Y-21.0549
G01 X-37.1514 Y-21.2351
G01 X-37.0875 Y-21.3212
G01 X-37.0075 Y-21.4082
G01 X-36.8493 Y-21.5370
G01 X-36.7570 Y-21.5923
G01 X-36.6607 Y-21.6379
G01 X-36.5584 Y-21.6746
G01 X-36.4540 Y-21.7007
G01 X-36.3475 Y-21.7165
G01 X-36.2400 Y-21.7218
G01 X-36.1313 Y-21.7164
G01 X-36.0272 Y-21.7010
G01 X-35.9211 Y-21.6744
G01 X-35.8203 Y-21.6383
G01 X-35.7237 Y-21.5927
G01 X-35.6299 Y-21.5365
G01 X-35.4725 Y-21.4082
G01 X-35.3922 Y-21.3208
G01 X-35.3345 Y-21.2435
G01 X-35.2677 Y-21.1321
G01 X-35.1904 Y-20.9434
G01 X-35.1641 Y-20.8383
G01 X-35.1477 Y-20.7214
G01 X-35.1432 Y-20.1750
G01 X-35.1624 Y-19.9720
G01 X-35.1906 Y-19.8561
G01 X-35.2267 Y-19.7553
G01 X-35.2723 Y-19.6588
G01 X-35.3286 Y-19.5649
G01 X-35.3994 Y-19.4708
G01 X-35.5358 Y-19.3344
G01 X-35.6307 Y-19.2630
G01 X-35.7230 Y-19.2077
G01 X-35.8193 Y-19.1621
G01 X-35.9323 Y-19.1225
G01 X-36.1214 Y-19.0848
G01 X-36.2400 Y-19.0782
G01 X-36.3487 Y-19.0836
G01 X-36.4648 Y-19.1017
G01 X-36.6493 Y-19.1577
G01 X-36.7563 Y-19.2073
G01 X-36.8501 Y-19.2635
G01 X-36.9442 Y-19.3344
G01 X-37.0806 Y-19.4708
G01 X-37.1520 Y-19.5657
G01 X-37.2073 Y-19.6580
G01 X-37.2529 Y-19.7543
G01 X-37.2896 Y-19.8566
G01 X-37.3176 Y-19.9720
G01 X-37.3368 Y-20.1750
G01 X-37.3368 Y-20.6250
G01 X-37.3365 Y-20.6361
G01 X-37.3323 Y-20.7214
G01 X-37.3323 Y-20.7214
G01 X-37.6335 Y-18.3154
G01 X-37.3865 Y-18.3154
G01 X-37.5100 Y-18.3973
G01 X-37.6335 Y-18.3154
G01 X-40.1735 Y-18.3154
G01 X-39.9265 Y-18.3154
G01 X-40.0500 Y-18.3973
G01 X-40.1735 Y-18.3154
G01 X-39.8723 Y-20.7214
G01 X-39.8714 Y-20.7337
G01 X-39.8576 Y-20.8280
G01 X-39.8294 Y-20.9439
G01 X-39.7933 Y-21.0447
G01 X-39.7477 Y-21.1412
G01 X-39.6914 Y-21.2351
G01 X-39.6275 Y-21.3212
G01 X-39.5556 Y-21.4006
G01 X-39.4758 Y-21.4728
G01 X-39.3893 Y-21.5370
G01 X-39.2970 Y-21.5923
G01 X-39.2007 Y-21.6379
G01 X-39.0984 Y-21.6746
G01 X-38.9830 Y-21.7026
G01 X-38.8875 Y-21.7165
G01 X-38.7689 Y-21.7215
G01 X-38.5770 Y-21.7026
G01 X-38.4723 Y-21.6775
G01 X-38.3603 Y-21.6383
G01 X-38.2637 Y-21.5927
G01 X-38.0923 Y-21.4792
G01 X-38.0044 Y-21.4006
G01 X-37.9394 Y-21.3292
G01 X-37.8621 Y-21.2249
G01 X-37.7671 Y-21.0457
G01 X-37.7304 Y-20.9434
G01 X-37.7041 Y-20.8383
G01 X-37.6885 Y-20.7325
G01 X-37.6832 Y-20.6250
G01 X-37.6878 Y-20.0762
G01 X-37.7067 Y-19.9502
G01 X-37.7627 Y-19.7657
G01 X-37.8182 Y-19.6483
G01 X-37.8686 Y-19.5649
G01 X-37.9394 Y-19.4708
G01 X-38.0842 Y-19.3272
G01 X-38.1707 Y-19.2630
G01 X-38.2630 Y-19.2077
G01 X-38.4510 Y-19.1289
G01 X-38.5770 Y-19.0974
G01 X-38.7800 Y-19.0782
G01 X-38.8887 Y-19.0836
G01 X-38.9928 Y-19.0990
G01 X-39.1090 Y-19.1289
G01 X-39.2963 Y-19.2073
G01 X-39.3985 Y-19.2695
G01 X-39.5475 Y-19.3918
G01 X-39.6278 Y-19.4792
G01 X-39.6979 Y-19.5751
G01 X-39.7888 Y-19.7451
G01 X-39.8325 Y-19.8673
G01 X-39.8576 Y-19.9720
G01 X-39.8765 Y-20.1639
G01 X-39.8723 Y-20.7214
G01 X-40.1735 Y-22.4846
G01 X-40.0500 Y-22.4027
G01 X-39.9265 Y-22.4846
G01 X-40.1735 Y-22.4846
G01 X-42.7135 Y-22.4846
G01 X-42.5900 Y-22.4027
G01 X-42.5272 Y-22.4467
G01 X-42.4967 Y-22.4662
G01 X-42.4825 Y-22.4749
G01 X-42.4796 Y-22.4767
G01 X-42.4665 Y-22.4846
G01 X-42.7135 Y-22.4846
G01 X-42.4123 Y-20.7214
G01 X-42.3960 Y-20.8378
G01 X-42.3694 Y-20.9439
G01 X-42.3333 Y-21.0447
G01 X-42.2818 Y-21.1517
G01 X-42.2255 Y-21.2435
G01 X-42.1032 Y-21.3925
G01 X-42.0158 Y-21.4728
G01 X-41.9199 Y-21.5429
G01 X-41.8271 Y-21.5973
G01 X-41.6490 Y-21.6711
G01 X-41.5340 Y-21.7007
G01 X-41.4275 Y-21.7165
G01 X-41.3089 Y-21.7215
G01 X-41.1170 Y-21.7026
G01 X-41.0011 Y-21.6744
G01 X-40.8901 Y-21.6338
G01 X-40.8037 Y-21.5927
G01 X-40.7015 Y-21.5305
G01 X-40.6158 Y-21.4656
G01 X-40.4794 Y-21.3292
G01 X-40.4080 Y-21.2343
G01 X-40.3527 Y-21.1420
G01 X-40.3071 Y-21.0457
G01 X-40.2704 Y-20.9434
G01 X-40.2441 Y-20.8383
G01 X-40.2277 Y-20.7214
G01 X-40.2235 Y-20.1639
G01 X-40.2440 Y-19.9622
G01 X-40.2706 Y-19.8561
G01 X-40.3067 Y-19.7553
G01 X-40.3523 Y-19.6588
G01 X-40.4086 Y-19.5649
G01 X-40.4725 Y-19.4788
G01 X-40.5444 Y-19.3994
G01 X-40.6242 Y-19.3272
G01 X-40.7107 Y-19.2630
G01 X-40.8030 Y-19.2077
G01 X-40.8993 Y-19.1621
G01 X-41.0016 Y-19.1254
G01 X-41.1060 Y-19.0993
G01 X-41.2125 Y-19.0835
G01 X-41.3200 Y-19.0782
G01 X-41.4287 Y-19.0836
G01 X-41.5328 Y-19.0990
G01 X-41.6389 Y-19.1256
G01 X-41.7499 Y-19.1662
G01 X-41.9301 Y-19.2635
G01 X-42.0161 Y-19.3274
G01 X-42.0956 Y-19.3994
G01 X-42.1678 Y-19.4792
G01 X-42.2320 Y-19.5657
G01 X-42.2873 Y-19.6580
G01 X-42.3329 Y-19.7543
G01 X-42.3725 Y-19.8673
G01 X-42.4115 Y-20.0675
G01 X-42.4168 Y-20.1750
G01 X-42.4168 Y-20.6250
G01 X-42.4165 Y-20.6361
G01 X-42.4123 Y-20.7214
G01 X-42.4123 Y-20.7214
G01 X-42.7135 Y-18.3154
G01 X-42.4665 Y-18.3154
G01 X-42.5900 Y-18.3973
G01 X-42.7135 Y-18.3154
G01 X-44.5567 Y-18.3935
G01 X-44.5567 Y-18.0433
G01 X-19.1433 Y-18.0433
G01 X-19.1433 Y-19.1770
G01 X-19.2190 Y-18.9856
G01 X-19.3160 Y-18.8200
G01 X-19.4515 Y-18.6549
G01 X-19.5986 Y-18.5248
G01 X-19.7763 Y-18.4114
G01 X-19.9689 Y-18.3290
G01 X-20.1600 Y-18.2807
G01 X-20.3666 Y-18.2618
G01 X-21.6267 Y-18.2618
G01 X-21.8233 Y-18.2780
G01 X-22.0018 Y-18.3194
G01 X-22.1617 Y-18.3809
G01 X-22.3301 Y-18.4742
G01 X-22.4754 Y-18.5853
G01 X-22.6322 Y-18.4909
G01 X-22.7958 Y-18.4125
G01 X-22.9687 Y-18.3491
G01 X-23.1168 Y-18.3097
G01 X-23.3969 Y-18.2675
G01 X-23.5567 Y-18.2619
G01 X-23.7390 Y-18.2722
G01 X-23.9033 Y-18.2966
G01 X-24.0509 Y-18.3317
G01 X-24.2906 Y-18.4153
G01 X-24.4454 Y-18.4896
G01 X-24.5812 Y-18.5700
G01 X-24.7269 Y-18.6748
G01 X-24.8100 Y-18.7453
G01 X-24.9013 Y-18.6685
G01 X-25.0475 Y-18.5646
G01 X-25.1929 Y-18.4799
G01 X-25.3636 Y-18.4011
G01 X-25.5310 Y-18.3422
G01 X-25.7002 Y-18.2999
G01 X-25.8825 Y-18.2720
G01 X-26.0488 Y-18.2622
G01 X-26.2553 Y-18.2698
G01 X-26.4335 Y-18.2948
G01 X-26.6198 Y-18.3395
G01 X-26.7707 Y-18.3912
G01 X-26.9618 Y-18.4772
G01 X-27.1058 Y-18.5604
G01 X-27.2600 Y-18.6694
G01 X-27.3500 Y-18.7453
G01 X-27.3985 Y-18.7024
G01 X-27.4193 Y-18.6856
G01 X-27.4219 Y-18.6835
G01 X-27.4306 Y-18.6766
G01 X-27.4320 Y-18.6756
G01 X-27.4413 Y-18.6685
G01 X-27.5875 Y-18.5646
G01 X-27.7329 Y-18.4799
G01 X-27.9036 Y-18.4011
G01 X-28.0710 Y-18.3422
G01 X-28.1091 Y-18.3317
G01 X-28.1140 Y-18.3304
G01 X-28.1968 Y-18.3097
G01 X-28.2402 Y-18.2999
G01 X-28.4225 Y-18.2720
G01 X-28.5822 Y-18.2624
G01 X-28.7953 Y-18.2698
G01 X-28.9702 Y-18.2942
G01 X-29.0360 Y-18.3080
G01 X-29.0432 Y-18.3097
G01 X-29.1260 Y-18.3304
G01 X-29.1292 Y-18.3313
G01 X-29.1598 Y-18.3395
G01 X-29.3107 Y-18.3912
G01 X-29.5018 Y-18.4772
G01 X-29.6458 Y-18.5604
G01 X-29.8000 Y-18.6694
G01 X-29.8900 Y-18.7453
G01 X-29.9334 Y-18.7068
G01 X-29.9540 Y-18.6897
G01 X-29.9619 Y-18.6835
G01 X-29.9706 Y-18.6766
G01 X-29.9759 Y-18.6726
G01 X-30.1232 Y-18.5673
G01 X-30.2640 Y-18.4846
G01 X-30.4188 Y-18.4112
G01 X-30.5887 Y-18.3491
G01 X-30.7433 Y-18.3081
G01 X-31.0219 Y-18.2673
G01 X-31.1767 Y-18.2619
G01 X-31.3708 Y-18.2735
G01 X-31.5495 Y-18.3019
G01 X-31.7506 Y-18.3555
G01 X-31.9106 Y-18.4153
G01 X-32.0924 Y-18.5046
G01 X-32.2512 Y-18.6038
G01 X-32.4300 Y-18.7453
G01 X-32.4734 Y-18.7068
G01 X-32.4940 Y-18.6897
G01 X-32.5019 Y-18.6835
G01 X-32.5106 Y-18.6766
G01 X-32.5146 Y-18.6736
G01 X-32.6538 Y-18.5732
G01 X-32.7922 Y-18.4909
G01 X-32.9466 Y-18.4165
G01 X-33.1875 Y-18.3321
G01 X-33.1940 Y-18.3304
G01 X-33.2768 Y-18.3097
G01 X-33.2833 Y-18.3081
G01 X-33.3333 Y-18.2973
G01 X-33.4925 Y-18.2731
G01 X-33.6900 Y-18.2618
G01 X-33.8842 Y-18.2707
G01 X-34.0797 Y-18.2999
G01 X-34.1178 Y-18.3084
G01 X-34.1232 Y-18.3097
G01 X-34.2060 Y-18.3304
G01 X-34.2109 Y-18.3317
G01 X-34.2731 Y-18.3497
G01 X-34.4475 Y-18.4139
G01 X-34.6279 Y-18.5021
G01 X-34.7899 Y-18.6028
G01 X-34.9700 Y-18.7453
G01 X-35.0393 Y-18.6856
G01 X-35.0419 Y-18.6835
G01 X-35.0506 Y-18.6766
G01 X-35.0546 Y-18.6736
G01 X-35.0666 Y-18.6645
G01 X-35.1501 Y-18.6029
G01 X-35.3094 Y-18.5036
G01 X-35.4896 Y-18.4151
G01 X-35.6549 Y-18.3536
G01 X-35.8504 Y-18.3019
G01 X-36.0359 Y-18.2728
G01 X-36.2300 Y-18.2618
G01 X-36.3999 Y-18.2686
G01 X-36.6632 Y-18.3097
G01 X-36.8131 Y-18.3497
G01 X-36.9875 Y-18.4139
G01 X-37.1340 Y-18.4835
G01 X-37.2809 Y-18.5699
G01 X-37.4262 Y-18.6742
G01 X-37.5100 Y-18.7453
G01 X-37.5585 Y-18.7024
G01 X-37.5793 Y-18.6856
G01 X-37.5819 Y-18.6835
G01 X-37.5906 Y-18.6766
G01 X-37.5920 Y-18.6756
G01 X-37.6026 Y-18.6675
G01 X-37.7560 Y-18.5594
G01 X-37.8959 Y-18.4784
G01 X-38.0904 Y-18.3908
G01 X-38.2406 Y-18.3394
G01 X-38.2723 Y-18.3309
G01 X-38.2740 Y-18.3304
G01 X-38.3568 Y-18.3097
G01 X-38.3633 Y-18.3081
G01 X-38.4264 Y-18.2948
G01 X-38.6091 Y-18.2695
G01 X-38.8262 Y-18.2628
G01 X-38.9819 Y-18.2725
G01 X-39.1597 Y-18.2999
G01 X-39.1978 Y-18.3084
G01 X-39.2032 Y-18.3097
G01 X-39.2860 Y-18.3304
G01 X-39.2866 Y-18.3306
G01 X-39.3319 Y-18.3431
G01 X-39.4967 Y-18.4011
G01 X-39.6710 Y-18.4820
G01 X-39.8102 Y-18.5631
G01 X-39.9607 Y-18.6700
G01 X-40.0500 Y-18.7453
G01 X-40.0985 Y-18.7024
G01 X-40.1193 Y-18.6856
G01 X-40.1219 Y-18.6835
G01 X-40.1306 Y-18.6766
G01 X-40.1320 Y-18.6756
G01 X-40.1426 Y-18.6675
G01 X-40.2960 Y-18.5594
G01 X-40.4359 Y-18.4784
G01 X-40.6287 Y-18.3915
G01 X-40.7806 Y-18.3394
G01 X-40.9664 Y-18.2948
G01 X-41.1491 Y-18.2695
G01 X-41.3528 Y-18.2623
G01 X-41.5190 Y-18.2722
G01 X-41.6965 Y-18.2992
G01 X-41.8689 Y-18.3422
G01 X-42.0336 Y-18.3999
G01 X-42.2051 Y-18.4789
G01 X-42.3502 Y-18.5631
G01 X-42.5007 Y-18.6700
G01 X-42.5900 Y-18.7453
G01 X-42.6385 Y-18.7024
G01 X-42.6593 Y-18.6856
G01 X-42.6619 Y-18.6835
G01 X-42.6706 Y-18.6766
G01 X-42.6720 Y-18.6756
G01 X-42.6813 Y-18.6685
G01 X-42.8346 Y-18.5602
G01 X-42.9759 Y-18.4784
G01 X-43.1618 Y-18.3940
G01 X-43.2686 Y-18.3558
G01 X-43.2950 Y-18.3471
G01 X-43.3110 Y-18.3422
G01 X-43.3142 Y-18.3413
G01 X-43.3206 Y-18.3394
G01 X-43.5032 Y-18.2954
G01 X-43.6824 Y-18.2701
G01 X-43.8800 Y-18.2620
G01 X-44.0471 Y-18.2709
G01 X-44.2233 Y-18.2966
G01 X-44.4028 Y-18.3404
G01 X-44.5567 Y-18.3935
G01 X-44.8289 Y-18.8517
G01 X-44.8289 Y-17.7711
G01 X-18.8711 Y-17.7711
G01 X-18.8711 Y-20.5540
G01 X-19.3589 Y-20.0663
G01 X-19.3590 Y-19.5416
G01 X-19.3756 Y-19.3716
G01 X-19.4010 Y-19.2650
G01 X-19.4392 Y-19.1581
G01 X-19.4908 Y-19.0532
G01 X-19.5528 Y-18.9568
G01 X-19.6341 Y-18.8579
G01 X-19.7136 Y-18.7815
G01 X-19.8052 Y-18.7111
G01 X-19.9046 Y-18.6514
G01 X-20.0034 Y-18.6059
G01 X-20.1168 Y-18.5686
G01 X-20.2423 Y-18.5434
G01 X-20.3522 Y-18.5344
G01 X-21.6300 Y-18.5340
G01 X-21.8231 Y-18.5543
G01 X-22.0046 Y-18.6091
G01 X-22.1761 Y-18.6987
G01 X-22.3244 Y-18.8160
G01 X-22.4451 Y-18.9539
G01 X-22.6054 Y-18.8264
G01 X-22.7450 Y-18.7396
G01 X-22.9036 Y-18.6624
G01 X-23.0509 Y-18.6086
G01 X-23.2133 Y-18.5668
G01 X-23.3858 Y-18.5412
G01 X-23.5467 Y-18.5340
G01 X-23.7296 Y-18.5452
G01 X-23.8706 Y-18.5676
G01 X-24.0243 Y-18.6071
G01 X-24.1742 Y-18.6614
G01 X-24.3176 Y-18.7299
G01 X-24.4493 Y-18.8089
G01 X-24.5776 Y-18.9036
G01 X-24.6957 Y-19.0099
G01 X-24.8100 Y-19.1357
G01 X-24.9243 Y-19.0099
G01 X-25.0441 Y-18.9022
G01 X-25.1794 Y-18.8032
G01 X-25.3372 Y-18.7121
G01 X-25.4873 Y-18.6452
G01 X-25.6100 Y-18.6027
G01 X-25.7229 Y-18.5737
G01 X-25.9059 Y-18.5433
G01 X-26.0522 Y-18.5344
G01 X-26.2331 Y-18.5411
G01 X-26.4041 Y-18.5663
G01 X-26.5643 Y-18.6071
G01 X-26.7396 Y-18.6727
G01 X-26.8576 Y-18.7299
G01 X-26.9598 Y-18.7902
G01 X-27.0959 Y-18.8866
G01 X-27.2357 Y-19.0099
G01 X-27.3500 Y-19.1357
G01 X-27.3740 Y-19.1076
G01 X-27.3761 Y-19.1052
G01 X-27.4335 Y-19.0420
G01 X-27.4643 Y-19.0099
G01 X-27.5841 Y-18.9022
G01 X-27.7194 Y-18.8032
G01 X-27.8772 Y-18.7121
G01 X-28.0273 Y-18.6452
G01 X-28.1500 Y-18.6027
G01 X-28.2629 Y-18.5737
G01 X-28.4459 Y-18.5433
G01 X-28.5922 Y-18.5344
G01 X-28.7731 Y-18.5411
G01 X-28.9441 Y-18.5663
G01 X-29.1043 Y-18.6071
G01 X-29.2796 Y-18.6727
G01 X-29.3976 Y-18.7299
G01 X-29.4998 Y-18.7902
G01 X-29.6359 Y-18.8866
G01 X-29.7757 Y-19.0099
G01 X-29.8900 Y-19.1357
G01 X-29.9140 Y-19.1076
G01 X-29.9161 Y-19.1052
G01 X-29.9735 Y-19.0420
G01 X-30.0043 Y-19.0099
G01 X-30.1241 Y-18.9022
G01 X-30.2594 Y-18.8032
G01 X-30.4172 Y-18.7121
G01 X-30.5673 Y-18.6452
G01 X-30.6900 Y-18.6027
G01 X-30.8029 Y-18.5737
G01 X-30.9859 Y-18.5433
G01 X-31.1255 Y-18.5347
G01 X-31.3131 Y-18.5411
G01 X-31.4841 Y-18.5663
G01 X-31.6443 Y-18.6071
G01 X-31.8196 Y-18.6727
G01 X-31.9376 Y-18.7299
G01 X-32.0398 Y-18.7902
G01 X-32.1759 Y-18.8866
G01 X-32.3157 Y-19.0099
G01 X-32.4300 Y-19.1357
G01 X-32.4540 Y-19.1076
G01 X-32.4561 Y-19.1052
G01 X-32.5135 Y-19.0420
G01 X-32.5443 Y-19.0099
G01 X-32.6641 Y-18.9022
G01 X-32.7938 Y-18.8068
G01 X-32.9323 Y-18.7246
G01 X-33.0759 Y-18.6572
G01 X-33.2364 Y-18.6008
G01 X-33.3930 Y-18.5630
G01 X-33.5769 Y-18.5390
G01 X-33.7067 Y-18.5340
G01 X-33.8238 Y-18.5390
G01 X-33.9917 Y-18.5603
G01 X-34.1722 Y-18.6033
G01 X-34.3342 Y-18.6614
G01 X-34.5035 Y-18.7445
G01 X-34.6092 Y-18.8088
G01 X-34.7127 Y-18.8841
G01 X-34.8557 Y-19.0099
G01 X-34.9700 Y-19.1357
G01 X-34.9940 Y-19.1076
G01 X-34.9961 Y-19.1052
G01 X-35.0535 Y-19.0420
G01 X-35.0843 Y-19.0099
G01 X-35.2041 Y-18.9022
G01 X-35.3338 Y-18.8068
G01 X-35.4723 Y-18.7246
G01 X-35.6159 Y-18.6572
G01 X-35.7700 Y-18.6027
G01 X-35.9264 Y-18.5642
G01 X-36.0858 Y-18.5412
G01 X-36.2745 Y-18.5347
G01 X-36.3990 Y-18.5416
G01 X-36.5229 Y-18.5589
G01 X-36.7062 Y-18.6016
G01 X-36.8742 Y-18.6614
G01 X-37.0435 Y-18.7445
G01 X-37.1492 Y-18.8088
G01 X-37.2527 Y-18.8841
G01 X-37.3957 Y-19.0099
G01 X-37.5100 Y-19.1357
G01 X-37.5340 Y-19.1076
G01 X-37.5361 Y-19.1052
G01 X-37.5935 Y-19.0420
G01 X-37.5957 Y-19.0395
G01 X-37.6445 Y-18.9907
G01 X-37.7441 Y-18.9022
G01 X-37.8400 Y-18.8303
G01 X-38.0005 Y-18.7309
G01 X-38.1838 Y-18.6464
G01 X-38.2972 Y-18.6066
G01 X-38.4261 Y-18.5729
G01 X-38.6125 Y-18.5425
G01 X-38.8078 Y-18.5344
G01 X-38.9390 Y-18.5416
G01 X-39.0629 Y-18.5589
G01 X-39.2923 Y-18.6164
G01 X-39.4203 Y-18.6641
G01 X-39.5835 Y-18.7445
G01 X-39.6993 Y-18.8157
G01 X-39.8271 Y-18.9114
G01 X-39.9451 Y-19.0193
G01 X-40.0500 Y-19.1357
G01 X-40.0740 Y-19.1076
G01 X-40.0761 Y-19.1052
G01 X-40.1335 Y-19.0420
G01 X-40.1643 Y-19.0099
G01 X-40.3087 Y-18.8831
G01 X-40.4138 Y-18.8068
G01 X-40.5163 Y-18.7446
G01 X-40.6836 Y-18.6624
G01 X-40.8500 Y-18.6027
G01 X-41.0338 Y-18.5595
G01 X-41.1525 Y-18.5425
G01 X-41.2822 Y-18.5348
G01 X-41.4521 Y-18.5395
G01 X-41.6310 Y-18.5637
G01 X-41.7862 Y-18.6016
G01 X-41.9418 Y-18.6563
G01 X-42.0861 Y-18.7238
G01 X-42.2292 Y-18.8088
G01 X-42.3571 Y-18.9032
G01 X-42.4757 Y-19.0099
G01 X-42.5900 Y-19.1357
G01 X-42.6140 Y-19.1076
G01 X-42.6161 Y-19.1052
G01 X-42.6735 Y-19.0420
G01 X-42.7043 Y-19.0099
G01 X-42.8461 Y-18.8851
G01 X-42.9427 Y-18.8142
G01 X-43.0534 Y-18.7463
G01 X-43.2056 Y-18.6704
G01 X-43.3772 Y-18.6066
G01 X-43.5464 Y-18.5642
G01 X-43.7125 Y-18.5406
G01 X-43.8978 Y-18.5348
G01 X-44.0190 Y-18.5416
G01 X-44.1546 Y-18.5608
G01 X-44.3634 Y-18.6133
G01 X-44.4942 Y-18.6614
G01 X-44.6202 Y-18.7207
G01 X-44.8289 Y-18.8517
G01 X-45.1010 Y-19.5996
G01 X-45.1010 Y-17.4990
G01 X-18.5990 Y-17.4990
G01 X-18.5990 Y-21.4732
G01 X-18.6318 Y-21.3504
G01 X-18.6975 Y-21.1919
G01 X-18.7616 Y-21.0810
G01 X-18.8268 Y-20.9920
G01 X-18.9050 Y-20.9050
G01 X-19.6310 Y-20.1790
G01 X-19.6356 Y-19.4730
G01 X-19.6508 Y-19.3850
G01 X-19.6792 Y-19.2912
G01 X-19.7536 Y-19.1445
G01 X-19.8057 Y-19.0743
G01 X-19.8681 Y-19.0085
G01 X-19.9463 Y-18.9446
G01 X-20.0211 Y-18.8977
G01 X-20.1798 Y-18.8335
G01 X-20.2823 Y-18.8126
G01 X-20.3622 Y-18.8064
G01 X-21.6378 Y-18.8064
G01 X-21.7576 Y-18.8188
G01 X-21.8543 Y-18.8438
G01 X-21.9567 Y-18.8861
G01 X-22.0416 Y-18.9360
G01 X-22.1319 Y-19.0085
G01 X-22.2031 Y-19.0851
G01 X-22.2685 Y-19.1806
G01 X-22.3103 Y-19.2645
G01 X-22.3432 Y-19.3612
G01 X-22.3646 Y-19.4752
G01 X-22.4866 Y-19.3008
G01 X-22.5673 Y-19.2118
G01 X-22.6580 Y-19.1284
G01 X-22.7945 Y-19.0272
G01 X-22.8888 Y-18.9709
G01 X-22.9992 Y-18.9177
G01 X-23.1662 Y-18.8585
G01 X-23.2795 Y-18.8311
G01 X-23.3992 Y-18.8134
G01 X-23.5645 Y-18.8066
G01 X-23.6709 Y-18.8123
G01 X-23.7986 Y-18.8308
G01 X-23.9447 Y-18.8673
G01 X-24.0863 Y-18.9202
G01 X-24.2825 Y-19.0252
G01 X-24.4044 Y-19.1135
G01 X-24.5249 Y-19.2247
G01 X-24.6641 Y-19.3944
G01 X-24.7441 Y-19.5238
G01 X-24.8100 Y-19.6645
G01 X-24.8848 Y-19.5084
G01 X-24.9464 Y-19.4077
G01 X-25.0185 Y-19.3106
G01 X-25.1297 Y-19.1901
G01 X-25.2168 Y-19.1126
G01 X-25.3139 Y-19.0405
G01 X-25.4566 Y-18.9567
G01 X-25.5607 Y-18.9084
G01 X-25.6762 Y-18.8670
G01 X-25.8371 Y-18.8282
G01 X-26.0555 Y-18.8066
G01 X-26.2326 Y-18.8148
G01 X-26.3517 Y-18.8333
G01 X-26.4726 Y-18.8636
G01 X-26.6263 Y-18.9202
G01 X-26.7298 Y-18.9702
G01 X-26.8372 Y-19.0345
G01 X-26.9444 Y-19.1135
G01 X-27.0303 Y-19.1901
G01 X-27.1424 Y-19.3118
G01 X-27.2145 Y-19.4089
G01 X-27.2752 Y-19.5084
G01 X-27.2983 Y-19.5516
G01 X-27.3348 Y-19.6287
G01 X-27.3373 Y-19.6342
G01 X-27.3500 Y-19.6645
G01 X-27.4248 Y-19.5084
G01 X-27.4864 Y-19.4077
G01 X-27.5585 Y-19.3106
G01 X-27.6697 Y-19.1901
G01 X-27.8394 Y-19.0509
G01 X-27.9688 Y-18.9709
G01 X-28.1190 Y-18.9014
G01 X-28.3355 Y-18.8362
G01 X-28.5102 Y-18.8108
G01 X-28.6267 Y-18.8061
G01 X-28.7509 Y-18.8123
G01 X-28.8786 Y-18.8308
G01 X-28.9938 Y-18.8585
G01 X-29.1602 Y-18.9174
G01 X-29.3625 Y-19.0252
G01 X-29.5070 Y-19.1328
G01 X-29.5927 Y-19.2118
G01 X-29.6739 Y-19.3014
G01 X-29.7545 Y-19.4089
G01 X-29.8152 Y-19.5084
G01 X-29.8383 Y-19.5516
G01 X-29.8748 Y-19.6287
G01 X-29.8773 Y-19.6342
G01 X-29.8900 Y-19.6645
G01 X-29.9648 Y-19.5084
G01 X-30.0264 Y-19.4077
G01 X-30.0985 Y-19.3106
G01 X-30.2097 Y-19.1901
G01 X-30.3794 Y-19.0509
G01 X-30.5088 Y-18.9709
G01 X-30.6590 Y-18.9014
G01 X-30.8755 Y-18.8362
G01 X-31.0502 Y-18.8108
G01 X-31.1667 Y-18.8061
G01 X-31.2909 Y-18.8123
G01 X-31.4186 Y-18.8308
G01 X-31.5338 Y-18.8585
G01 X-31.7002 Y-18.9174
G01 X-31.9025 Y-19.0252
G01 X-32.0470 Y-19.1328
G01 X-32.1327 Y-19.2118
G01 X-32.2139 Y-19.3014
G01 X-32.2945 Y-19.4089
G01 X-32.3552 Y-19.5084
G01 X-32.3783 Y-19.5516
G01 X-32.4148 Y-19.6287
G01 X-32.4173 Y-19.6342
G01 X-32.4300 Y-19.6645
G01 X-32.5048 Y-19.5084
G01 X-32.6277 Y-19.3245
G01 X-32.7368 Y-19.2023
G01 X-32.8508 Y-19.1017
G01 X-33.0334 Y-18.9798
G01 X-33.1807 Y-18.9084
G01 X-33.2962 Y-18.8670
G01 X-33.4090 Y-18.8377
G01 X-33.5725 Y-18.8121
G01 X-33.6933 Y-18.8061
G01 X-33.8136 Y-18.8110
G01 X-33.9910 Y-18.8377
G01 X-34.1047 Y-18.8673
G01 X-34.2300 Y-18.9129
G01 X-34.3383 Y-18.9640
G01 X-34.4423 Y-19.0251
G01 X-34.5870 Y-19.1328
