(G-CODE GENERATED BY FLATCAM vUnstable - www.flatcam.org - Version Date: 2022/3/1)

(Name: 0.8mm.drl_cnc)
(Type: G-code from Excellon)
(Units: MM)

(Created on Sunday, 06 February 2022 at 19:05)

(This preprocessor is the default preprocessor used by FlatCAM.)
(It is made to work with MACH3 compatible motion controllers.)


(TOOLS DIAMETER: )
(Tool: 1 -> Dia: 0.7493)

(FEEDRATE Z: )
(Tool: 1 -> Feedrate: 90.0)

(FEEDRATE RAPIDS: )
(Tool: 1 -> Feedrate Rapids: 1500)

(Z_CUT: )
(Tool: 1 -> Z_Cut: -2.0)

(Tools Offset: )
(Tool: 1 -> Offset Z: 0.0)

(Z_MOVE: )
(Tool: 1 -> Z_Move: 2)

(Z Start: None mm)
(Z End: 15 mm)
(X,Y End: None mm)
(Steps per circle: 16)
(Preprocessor Excellon: default)

(X range: -171.2709 ...   -6.8491  mm)
(Y range:  -94.3013 ...  -44.1998  mm)

(Spindle Speed: 300 RPM)
G21
G90
G94

G01 F90.00
G00 Z2.0000
M03 S300
G00 X-161.2595 Y-78.9508
G01 Z-2.0000
G01 Z0
G00 Z2.0000
G00 X-170.8709 Y-93.9013
G01 Z-2.0000
G01 Z0
G00 Z2.0000
G00 X-168.8211 Y-65.3491
G01 Z-2.0000
G01 Z0
G00 Z2.0000
G00 X-168.8211 Y-61.8490
G01 Z-2.0000
G01 Z0
G00 Z2.0000
G00 X-168.8211 Y-58.3006
G01 Z-2.0000
G01 Z0
G00 Z2.0000
G00 X-161.2697 Y-84.0511
G01 Z-2.0000
G01 Z0
G00 Z2.0000
G00 X-161.2697 Y-73.7006
G01 Z-2.0000
G01 Z0
G00 Z2.0000
G00 X-155.6309 Y-93.9013
G01 Z-2.0000
G01 Z0
G00 Z2.0000
G00 X-153.5811 Y-65.3491
G01 Z-2.0000
G01 Z0
G00 Z2.0000
G00 X-153.5811 Y-61.8490
G01 Z-2.0000
G01 Z0
G00 Z2.0000
G00 X-153.5811 Y-58.3006
G01 Z-2.0000
G01 Z0
G00 Z2.0000
G00 X-146.0297 Y-84.0511
G01 Z-2.0000
G01 Z0
G00 Z2.0000
G00 X-146.0297 Y-73.7006
G01 Z-2.0000
G01 Z0
G00 Z2.0000
G00 X-11.0007 Y-84.4906
G01 Z-2.0000
G01 Z0
G00 Z2.0000
G00 X-11.0007 Y-69.2506
G01 Z-2.0000
G01 Z0
G00 Z2.0000
G00 X-10.9830 Y-59.7002
G01 Z-2.0000
G01 Z0
G00 Z2.0000
G00 X-10.9830 Y-44.5999
G01 Z-2.0000
G01 Z0
G00 Z2.0000
G00 X-8.4836 Y-59.7002
G01 Z-2.0000
G01 Z0
G00 Z2.0000
G00 X-8.4836 Y-44.5999
G01 Z-2.0000
G01 Z0
G00 Z2.0000
G00 X-7.2492 Y-86.5988
G01 Z-2.0000
G01 Z0
G00 Z2.0000
G00 X-7.2492 Y-81.6000
G01 Z-2.0000
G01 Z0
G00 Z2.0000
G00 X-135.0797 Y-91.6203
G01 Z-2.0000
G01 Z0
G00 Z2.0000
G00 X-135.0797 Y-76.3803
G01 Z-2.0000
G01 Z0
G00 Z2.0000
G00 X-132.5397 Y-91.6203
G01 Z-2.0000
G01 Z0
G00 Z2.0000
G00 X-132.5397 Y-76.3803
G01 Z-2.0000
G01 Z0
G00 Z2.0000
G00 X-129.9997 Y-91.6203
G01 Z-2.0000
G01 Z0
G00 Z2.0000
G00 X-129.9997 Y-76.3803
G01 Z-2.0000
G01 Z0
G00 Z2.0000
G00 X-127.4597 Y-91.6203
G01 Z-2.0000
G01 Z0
G00 Z2.0000
G00 X-127.4597 Y-76.3803
G01 Z-2.0000
G01 Z0
G00 Z2.0000
G00 X-124.9197 Y-91.6203
G01 Z-2.0000
G01 Z0
G00 Z2.0000
G00 X-124.9197 Y-76.3803
G01 Z-2.0000
G01 Z0
G00 Z2.0000
G00 X-109.0803 Y-91.6203
G01 Z-2.0000
G01 Z0
G00 Z2.0000
G00 X-109.0803 Y-76.3803
G01 Z-2.0000
G01 Z0
G00 Z2.0000
G00 X-106.5403 Y-91.6203
G01 Z-2.0000
G01 Z0
G00 Z2.0000
G00 X-106.5403 Y-76.3803
G01 Z-2.0000
G01 Z0
G00 Z2.0000
G00 X-104.0003 Y-91.6203
G01 Z-2.0000
G01 Z0
G00 Z2.0000
G00 X-104.0003 Y-76.3803
G01 Z-2.0000
G01 Z0
G00 Z2.0000
G00 X-101.4603 Y-91.6203
G01 Z-2.0000
G01 Z0
G00 Z2.0000
G00 X-101.4603 Y-76.3803
G01 Z-2.0000
G01 Z0
G00 Z2.0000
G00 X-98.9203 Y-91.6203
G01 Z-2.0000
G01 Z0
G00 Z2.0000
G00 X-98.9203 Y-76.3803
G01 Z-2.0000
G01 Z0
G00 Z2.0000
G00 X-83.0809 Y-91.6203
G01 Z-2.0000
G01 Z0
G00 Z2.0000
G00 X-83.0809 Y-76.3803
G01 Z-2.0000
G01 Z0
G00 Z2.0000
G00 X-80.5409 Y-91.6203
G01 Z-2.0000
G01 Z0
G00 Z2.0000
G00 X-80.5409 Y-76.3803
G01 Z-2.0000
G01 Z0
G00 Z2.0000
G00 X-78.0009 Y-91.6203
G01 Z-2.0000
G01 Z0
G00 Z2.0000
G00 X-78.0009 Y-76.3803
G01 Z-2.0000
G01 Z0
G00 Z2.0000
G00 X-75.4609 Y-91.6203
G01 Z-2.0000
G01 Z0
G00 Z2.0000
G00 X-75.4609 Y-76.3803
G01 Z-2.0000
G01 Z0
G00 Z2.0000
G00 X-72.9209 Y-91.6203
G01 Z-2.0000
G01 Z0
G00 Z2.0000
G00 X-72.9209 Y-76.3803
G01 Z-2.0000
G01 Z0
G00 Z2.0000
G00 X-57.0789 Y-91.6203
G01 Z-2.0000
G01 Z0
G00 Z2.0000
G00 X-57.0789 Y-76.3803
G01 Z-2.0000
G01 Z0
G00 Z2.0000
G00 X-54.5389 Y-91.6203
G01 Z-2.0000
G01 Z0
G00 Z2.0000
G00 X-54.5389 Y-76.3803
G01 Z-2.0000
G01 Z0
G00 Z2.0000
G00 X-51.9989 Y-91.6203
G01 Z-2.0000
G01 Z0
G00 Z2.0000
G00 X-51.9989 Y-76.3803
G01 Z-2.0000
G01 Z0
G00 Z2.0000
G00 X-49.4589 Y-91.6203
G01 Z-2.0000
G01 Z0
G00 Z2.0000
G00 X-49.4589 Y-76.3803
G01 Z-2.0000
G01 Z0
G00 Z2.0000
G00 X-46.9189 Y-91.6203
G01 Z-2.0000
G01 Z0
G00 Z2.0000
G00 X-46.9189 Y-76.3803
G01 Z-2.0000
G01 Z0
G00 Z2.0000
G00 X-170.4188 Y-90.3097
G01 Z-2.0000
G01 Z0
G00 Z2.0000
G00 X-169.1488 Y-90.3097
G01 Z-2.0000
G01 Z0
G00 Z2.0000
G00 X-167.8788 Y-90.3097
G01 Z-2.0000
G01 Z0
G00 Z2.0000
G00 X-163.8706 Y-69.1388
G01 Z-2.0000
G01 Z0
G00 Z2.0000
G00 X-163.7995 Y-78.9508
G01 Z-2.0000
G01 Z0
G00 Z2.0000
G00 X-162.6006 Y-69.1388
G01 Z-2.0000
G01 Z0
G00 Z2.0000
G00 X-162.5295 Y-78.9508
G01 Z-2.0000
G01 Z0
G00 Z2.0000
G00 X-161.3306 Y-69.1388
G01 Z-2.0000
G01 Z0
G00 Z2.0000
M05
G00 Z15.00


