(G-CODE GENERATED BY FLATCAM vUnstable - www.flatcam.org - Version Date: 2022/3/1)

(Name: 0.9mm.drl_cnc)
(Type: G-code from Excellon)
(Units: MM)

(Created on Sunday, 06 February 2022 at 19:06)

(This preprocessor is the default preprocessor used by FlatCAM.)
(It is made to work with MACH3 compatible motion controllers.)


(TOOLS DIAMETER: )
(Tool: 1 -> Dia: 0.89916)

(FEEDRATE Z: )
(Tool: 1 -> Feedrate: 90.0)

(FEEDRATE RAPIDS: )
(Tool: 1 -> Feedrate Rapids: 1500)

(Z_CUT: )
(Tool: 1 -> Z_Cut: -2.0)

(Tools Offset: )
(Tool: 1 -> Offset Z: 0.0)

(Z_MOVE: )
(Tool: 1 -> Z_Move: 2)

(Z Start: None mm)
(Z End: 15 mm)
(X,Y End: None mm)
(Steps per circle: 16)
(Preprocessor Excellon: default)

(X range: -161.6507 ...  -29.7993  mm)
(Y range:  -89.5502 ...   -8.3515  mm)

(Spindle Speed: 300 RPM)
G21
G90
G94

G01 F90.00
G00 Z2.0000
M03 S300
G00 X-30.2489 Y-64.2493
G01 Z-2.0000
G01 Z0
G00 Z2.0000
G00 X-161.2011 Y-54.5211
G01 Z-2.0000
G01 Z0
G00 Z2.0000
G00 X-161.2011 Y-51.9811
G01 Z-2.0000
G01 Z0
G00 Z2.0000
G00 X-161.2011 Y-49.4411
G01 Z-2.0000
G01 Z0
G00 Z2.0000
G00 X-161.2011 Y-46.9011
G01 Z-2.0000
G01 Z0
G00 Z2.0000
G00 X-161.2011 Y-44.3611
G01 Z-2.0000
G01 Z0
G00 Z2.0000
G00 X-161.2011 Y-41.8211
G01 Z-2.0000
G01 Z0
G00 Z2.0000
G00 X-161.2011 Y-39.2811
G01 Z-2.0000
G01 Z0
G00 Z2.0000
G00 X-161.2011 Y-36.7411
G01 Z-2.0000
G01 Z0
G00 Z2.0000
G00 X-161.2011 Y-34.2011
G01 Z-2.0000
G01 Z0
G00 Z2.0000
G00 X-161.2011 Y-31.6611
G01 Z-2.0000
G01 Z0
G00 Z2.0000
G00 X-161.2011 Y-29.1211
G01 Z-2.0000
G01 Z0
G00 Z2.0000
G00 X-161.2011 Y-26.5811
G01 Z-2.0000
G01 Z0
G00 Z2.0000
G00 X-161.2011 Y-24.0411
G01 Z-2.0000
G01 Z0
G00 Z2.0000
G00 X-161.2011 Y-21.5011
G01 Z-2.0000
G01 Z0
G00 Z2.0000
G00 X-161.2011 Y-18.9611
G01 Z-2.0000
G01 Z0
G00 Z2.0000
G00 X-161.2011 Y-16.4211
G01 Z-2.0000
G01 Z0
G00 Z2.0000
G00 X-161.2011 Y-13.8811
G01 Z-2.0000
G01 Z0
G00 Z2.0000
G00 X-161.2011 Y-11.3411
G01 Z-2.0000
G01 Z0
G00 Z2.0000
G00 X-161.2011 Y-8.8011
G01 Z-2.0000
G01 Z0
G00 Z2.0000
G00 X-155.6258 Y-88.9991
G01 Z-2.0000
G01 Z0
G00 Z2.0000
G00 X-153.0858 Y-88.9991
G01 Z-2.0000
G01 Z0
G00 Z2.0000
G00 X-148.5392 Y-88.9991
G01 Z-2.0000
G01 Z0
G00 Z2.0000
G00 X-148.5392 Y-78.9991
G01 Z-2.0000
G01 Z0
G00 Z2.0000
G00 X-145.9992 Y-88.9991
G01 Z-2.0000
G01 Z0
G00 Z2.0000
G00 X-145.9992 Y-78.9991
G01 Z-2.0000
G01 Z0
G00 Z2.0000
G00 X-135.8011 Y-54.5211
G01 Z-2.0000
G01 Z0
G00 Z2.0000
G00 X-135.8011 Y-51.9811
G01 Z-2.0000
G01 Z0
G00 Z2.0000
G00 X-135.8011 Y-49.4411
G01 Z-2.0000
G01 Z0
G00 Z2.0000
G00 X-135.8011 Y-46.9011
G01 Z-2.0000
G01 Z0
G00 Z2.0000
G00 X-135.8011 Y-44.3611
G01 Z-2.0000
G01 Z0
G00 Z2.0000
G00 X-135.8011 Y-41.8211
G01 Z-2.0000
G01 Z0
G00 Z2.0000
G00 X-135.8011 Y-39.2811
G01 Z-2.0000
G01 Z0
G00 Z2.0000
G00 X-135.8011 Y-36.7411
G01 Z-2.0000
G01 Z0
G00 Z2.0000
G00 X-135.8011 Y-34.2011
G01 Z-2.0000
G01 Z0
G00 Z2.0000
G00 X-135.8011 Y-31.6611
G01 Z-2.0000
G01 Z0
G00 Z2.0000
G00 X-135.8011 Y-29.1211
G01 Z-2.0000
G01 Z0
G00 Z2.0000
G00 X-135.8011 Y-26.5811
G01 Z-2.0000
G01 Z0
G00 Z2.0000
G00 X-135.8011 Y-24.0411
G01 Z-2.0000
G01 Z0
G00 Z2.0000
G00 X-135.8011 Y-21.5011
G01 Z-2.0000
G01 Z0
G00 Z2.0000
G00 X-135.8011 Y-18.9611
G01 Z-2.0000
G01 Z0
G00 Z2.0000
G00 X-135.8011 Y-16.4211
G01 Z-2.0000
G01 Z0
G00 Z2.0000
G00 X-135.8011 Y-13.8811
G01 Z-2.0000
G01 Z0
G00 Z2.0000
G00 X-135.8011 Y-11.3411
G01 Z-2.0000
G01 Z0
G00 Z2.0000
G00 X-135.8011 Y-8.8011
G01 Z-2.0000
G01 Z0
G00 Z2.0000
G00 X-121.9505 Y-20.2006
G01 Z-2.0000
G01 Z0
G00 Z2.0000
G00 X-119.4105 Y-45.6006
G01 Z-2.0000
G01 Z0
G00 Z2.0000
G00 X-119.4105 Y-20.2006
G01 Z-2.0000
G01 Z0
G00 Z2.0000
G00 X-116.8705 Y-45.6006
G01 Z-2.0000
G01 Z0
G00 Z2.0000
G00 X-116.8705 Y-20.2006
G01 Z-2.0000
G01 Z0
G00 Z2.0000
G00 X-114.3305 Y-45.6006
G01 Z-2.0000
G01 Z0
G00 Z2.0000
G00 X-114.3305 Y-20.2006
G01 Z-2.0000
G01 Z0
G00 Z2.0000
G00 X-111.7905 Y-45.6006
G01 Z-2.0000
G01 Z0
G00 Z2.0000
G00 X-111.7905 Y-20.2006
G01 Z-2.0000
G01 Z0
G00 Z2.0000
G00 X-109.2505 Y-20.2006
G01 Z-2.0000
G01 Z0
G00 Z2.0000
G00 X-46.9494 Y-72.6999
G01 Z-2.0000
G01 Z0
G00 Z2.0000
G00 X-46.9494 Y-69.6011
G01 Z-2.0000
G01 Z0
G00 Z2.0000
G00 X-42.3494 Y-68.1990
G01 Z-2.0000
G01 Z0
G00 Z2.0000
G00 X-42.3494 Y-63.0504
G01 Z-2.0000
G01 Z0
G00 Z2.0000
G00 X-37.7012 Y-89.1007
G01 Z-2.0000
G01 Z0
G00 Z2.0000
G00 X-37.7012 Y-84.8512
G01 Z-2.0000
G01 Z0
G00 Z2.0000
G00 X-37.6504 Y-73.2993
G01 Z-2.0000
G01 Z0
G00 Z2.0000
G00 X-37.5996 Y-67.1500
G01 Z-2.0000
G01 Z0
G00 Z2.0000
G00 X-32.3494 Y-74.3001
G01 Z-2.0000
G01 Z0
G00 Z2.0000
G00 X-32.3494 Y-62.6999
G01 Z-2.0000
G01 Z0
G00 Z2.0000
G00 X-30.2489 Y-74.3509
G01 Z-2.0000
G01 Z0
G00 Z2.0000
G00 X-30.2489 Y-64.2493
G01 Z-2.0000
G01 Z0
G00 Z2.0000
G00 X-161.2011 Y-54.5211
G01 Z-2.0000
G01 Z0
G00 Z2.0000
G00 X-161.2011 Y-51.9811
G01 Z-2.0000
G01 Z0
G00 Z2.0000
G00 X-161.2011 Y-49.4411
G01 Z-2.0000
G01 Z0
G00 Z2.0000
G00 X-161.2011 Y-46.9011
G01 Z-2.0000
G01 Z0
G00 Z2.0000
G00 X-161.2011 Y-44.3611
G01 Z-2.0000
G01 Z0
G00 Z2.0000
G00 X-161.2011 Y-41.8211
G01 Z-2.0000
G01 Z0
G00 Z2.0000
G00 X-161.2011 Y-39.2811
G01 Z-2.0000
G01 Z0
G00 Z2.0000
G00 X-161.2011 Y-36.7411
G01 Z-2.0000
G01 Z0
G00 Z2.0000
G00 X-161.2011 Y-34.2011
G01 Z-2.0000
G01 Z0
G00 Z2.0000
G00 X-161.2011 Y-31.6611
G01 Z-2.0000
G01 Z0
G00 Z2.0000
G00 X-161.2011 Y-29.1211
G01 Z-2.0000
G01 Z0
G00 Z2.0000
G00 X-161.2011 Y-26.5811
G01 Z-2.0000
G01 Z0
G00 Z2.0000
G00 X-161.2011 Y-24.0411
G01 Z-2.0000
G01 Z0
G00 Z2.0000
G00 X-161.2011 Y-21.5011
G01 Z-2.0000
G01 Z0
G00 Z2.0000
G00 X-161.2011 Y-18.9611
G01 Z-2.0000
G01 Z0
G00 Z2.0000
G00 X-161.2011 Y-16.4211
G01 Z-2.0000
G01 Z0
G00 Z2.0000
G00 X-161.2011 Y-13.8811
G01 Z-2.0000
G01 Z0
G00 Z2.0000
G00 X-161.2011 Y-11.3411
G01 Z-2.0000
G01 Z0
G00 Z2.0000
G00 X-161.2011 Y-8.8011
G01 Z-2.0000
G01 Z0
G00 Z2.0000
G00 X-155.6258 Y-88.9991
G01 Z-2.0000
G01 Z0
G00 Z2.0000
G00 X-153.0858 Y-88.9991
G01 Z-2.0000
G01 Z0
G00 Z2.0000
G00 X-148.5392 Y-88.9991
G01 Z-2.0000
G01 Z0
G00 Z2.0000
G00 X-148.5392 Y-78.9991
G01 Z-2.0000
G01 Z0
G00 Z2.0000
G00 X-145.9992 Y-88.9991
G01 Z-2.0000
G01 Z0
G00 Z2.0000
G00 X-145.9992 Y-78.9991
G01 Z-2.0000
G01 Z0
G00 Z2.0000
G00 X-135.8011 Y-54.5211
G01 Z-2.0000
G01 Z0
G00 Z2.0000
G00 X-135.8011 Y-51.9811
G01 Z-2.0000
G01 Z0
G00 Z2.0000
G00 X-135.8011 Y-49.4411
G01 Z-2.0000
G01 Z0
G00 Z2.0000
G00 X-135.8011 Y-46.9011
G01 Z-2.0000
G01 Z0
G00 Z2.0000
G00 X-135.8011 Y-44.3611
G01 Z-2.0000
G01 Z0
G00 Z2.0000
G00 X-135.8011 Y-41.8211
G01 Z-2.0000
G01 Z0
G00 Z2.0000
G00 X-135.8011 Y-39.2811
G01 Z-2.0000
G01 Z0
G00 Z2.0000
G00 X-135.8011 Y-36.7411
G01 Z-2.0000
G01 Z0
G00 Z2.0000
G00 X-135.8011 Y-34.2011
G01 Z-2.0000
G01 Z0
G00 Z2.0000
G00 X-135.8011 Y-31.6611
G01 Z-2.0000
G01 Z0
G00 Z2.0000
G00 X-135.8011 Y-29.1211
G01 Z-2.0000
G01 Z0
G00 Z2.0000
G00 X-135.8011 Y-26.5811
G01 Z-2.0000
G01 Z0
G00 Z2.0000
G00 X-135.8011 Y-24.0411
G01 Z-2.0000
G01 Z0
G00 Z2.0000
G00 X-135.8011 Y-21.5011
G01 Z-2.0000
G01 Z0
G00 Z2.0000
G00 X-135.8011 Y-18.9611
G01 Z-2.0000
G01 Z0
G00 Z2.0000
G00 X-135.8011 Y-16.4211
G01 Z-2.0000
G01 Z0
G00 Z2.0000
G00 X-135.8011 Y-13.8811
G01 Z-2.0000
G01 Z0
G00 Z2.0000
G00 X-135.8011 Y-11.3411
G01 Z-2.0000
G01 Z0
G00 Z2.0000
G00 X-135.8011 Y-8.8011
G01 Z-2.0000
G01 Z0
G00 Z2.0000
G00 X-121.9505 Y-20.2006
G01 Z-2.0000
G01 Z0
G00 Z2.0000
G00 X-119.4105 Y-45.6006
G01 Z-2.0000
G01 Z0
G00 Z2.0000
G00 X-119.4105 Y-20.2006
G01 Z-2.0000
G01 Z0
G00 Z2.0000
G00 X-116.8705 Y-45.6006
G01 Z-2.0000
G01 Z0
G00 Z2.0000
G00 X-116.8705 Y-20.2006
G01 Z-2.0000
G01 Z0
G00 Z2.0000
G00 X-114.3305 Y-45.6006
G01 Z-2.0000
G01 Z0
G00 Z2.0000
G00 X-114.3305 Y-20.2006
G01 Z-2.0000
G01 Z0
G00 Z2.0000
G00 X-111.7905 Y-45.6006
G01 Z-2.0000
G01 Z0
G00 Z2.0000
G00 X-111.7905 Y-20.2006
G01 Z-2.0000
G01 Z0
G00 Z2.0000
G00 X-109.2505 Y-20.2006
G01 Z-2.0000
G01 Z0
G00 Z2.0000
G00 X-46.9494 Y-72.6999
G01 Z-2.0000
G01 Z0
G00 Z2.0000
G00 X-46.9494 Y-69.6011
G01 Z-2.0000
G01 Z0
G00 Z2.0000
G00 X-42.3494 Y-68.1990
G01 Z-2.0000
G01 Z0
G00 Z2.0000
G00 X-42.3494 Y-63.0504
G01 Z-2.0000
G01 Z0
G00 Z2.0000
G00 X-37.7012 Y-89.1007
G01 Z-2.0000
G01 Z0
G00 Z2.0000
G00 X-37.7012 Y-84.8512
G01 Z-2.0000
G01 Z0
G00 Z2.0000
G00 X-37.6504 Y-73.2993
G01 Z-2.0000
G01 Z0
G00 Z2.0000
G00 X-37.5996 Y-67.1500
G01 Z-2.0000
G01 Z0
G00 Z2.0000
G00 X-32.3494 Y-74.3001
G01 Z-2.0000
G01 Z0
G00 Z2.0000
G00 X-32.3494 Y-62.6999
G01 Z-2.0000
G01 Z0
G00 Z2.0000
G00 X-30.2489 Y-74.3509
G01 Z-2.0000
G01 Z0
G00 Z2.0000
M05
G00 Z15.00


