(G-CODE GENERATED BY FLATCAM vUnstable - www.flatcam.org - Version Date: 2022/3/1)

(Name: 1.2mm.drl_cnc)
(Type: G-code from Excellon)
(Units: MM)

(Created on Sunday, 06 February 2022 at 19:10)

(This preprocessor is the default preprocessor used by FlatCAM.)
(It is made to work with MACH3 compatible motion controllers.)


(TOOLS DIAMETER: )
(Tool: 1 -> Dia: 1.1912599999999998)

(FEEDRATE Z: )
(Tool: 1 -> Feedrate: 90.0)

(FEEDRATE RAPIDS: )
(Tool: 1 -> Feedrate Rapids: 1500)

(Z_CUT: )
(Tool: 1 -> Z_Cut: -2.0)

(Tools Offset: )
(Tool: 1 -> Offset Z: 0.0)

(Z_MOVE: )
(Tool: 1 -> Z_Move: 2)

(Z Start: None mm)
(Z End: 15 mm)
(X,Y End: None mm)
(Steps per circle: 16)
(Preprocessor Excellon: default)

(X range: -176.5948 ...  -15.2502  mm)
(Y range:  -96.7956 ...  -19.8031  mm)

(Spindle Speed: 300 RPM)
G21
G90
G94

G01 F90.00
G00 Z2.0000
M03 S300
G00 X-21.0007 Y-20.3987
G01 Z-2.0000
G01 Z0
G00 Z2.0000
G00 X-27.3990 Y-29.0373
G01 Z-2.0000
G01 Z0
G00 Z2.0000
G00 X-23.5509 Y-29.0373
G01 Z-2.0000
G01 Z0
G00 Z2.0000
G00 X-19.7002 Y-29.0373
G01 Z-2.0000
G01 Z0
G00 Z2.0000
G00 X-15.8496 Y-29.0373
G01 Z-2.0000
G01 Z0
G00 Z2.0000
G00 X-175.9991 Y-96.2000
G01 Z-2.0000
G01 Z0
G00 Z2.0000
G00 X-175.9991 Y-93.6600
G01 Z-2.0000
G01 Z0
G00 Z2.0000
G00 X-175.9991 Y-91.1200
G01 Z-2.0000
G01 Z0
G00 Z2.0000
G00 X-175.9991 Y-88.5800
G01 Z-2.0000
G01 Z0
G00 Z2.0000
G00 X-175.9991 Y-86.0400
G01 Z-2.0000
G01 Z0
G00 Z2.0000
G00 X-175.9991 Y-83.5000
G01 Z-2.0000
G01 Z0
G00 Z2.0000
G00 X-43.8607 Y-20.3987
G01 Z-2.0000
G01 Z0
G00 Z2.0000
G00 X-41.3207 Y-20.3987
G01 Z-2.0000
G01 Z0
G00 Z2.0000
G00 X-38.7807 Y-20.3987
G01 Z-2.0000
G01 Z0
G00 Z2.0000
G00 X-36.2407 Y-20.3987
G01 Z-2.0000
G01 Z0
G00 Z2.0000
G00 X-33.7007 Y-20.3987
G01 Z-2.0000
G01 Z0
G00 Z2.0000
G00 X-31.1607 Y-20.3987
G01 Z-2.0000
G01 Z0
G00 Z2.0000
G00 X-28.6207 Y-20.3987
G01 Z-2.0000
G01 Z0
G00 Z2.0000
G00 X-26.0807 Y-20.3987
G01 Z-2.0000
G01 Z0
G00 Z2.0000
G00 X-23.5407 Y-20.3987
G01 Z-2.0000
G01 Z0
G00 Z2.0000
M05
G00 Z15.00


