(G-CODE GENERATED BY FLATCAM vUnstable - www.flatcam.org - Version Date: 2022/3/1)

(Name: 1.8mm.drl_cnc)
(Type: G-code from Excellon)
(Units: MM)

(Created on Sunday, 06 February 2022 at 19:11)

(This preprocessor is the default preprocessor used by FlatCAM.)
(It is made to work with MACH3 compatible motion controllers.)


(TOOLS DIAMETER: )
(Tool: 1 -> Dia: 1.8008600000000001)

(FEEDRATE Z: )
(Tool: 1 -> Feedrate: 90.0)

(FEEDRATE RAPIDS: )
(Tool: 1 -> Feedrate Rapids: 1500)

(Z_CUT: )
(Tool: 1 -> Z_Cut: -2.0)

(Tools Offset: )
(Tool: 1 -> Offset Z: 0.0)

(Z_MOVE: )
(Tool: 1 -> Z_Move: 2)

(Z Start: None mm)
(Z End: 15 mm)
(X,Y End: None mm)
(Steps per circle: 16)
(Preprocessor Excellon: default)

(X range:  -23.0822 ...  -21.2814  mm)
(Y range:  -58.1012 ...  -46.3004  mm)

(Spindle Speed: 300 RPM)
G21
G90
G94

G01 F90.00
G00 Z2.0000
M03 S300
G00 X-22.1818 Y-47.2008
G01 Z-2.0000
G01 Z0
G00 Z2.0000
G00 X-22.1818 Y-57.2008
G01 Z-2.0000
G01 Z0
G00 Z2.0000
M05
G00 Z15.00


