(G-CODE GENERATED BY FLATCAM vUnstable - www.flatcam.org - Version Date: 2022/3/1)

(Name: 4.0mm.drl_exc_cnc_cnc)
(Type: G-code from Geometry)
(Units: MM)

(Created on Sunday, 06 February 2022 at 19:12)

(This preprocessor is the default preprocessor used by FlatCAM.)
(It is made to work with MACH3 compatible motion controllers.)

(TOOL DIAMETER: 1.0 mm)
(Feedrate_XY: 120.0 mm/min)
(Feedrate_Z: 90.0 mm/min)
(Feedrate rapids 1500.0 mm/min)

(Z_Cut: -2.0 mm)
(DepthPerCut: 0.5 mm <=>4 passes)
(Z_Move: 2.0 mm)
(Z Start: None mm)
(Z End: 15.0 mm)
(X,Y End: None mm)
(Steps per circle: 16)
(Preprocessor Geometry: default)

(X range: -177.9994 ...   -3.9992  mm)
(Y range: -113.0008 ...  -19.0005  mm)

(Spindle Speed: 300.0 RPM)
G21
G90
G94

G01 F120.00
G00 Z2.0000

M03 S300.0
G01 F120.00
G00 X-4.4998 Y-21.0007
G01 F90.00
G01 Z-0.5000
G01 F120.00
G01 X-4.5071 Y-21.1477
G01 X-4.5286 Y-21.2933
G01 X-4.5644 Y-21.4360
G01 X-4.6140 Y-21.5746
G01 X-4.6769 Y-21.7076
G01 X-4.7526 Y-21.8339
G01 X-4.8402 Y-21.9521
G01 X-4.9391 Y-22.0611
G01 X-5.0481 Y-22.1600
G01 X-5.1663 Y-22.2476
G01 X-5.2926 Y-22.3233
G01 X-5.4256 Y-22.3862
G01 X-5.5642 Y-22.4358
G01 X-5.7069 Y-22.4716
G01 X-5.8525 Y-22.4931
G01 X-5.9995 Y-22.5004
G01 X-6.1465 Y-22.4931
G01 X-6.2920 Y-22.4716
G01 X-6.4348 Y-22.4358
G01 X-6.5734 Y-22.3862
G01 X-6.7064 Y-22.3233
G01 X-6.8326 Y-22.2476
G01 X-6.9508 Y-22.1600
G01 X-7.0599 Y-22.0611
G01 X-7.1587 Y-21.9521
G01 X-7.2464 Y-21.8339
G01 X-7.3221 Y-21.7076
G01 X-7.3850 Y-21.5746
G01 X-7.4346 Y-21.4360
G01 X-7.4703 Y-21.2933
G01 X-7.4919 Y-21.1477
G01 X-7.4991 Y-21.0007
G01 X-7.4919 Y-20.8537
G01 X-7.4703 Y-20.7082
G01 X-7.4346 Y-20.5654
G01 X-7.3850 Y-20.4268
G01 X-7.3221 Y-20.2938
G01 X-7.2464 Y-20.1676
G01 X-7.1587 Y-20.0494
G01 X-7.0599 Y-19.9403
G01 X-6.9508 Y-19.8415
G01 X-6.8326 Y-19.7538
G01 X-6.7064 Y-19.6781
G01 X-6.5734 Y-19.6152
G01 X-6.4348 Y-19.5656
G01 X-6.2920 Y-19.5299
G01 X-6.1465 Y-19.5083
G01 X-5.9995 Y-19.5011
G01 X-5.8525 Y-19.5083
G01 X-5.7069 Y-19.5299
G01 X-5.5642 Y-19.5656
G01 X-5.4256 Y-19.6152
G01 X-5.2926 Y-19.6781
G01 X-5.1663 Y-19.7538
G01 X-5.0481 Y-19.8415
G01 X-4.9391 Y-19.9403
G01 X-4.8402 Y-20.0494
G01 X-4.7526 Y-20.1676
G01 X-4.6769 Y-20.2938
G01 X-4.6140 Y-20.4268
G01 X-4.5644 Y-20.5654
G01 X-4.5286 Y-20.7082
G01 X-4.5071 Y-20.8537
G01 X-4.4998 Y-21.0007
G00 X-4.4998 Y-21.0007
G01 F90.00
G01 Z-1.0000
G01 F120.00
G01 X-4.5071 Y-21.1477
G01 X-4.5286 Y-21.2933
G01 X-4.5644 Y-21.4360
G01 X-4.6140 Y-21.5746
G01 X-4.6769 Y-21.7076
G01 X-4.7526 Y-21.8339
G01 X-4.8402 Y-21.9521
G01 X-4.9391 Y-22.0611
G01 X-5.0481 Y-22.1600
G01 X-5.1663 Y-22.2476
G01 X-5.2926 Y-22.3233
G01 X-5.4256 Y-22.3862
G01 X-5.5642 Y-22.4358
G01 X-5.7069 Y-22.4716
G01 X-5.8525 Y-22.4931
G01 X-5.9995 Y-22.5004
G01 X-6.1465 Y-22.4931
G01 X-6.2920 Y-22.4716
G01 X-6.4348 Y-22.4358
G01 X-6.5734 Y-22.3862
G01 X-6.7064 Y-22.3233
G01 X-6.8326 Y-22.2476
G01 X-6.9508 Y-22.1600
G01 X-7.0599 Y-22.0611
G01 X-7.1587 Y-21.9521
G01 X-7.2464 Y-21.8339
G01 X-7.3221 Y-21.7076
G01 X-7.3850 Y-21.5746
G01 X-7.4346 Y-21.4360
G01 X-7.4703 Y-21.2933
G01 X-7.4919 Y-21.1477
G01 X-7.4991 Y-21.0007
G01 X-7.4919 Y-20.8537
G01 X-7.4703 Y-20.7082
G01 X-7.4346 Y-20.5654
G01 X-7.3850 Y-20.4268
G01 X-7.3221 Y-20.2938
G01 X-7.2464 Y-20.1676
G01 X-7.1587 Y-20.0494
G01 X-7.0599 Y-19.9403
G01 X-6.9508 Y-19.8415
G01 X-6.8326 Y-19.7538
G01 X-6.7064 Y-19.6781
G01 X-6.5734 Y-19.6152
G01 X-6.4348 Y-19.5656
G01 X-6.2920 Y-19.5299
G01 X-6.1465 Y-19.5083
G01 X-5.9995 Y-19.5011
G01 X-5.8525 Y-19.5083
G01 X-5.7069 Y-19.5299
G01 X-5.5642 Y-19.5656
G01 X-5.4256 Y-19.6152
G01 X-5.2926 Y-19.6781
G01 X-5.1663 Y-19.7538
G01 X-5.0481 Y-19.8415
G01 X-4.9391 Y-19.9403
G01 X-4.8402 Y-20.0494
G01 X-4.7526 Y-20.1676
G01 X-4.6769 Y-20.2938
G01 X-4.6140 Y-20.4268
G01 X-4.5644 Y-20.5654
G01 X-4.5286 Y-20.7082
G01 X-4.5071 Y-20.8537
G01 X-4.4998 Y-21.0007
G00 X-4.4998 Y-21.0007
G01 F90.00
G01 Z-1.5000
G01 F120.00
G01 X-4.5071 Y-21.1477
G01 X-4.5286 Y-21.2933
G01 X-4.5644 Y-21.4360
G01 X-4.6140 Y-21.5746
G01 X-4.6769 Y-21.7076
G01 X-4.7526 Y-21.8339
G01 X-4.8402 Y-21.9521
G01 X-4.9391 Y-22.0611
G01 X-5.0481 Y-22.1600
G01 X-5.1663 Y-22.2476
G01 X-5.2926 Y-22.3233
G01 X-5.4256 Y-22.3862
G01 X-5.5642 Y-22.4358
G01 X-5.7069 Y-22.4716
G01 X-5.8525 Y-22.4931
G01 X-5.9995 Y-22.5004
G01 X-6.1465 Y-22.4931
G01 X-6.2920 Y-22.4716
G01 X-6.4348 Y-22.4358
G01 X-6.5734 Y-22.3862
G01 X-6.7064 Y-22.3233
G01 X-6.8326 Y-22.2476
G01 X-6.9508 Y-22.1600
G01 X-7.0599 Y-22.0611
G01 X-7.1587 Y-21.9521
G01 X-7.2464 Y-21.8339
G01 X-7.3221 Y-21.7076
G01 X-7.3850 Y-21.5746
G01 X-7.4346 Y-21.4360
G01 X-7.4703 Y-21.2933
G01 X-7.4919 Y-21.1477
G01 X-7.4991 Y-21.0007
G01 X-7.4919 Y-20.8537
G01 X-7.4703 Y-20.7082
G01 X-7.4346 Y-20.5654
G01 X-7.3850 Y-20.4268
G01 X-7.3221 Y-20.2938
G01 X-7.2464 Y-20.1676
G01 X-7.1587 Y-20.0494
G01 X-7.0599 Y-19.9403
G01 X-6.9508 Y-19.8415
G01 X-6.8326 Y-19.7538
G01 X-6.7064 Y-19.6781
G01 X-6.5734 Y-19.6152
G01 X-6.4348 Y-19.5656
G01 X-6.2920 Y-19.5299
G01 X-6.1465 Y-19.5083
G01 X-5.9995 Y-19.5011
G01 X-5.8525 Y-19.5083
G01 X-5.7069 Y-19.5299
G01 X-5.5642 Y-19.5656
G01 X-5.4256 Y-19.6152
G01 X-5.2926 Y-19.6781
G01 X-5.1663 Y-19.7538
G01 X-5.0481 Y-19.8415
G01 X-4.9391 Y-19.9403
G01 X-4.8402 Y-20.0494
G01 X-4.7526 Y-20.1676
G01 X-4.6769 Y-20.2938
G01 X-4.6140 Y-20.4268
G01 X-4.5644 Y-20.5654
G01 X-4.5286 Y-20.7082
G01 X-4.5071 Y-20.8537
G01 X-4.4998 Y-21.0007
G00 X-4.4998 Y-21.0007
G01 F90.00
G01 Z-2.0000
G01 F120.00
G01 X-4.5071 Y-21.1477
G01 X-4.5286 Y-21.2933
G01 X-4.5644 Y-21.4360
G01 X-4.6140 Y-21.5746
G01 X-4.6769 Y-21.7076
G01 X-4.7526 Y-21.8339
G01 X-4.8402 Y-21.9521
G01 X-4.9391 Y-22.0611
G01 X-5.0481 Y-22.1600
G01 X-5.1663 Y-22.2476
G01 X-5.2926 Y-22.3233
G01 X-5.4256 Y-22.3862
G01 X-5.5642 Y-22.4358
G01 X-5.7069 Y-22.4716
G01 X-5.8525 Y-22.4931
G01 X-5.9995 Y-22.5004
G01 X-6.1465 Y-22.4931
G01 X-6.2920 Y-22.4716
G01 X-6.4348 Y-22.4358
G01 X-6.5734 Y-22.3862
G01 X-6.7064 Y-22.3233
G01 X-6.8326 Y-22.2476
G01 X-6.9508 Y-22.1600
G01 X-7.0599 Y-22.0611
G01 X-7.1587 Y-21.9521
G01 X-7.2464 Y-21.8339
G01 X-7.3221 Y-21.7076
G01 X-7.3850 Y-21.5746
G01 X-7.4346 Y-21.4360
G01 X-7.4703 Y-21.2933
G01 X-7.4919 Y-21.1477
G01 X-7.4991 Y-21.0007
G01 X-7.4919 Y-20.8537
G01 X-7.4703 Y-20.7082
G01 X-7.4346 Y-20.5654
G01 X-7.3850 Y-20.4268
G01 X-7.3221 Y-20.2938
G01 X-7.2464 Y-20.1676
G01 X-7.1587 Y-20.0494
G01 X-7.0599 Y-19.9403
G01 X-6.9508 Y-19.8415
G01 X-6.8326 Y-19.7538
G01 X-6.7064 Y-19.6781
G01 X-6.5734 Y-19.6152
G01 X-6.4348 Y-19.5656
G01 X-6.2920 Y-19.5299
G01 X-6.1465 Y-19.5083
G01 X-5.9995 Y-19.5011
G01 X-5.8525 Y-19.5083
G01 X-5.7069 Y-19.5299
G01 X-5.5642 Y-19.5656
G01 X-5.4256 Y-19.6152
G01 X-5.2926 Y-19.6781
G01 X-5.1663 Y-19.7538
G01 X-5.0481 Y-19.8415
G01 X-4.9391 Y-19.9403
G01 X-4.8402 Y-20.0494
G01 X-4.7526 Y-20.1676
G01 X-4.6769 Y-20.2938
G01 X-4.6140 Y-20.4268
G01 X-4.5644 Y-20.5654
G01 X-4.5286 Y-20.7082
G01 X-4.5071 Y-20.8537
G01 X-4.4998 Y-21.0007
G00 Z2.0000
G00 X-4.6495 Y-21.0007
G01 F90.00
G01 Z-0.5000
G01 F120.00
G01 X-4.6560 Y-21.1330
G01 X-4.6754 Y-21.2641
G01 X-4.7076 Y-21.3926
G01 X-4.7522 Y-21.5173
G01 X-4.8089 Y-21.6371
G01 X-4.8770 Y-21.7507
G01 X-4.9559 Y-21.8572
G01 X-5.0449 Y-21.9553
G01 X-5.1430 Y-22.0443
G01 X-5.2495 Y-22.1232
G01 X-5.3631 Y-22.1913
G01 X-5.4829 Y-22.2480
G01 X-5.6076 Y-22.2926
G01 X-5.7361 Y-22.3248
G01 X-5.8672 Y-22.3442
G01 X-5.9995 Y-22.3507
G01 X-6.1318 Y-22.3442
G01 X-6.2629 Y-22.3248
G01 X-6.3914 Y-22.2926
G01 X-6.5161 Y-22.2480
G01 X-6.6359 Y-22.1913
G01 X-6.7495 Y-22.1232
G01 X-6.8559 Y-22.0443
G01 X-6.9541 Y-21.9553
G01 X-7.0430 Y-21.8572
G01 X-7.1220 Y-21.7507
G01 X-7.1901 Y-21.6371
G01 X-7.2467 Y-21.5173
G01 X-7.2913 Y-21.3926
G01 X-7.3235 Y-21.2641
G01 X-7.3430 Y-21.1330
G01 X-7.3495 Y-21.0007
G01 X-7.3430 Y-20.8684
G01 X-7.3235 Y-20.7373
G01 X-7.2913 Y-20.6088
G01 X-7.2467 Y-20.4841
G01 X-7.1901 Y-20.3643
G01 X-7.1220 Y-20.2507
G01 X-7.0430 Y-20.1443
G01 X-6.9541 Y-20.0461
G01 X-6.8559 Y-19.9572
G01 X-6.7495 Y-19.8782
G01 X-6.6359 Y-19.8101
G01 X-6.5161 Y-19.7535
G01 X-6.3914 Y-19.7089
G01 X-6.2629 Y-19.6767
G01 X-6.1318 Y-19.6572
G01 X-5.9995 Y-19.6507
G01 X-5.8672 Y-19.6572
G01 X-5.7361 Y-19.6767
G01 X-5.6076 Y-19.7089
G01 X-5.4829 Y-19.7535
G01 X-5.3631 Y-19.8101
G01 X-5.2495 Y-19.8782
G01 X-5.1430 Y-19.9572
G01 X-5.0449 Y-20.0461
G01 X-4.9559 Y-20.1443
G01 X-4.8770 Y-20.2507
G01 X-4.8089 Y-20.3643
G01 X-4.7522 Y-20.4841
G01 X-4.7076 Y-20.6088
G01 X-4.6754 Y-20.7373
G01 X-4.6560 Y-20.8684
G01 X-4.6495 Y-21.0007
G00 X-4.6495 Y-21.0007
G01 F90.00
G01 Z-1.0000
G01 F120.00
G01 X-4.6560 Y-20.8684
G01 X-4.6754 Y-20.7373
G01 X-4.7076 Y-20.6088
G01 X-4.7522 Y-20.4841
G01 X-4.8089 Y-20.3643
G01 X-4.8770 Y-20.2507
G01 X-4.9559 Y-20.1443
G01 X-5.0449 Y-20.0461
G01 X-5.1430 Y-19.9572
G01 X-5.2495 Y-19.8782
G01 X-5.3631 Y-19.8101
G01 X-5.4829 Y-19.7535
G01 X-5.6076 Y-19.7089
G01 X-5.7361 Y-19.6767
G01 X-5.8672 Y-19.6572
G01 X-5.9995 Y-19.6507
G01 X-6.1318 Y-19.6572
G01 X-6.2629 Y-19.6767
G01 X-6.3914 Y-19.7089
G01 X-6.5161 Y-19.7535
G01 X-6.6359 Y-19.8101
G01 X-6.7495 Y-19.8782
G01 X-6.8559 Y-19.9572
G01 X-6.9541 Y-20.0461
G01 X-7.0430 Y-20.1443
G01 X-7.1220 Y-20.2507
G01 X-7.1901 Y-20.3643
G01 X-7.2467 Y-20.4841
G01 X-7.2913 Y-20.6088
G01 X-7.3235 Y-20.7373
G01 X-7.3430 Y-20.8684
G01 X-7.3495 Y-21.0007
G01 X-7.3430 Y-21.1330
G01 X-7.3235 Y-21.2641
G01 X-7.2913 Y-21.3926
G01 X-7.2467 Y-21.5173
G01 X-7.1901 Y-21.6371
G01 X-7.1220 Y-21.7507
G01 X-7.0430 Y-21.8572
G01 X-6.9541 Y-21.9553
G01 X-6.8559 Y-22.0443
G01 X-6.7495 Y-22.1232
G01 X-6.6359 Y-22.1913
G01 X-6.5161 Y-22.2480
G01 X-6.3914 Y-22.2926
G01 X-6.2629 Y-22.3248
G01 X-6.1318 Y-22.3442
G01 X-5.9995 Y-22.3507
G01 X-5.8672 Y-22.3442
G01 X-5.7361 Y-22.3248
G01 X-5.6076 Y-22.2926
G01 X-5.4829 Y-22.2480
G01 X-5.3631 Y-22.1913
G01 X-5.2495 Y-22.1232
G01 X-5.1430 Y-22.0443
G01 X-5.0449 Y-21.9553
G01 X-4.9559 Y-21.8572
G01 X-4.8770 Y-21.7507
G01 X-4.8089 Y-21.6371
G01 X-4.7522 Y-21.5173
G01 X-4.7076 Y-21.3926
G01 X-4.6754 Y-21.2641
G01 X-4.6560 Y-21.1330
G01 X-4.6495 Y-21.0007
G00 X-4.6495 Y-21.0007
G01 F90.00
G01 Z-1.5000
G01 F120.00
G01 X-4.6560 Y-21.1330
G01 X-4.6754 Y-21.2641
G01 X-4.7076 Y-21.3926
G01 X-4.7522 Y-21.5173
G01 X-4.8089 Y-21.6371
G01 X-4.8770 Y-21.7507
G01 X-4.9559 Y-21.8572
G01 X-5.0449 Y-21.9553
G01 X-5.1430 Y-22.0443
G01 X-5.2495 Y-22.1232
G01 X-5.3631 Y-22.1913
G01 X-5.4829 Y-22.2480
G01 X-5.6076 Y-22.2926
G01 X-5.7361 Y-22.3248
G01 X-5.8672 Y-22.3442
G01 X-5.9995 Y-22.3507
G01 X-6.1318 Y-22.3442
G01 X-6.2629 Y-22.3248
G01 X-6.3914 Y-22.2926
G01 X-6.5161 Y-22.2480
G01 X-6.6359 Y-22.1913
G01 X-6.7495 Y-22.1232
G01 X-6.8559 Y-22.0443
G01 X-6.9541 Y-21.9553
G01 X-7.0430 Y-21.8572
G01 X-7.1220 Y-21.7507
G01 X-7.1901 Y-21.6371
G01 X-7.2467 Y-21.5173
G01 X-7.2913 Y-21.3926
G01 X-7.3235 Y-21.2641
G01 X-7.3430 Y-21.1330
G01 X-7.3495 Y-21.0007
G01 X-7.3430 Y-20.8684
G01 X-7.3235 Y-20.7373
G01 X-7.2913 Y-20.6088
G01 X-7.2467 Y-20.4841
G01 X-7.1901 Y-20.3643
G01 X-7.1220 Y-20.2507
G01 X-7.0430 Y-20.1443
G01 X-6.9541 Y-20.0461
G01 X-6.8559 Y-19.9572
G01 X-6.7495 Y-19.8782
G01 X-6.6359 Y-19.8101
G01 X-6.5161 Y-19.7535
G01 X-6.3914 Y-19.7089
G01 X-6.2629 Y-19.6767
G01 X-6.1318 Y-19.6572
G01 X-5.9995 Y-19.6507
G01 X-5.8672 Y-19.6572
G01 X-5.7361 Y-19.6767
G01 X-5.6076 Y-19.7089
G01 X-5.4829 Y-19.7535
G01 X-5.3631 Y-19.8101
G01 X-5.2495 Y-19.8782
G01 X-5.1430 Y-19.9572
G01 X-5.0449 Y-20.0461
G01 X-4.9559 Y-20.1443
G01 X-4.8770 Y-20.2507
G01 X-4.8089 Y-20.3643
G01 X-4.7522 Y-20.4841
G01 X-4.7076 Y-20.6088
G01 X-4.6754 Y-20.7373
G01 X-4.6560 Y-20.8684
G01 X-4.6495 Y-21.0007
G00 X-4.6495 Y-21.0007
G01 F90.00
G01 Z-2.0000
G01 F120.00
G01 X-4.6560 Y-20.8684
G01 X-4.6754 Y-20.7373
G01 X-4.7076 Y-20.6088
G01 X-4.7522 Y-20.4841
G01 X-4.8089 Y-20.3643
G01 X-4.8770 Y-20.2507
G01 X-4.9559 Y-20.1443
G01 X-5.0449 Y-20.0461
G01 X-5.1430 Y-19.9572
G01 X-5.2495 Y-19.8782
G01 X-5.3631 Y-19.8101
G01 X-5.4829 Y-19.7535
G01 X-5.6076 Y-19.7089
G01 X-5.7361 Y-19.6767
G01 X-5.8672 Y-19.6572
G01 X-5.9995 Y-19.6507
G01 X-6.1318 Y-19.6572
G01 X-6.2629 Y-19.6767
G01 X-6.3914 Y-19.7089
G01 X-6.5161 Y-19.7535
G01 X-6.6359 Y-19.8101
G01 X-6.7495 Y-19.8782
G01 X-6.8559 Y-19.9572
G01 X-6.9541 Y-20.0461
G01 X-7.0430 Y-20.1443
G01 X-7.1220 Y-20.2507
G01 X-7.1901 Y-20.3643
G01 X-7.2467 Y-20.4841
G01 X-7.2913 Y-20.6088
G01 X-7.3235 Y-20.7373
G01 X-7.3430 Y-20.8684
G01 X-7.3495 Y-21.0007
G01 X-7.3430 Y-21.1330
G01 X-7.3235 Y-21.2641
G01 X-7.2913 Y-21.3926
G01 X-7.2467 Y-21.5173
G01 X-7.1901 Y-21.6371
G01 X-7.1220 Y-21.7507
G01 X-7.0430 Y-21.8572
G01 X-6.9541 Y-21.9553
G01 X-6.8559 Y-22.0443
G01 X-6.7495 Y-22.1232
G01 X-6.6359 Y-22.1913
G01 X-6.5161 Y-22.2480
G01 X-6.3914 Y-22.2926
G01 X-6.2629 Y-22.3248
G01 X-6.1318 Y-22.3442
G01 X-5.9995 Y-22.3507
G01 X-5.8672 Y-22.3442
G01 X-5.7361 Y-22.3248
G01 X-5.6076 Y-22.2926
G01 X-5.4829 Y-22.2480
G01 X-5.3631 Y-22.1913
G01 X-5.2495 Y-22.1232
G01 X-5.1430 Y-22.0443
G01 X-5.0449 Y-21.9553
G01 X-4.9559 Y-21.8572
G01 X-4.8770 Y-21.7507
G01 X-4.8089 Y-21.6371
G01 X-4.7522 Y-21.5173
G01 X-4.7076 Y-21.3926
G01 X-4.6754 Y-21.2641
G01 X-4.6560 Y-21.1330
G01 X-4.6495 Y-21.0007
G00 Z2.0000
G00 X-5.5495 Y-21.0007
G01 F90.00
G01 Z-0.5000
G01 F120.00
G01 X-5.5581 Y-21.0885
G01 X-5.5837 Y-21.1729
G01 X-5.6253 Y-21.2507
G01 X-5.6813 Y-21.3189
G01 X-5.7495 Y-21.3749
G01 X-5.8273 Y-21.4165
G01 X-5.9117 Y-21.4421
G01 X-5.9995 Y-21.4507
G01 X-6.0873 Y-21.4421
G01 X-6.1717 Y-21.4165
G01 X-6.2495 Y-21.3749
G01 X-6.3177 Y-21.3189
G01 X-6.3736 Y-21.2507
G01 X-6.4152 Y-21.1729
G01 X-6.4408 Y-21.0885
G01 X-6.4495 Y-21.0007
G01 X-6.4408 Y-20.9129
G01 X-6.4152 Y-20.8285
G01 X-6.3736 Y-20.7507
G01 X-6.3177 Y-20.6825
G01 X-6.2495 Y-20.6266
G01 X-6.1717 Y-20.5850
G01 X-6.0873 Y-20.5594
G01 X-5.9995 Y-20.5507
G01 X-5.9117 Y-20.5594
G01 X-5.8273 Y-20.5850
G01 X-5.7495 Y-20.6266
G01 X-5.6813 Y-20.6825
G01 X-5.6253 Y-20.7507
G01 X-5.5837 Y-20.8285
G01 X-5.5581 Y-20.9129
G01 X-5.5495 Y-21.0007
G00 X-5.5495 Y-21.0007
G01 F90.00
G01 Z-1.0000
G01 F120.00
G01 X-5.5581 Y-20.9129
G01 X-5.5837 Y-20.8285
G01 X-5.6253 Y-20.7507
G01 X-5.6813 Y-20.6825
G01 X-5.7495 Y-20.6266
G01 X-5.8273 Y-20.5850
G01 X-5.9117 Y-20.5594
G01 X-5.9995 Y-20.5507
G01 X-6.0873 Y-20.5594
G01 X-6.1717 Y-20.5850
G01 X-6.2495 Y-20.6266
G01 X-6.3177 Y-20.6825
G01 X-6.3736 Y-20.7507
G01 X-6.4152 Y-20.8285
G01 X-6.4408 Y-20.9129
G01 X-6.4495 Y-21.0007
G01 X-6.4408 Y-21.0885
G01 X-6.4152 Y-21.1729
G01 X-6.3736 Y-21.2507
G01 X-6.3177 Y-21.3189
G01 X-6.2495 Y-21.3749
G01 X-6.1717 Y-21.4165
G01 X-6.0873 Y-21.4421
G01 X-5.9995 Y-21.4507
G01 X-5.9117 Y-21.4421
G01 X-5.8273 Y-21.4165
G01 X-5.7495 Y-21.3749
G01 X-5.6813 Y-21.3189
G01 X-5.6253 Y-21.2507
G01 X-5.5837 Y-21.1729
G01 X-5.5581 Y-21.0885
G01 X-5.5495 Y-21.0007
G00 X-5.5495 Y-21.0007
G01 F90.00
G01 Z-1.5000
G01 F120.00
G01 X-5.5581 Y-21.0885
G01 X-5.5837 Y-21.1729
G01 X-5.6253 Y-21.2507
G01 X-5.6813 Y-21.3189
G01 X-5.7495 Y-21.3749
G01 X-5.8273 Y-21.4165
G01 X-5.9117 Y-21.4421
G01 X-5.9995 Y-21.4507
G01 X-6.0873 Y-21.4421
G01 X-6.1717 Y-21.4165
G01 X-6.2495 Y-21.3749
G01 X-6.3177 Y-21.3189
G01 X-6.3736 Y-21.2507
G01 X-6.4152 Y-21.1729
G01 X-6.4408 Y-21.0885
G01 X-6.4495 Y-21.0007
G01 X-6.4408 Y-20.9129
G01 X-6.4152 Y-20.8285
G01 X-6.3736 Y-20.7507
G01 X-6.3177 Y-20.6825
G01 X-6.2495 Y-20.6266
G01 X-6.1717 Y-20.5850
G01 X-6.0873 Y-20.5594
G01 X-5.9995 Y-20.5507
G01 X-5.9117 Y-20.5594
G01 X-5.8273 Y-20.5850
G01 X-5.7495 Y-20.6266
G01 X-5.6813 Y-20.6825
G01 X-5.6253 Y-20.7507
G01 X-5.5837 Y-20.8285
G01 X-5.5581 Y-20.9129
G01 X-5.5495 Y-21.0007
G00 X-5.5495 Y-21.0007
G01 F90.00
G01 Z-2.0000
G01 F120.00
G01 X-5.5581 Y-20.9129
G01 X-5.5837 Y-20.8285
G01 X-5.6253 Y-20.7507
G01 X-5.6813 Y-20.6825
G01 X-5.7495 Y-20.6266
G01 X-5.8273 Y-20.5850
G01 X-5.9117 Y-20.5594
G01 X-5.9995 Y-20.5507
G01 X-6.0873 Y-20.5594
G01 X-6.1717 Y-20.5850
G01 X-6.2495 Y-20.6266
G01 X-6.3177 Y-20.6825
G01 X-6.3736 Y-20.7507
G01 X-6.4152 Y-20.8285
G01 X-6.4408 Y-20.9129
G01 X-6.4495 Y-21.0007
G01 X-6.4408 Y-21.0885
G01 X-6.4152 Y-21.1729
G01 X-6.3736 Y-21.2507
G01 X-6.3177 Y-21.3189
G01 X-6.2495 Y-21.3749
G01 X-6.1717 Y-21.4165
G01 X-6.0873 Y-21.4421
G01 X-5.9995 Y-21.4507
G01 X-5.9117 Y-21.4421
G01 X-5.8273 Y-21.4165
G01 X-5.7495 Y-21.3749
G01 X-5.6813 Y-21.3189
G01 X-5.6253 Y-21.2507
G01 X-5.5837 Y-21.1729
G01 X-5.5581 Y-21.0885
G01 X-5.5495 Y-21.0007
G00 Z2.0000
G00 X-5.5495 Y-111.0005
G01 F90.00
G01 Z-0.5000
G01 F120.00
G01 X-5.5581 Y-111.0883
G01 X-5.5837 Y-111.1727
G01 X-5.6253 Y-111.2505
G01 X-5.6813 Y-111.3187
G01 X-5.7495 Y-111.3747
G01 X-5.8273 Y-111.4163
G01 X-5.9117 Y-111.4419
G01 X-5.9995 Y-111.4505
G01 X-6.0873 Y-111.4419
G01 X-6.1717 Y-111.4163
G01 X-6.2495 Y-111.3747
G01 X-6.3177 Y-111.3187
G01 X-6.3736 Y-111.2505
G01 X-6.4152 Y-111.1727
G01 X-6.4408 Y-111.0883
G01 X-6.4495 Y-111.0005
G01 X-6.4408 Y-110.9127
G01 X-6.4152 Y-110.8283
G01 X-6.3736 Y-110.7505
G01 X-6.3177 Y-110.6823
G01 X-6.2495 Y-110.6264
G01 X-6.1717 Y-110.5848
G01 X-6.0873 Y-110.5592
G01 X-5.9995 Y-110.5505
G01 X-5.9117 Y-110.5592
G01 X-5.8273 Y-110.5848
G01 X-5.7495 Y-110.6264
G01 X-5.6813 Y-110.6823
G01 X-5.6253 Y-110.7505
G01 X-5.5837 Y-110.8283
G01 X-5.5581 Y-110.9127
G01 X-5.5495 Y-111.0005
G00 X-5.5495 Y-111.0005
G01 F90.00
G01 Z-1.0000
G01 F120.00
G01 X-5.5581 Y-110.9127
G01 X-5.5837 Y-110.8283
G01 X-5.6253 Y-110.7505
G01 X-5.6813 Y-110.6823
G01 X-5.7495 Y-110.6264
G01 X-5.8273 Y-110.5848
G01 X-5.9117 Y-110.5592
G01 X-5.9995 Y-110.5505
G01 X-6.0873 Y-110.5592
G01 X-6.1717 Y-110.5848
G01 X-6.2495 Y-110.6264
G01 X-6.3177 Y-110.6823
G01 X-6.3736 Y-110.7505
G01 X-6.4152 Y-110.8283
G01 X-6.4408 Y-110.9127
G01 X-6.4495 Y-111.0005
G01 X-6.4408 Y-111.0883
G01 X-6.4152 Y-111.1727
G01 X-6.3736 Y-111.2505
G01 X-6.3177 Y-111.3187
G01 X-6.2495 Y-111.3747
G01 X-6.1717 Y-111.4163
G01 X-6.0873 Y-111.4419
G01 X-5.9995 Y-111.4505
G01 X-5.9117 Y-111.4419
G01 X-5.8273 Y-111.4163
G01 X-5.7495 Y-111.3747
G01 X-5.6813 Y-111.3187
G01 X-5.6253 Y-111.2505
G01 X-5.5837 Y-111.1727
G01 X-5.5581 Y-111.0883
G01 X-5.5495 Y-111.0005
G00 X-5.5495 Y-111.0005
G01 F90.00
G01 Z-1.5000
G01 F120.00
G01 X-5.5581 Y-111.0883
G01 X-5.5837 Y-111.1727
G01 X-5.6253 Y-111.2505
G01 X-5.6813 Y-111.3187
G01 X-5.7495 Y-111.3747
G01 X-5.8273 Y-111.4163
G01 X-5.9117 Y-111.4419
G01 X-5.9995 Y-111.4505
G01 X-6.0873 Y-111.4419
G01 X-6.1717 Y-111.4163
G01 X-6.2495 Y-111.3747
G01 X-6.3177 Y-111.3187
G01 X-6.3736 Y-111.2505
G01 X-6.4152 Y-111.1727
G01 X-6.4408 Y-111.0883
G01 X-6.4495 Y-111.0005
G01 X-6.4408 Y-110.9127
G01 X-6.4152 Y-110.8283
G01 X-6.3736 Y-110.7505
G01 X-6.3177 Y-110.6823
G01 X-6.2495 Y-110.6264
G01 X-6.1717 Y-110.5848
G01 X-6.0873 Y-110.5592
G01 X-5.9995 Y-110.5505
G01 X-5.9117 Y-110.5592
G01 X-5.8273 Y-110.5848
G01 X-5.7495 Y-110.6264
G01 X-5.6813 Y-110.6823
G01 X-5.6253 Y-110.7505
G01 X-5.5837 Y-110.8283
G01 X-5.5581 Y-110.9127
G01 X-5.5495 Y-111.0005
G00 X-5.5495 Y-111.0005
G01 F90.00
G01 Z-2.0000
G01 F120.00
G01 X-5.5581 Y-110.9127
G01 X-5.5837 Y-110.8283
G01 X-5.6253 Y-110.7505
G01 X-5.6813 Y-110.6823
G01 X-5.7495 Y-110.6264
G01 X-5.8273 Y-110.5848
G01 X-5.9117 Y-110.5592
G01 X-5.9995 Y-110.5505
G01 X-6.0873 Y-110.5592
G01 X-6.1717 Y-110.5848
G01 X-6.2495 Y-110.6264
G01 X-6.3177 Y-110.6823
G01 X-6.3736 Y-110.7505
G01 X-6.4152 Y-110.8283
G01 X-6.4408 Y-110.9127
G01 X-6.4495 Y-111.0005
G01 X-6.4408 Y-111.0883
G01 X-6.4152 Y-111.1727
G01 X-6.3736 Y-111.2505
G01 X-6.3177 Y-111.3187
G01 X-6.2495 Y-111.3747
G01 X-6.1717 Y-111.4163
G01 X-6.0873 Y-111.4419
G01 X-5.9995 Y-111.4505
G01 X-5.9117 Y-111.4419
G01 X-5.8273 Y-111.4163
G01 X-5.7495 Y-111.3747
G01 X-5.6813 Y-111.3187
G01 X-5.6253 Y-111.2505
G01 X-5.5837 Y-111.1727
G01 X-5.5581 Y-111.0883
G01 X-5.5495 Y-111.0005
G00 Z2.0000
G00 X-4.6495 Y-111.0005
G01 F90.00
G01 Z-0.5000
G01 F120.00
G01 X-4.6560 Y-111.1329
G01 X-4.6754 Y-111.2639
G01 X-4.7076 Y-111.3924
G01 X-4.7522 Y-111.5172
G01 X-4.8089 Y-111.6369
G01 X-4.8770 Y-111.7506
G01 X-4.9559 Y-111.8570
G01 X-5.0449 Y-111.9551
G01 X-5.1430 Y-112.0441
G01 X-5.2495 Y-112.1230
G01 X-5.3631 Y-112.1911
G01 X-5.4829 Y-112.2478
G01 X-5.6076 Y-112.2924
G01 X-5.7361 Y-112.3246
G01 X-5.8672 Y-112.3440
G01 X-5.9995 Y-112.3505
G01 X-6.1318 Y-112.3440
G01 X-6.2629 Y-112.3246
G01 X-6.3914 Y-112.2924
G01 X-6.5161 Y-112.2478
G01 X-6.6359 Y-112.1911
G01 X-6.7495 Y-112.1230
G01 X-6.8559 Y-112.0441
G01 X-6.9541 Y-111.9551
G01 X-7.0430 Y-111.8570
G01 X-7.1220 Y-111.7506
G01 X-7.1901 Y-111.6369
G01 X-7.2467 Y-111.5172
G01 X-7.2913 Y-111.3924
G01 X-7.3235 Y-111.2639
G01 X-7.3430 Y-111.1329
G01 X-7.3495 Y-111.0005
G01 X-7.3430 Y-110.8682
G01 X-7.3235 Y-110.7372
G01 X-7.2913 Y-110.6087
G01 X-7.2467 Y-110.4839
G01 X-7.1901 Y-110.3642
G01 X-7.1220 Y-110.2505
G01 X-7.0430 Y-110.1441
G01 X-6.9541 Y-110.0459
G01 X-6.8559 Y-109.9570
G01 X-6.7495 Y-109.8781
G01 X-6.6359 Y-109.8099
G01 X-6.5161 Y-109.7533
G01 X-6.3914 Y-109.7087
G01 X-6.2629 Y-109.6765
G01 X-6.1318 Y-109.6570
G01 X-5.9995 Y-109.6505
G01 X-5.8672 Y-109.6570
G01 X-5.7361 Y-109.6765
G01 X-5.6076 Y-109.7087
G01 X-5.4829 Y-109.7533
G01 X-5.3631 Y-109.8099
G01 X-5.2495 Y-109.8781
G01 X-5.1430 Y-109.9570
G01 X-5.0449 Y-110.0459
G01 X-4.9559 Y-110.1441
G01 X-4.8770 Y-110.2505
G01 X-4.8089 Y-110.3642
G01 X-4.7522 Y-110.4839
G01 X-4.7076 Y-110.6087
G01 X-4.6754 Y-110.7372
G01 X-4.6560 Y-110.8682
G01 X-4.6495 Y-111.0005
G00 X-4.6495 Y-111.0005
G01 F90.00
G01 Z-1.0000
G01 F120.00
G01 X-4.6560 Y-110.8682
G01 X-4.6754 Y-110.7372
G01 X-4.7076 Y-110.6087
G01 X-4.7522 Y-110.4839
G01 X-4.8089 Y-110.3642
G01 X-4.8770 Y-110.2505
G01 X-4.9559 Y-110.1441
G01 X-5.0449 Y-110.0459
G01 X-5.1430 Y-109.9570
G01 X-5.2495 Y-109.8781
G01 X-5.3631 Y-109.8099
G01 X-5.4829 Y-109.7533
G01 X-5.6076 Y-109.7087
G01 X-5.7361 Y-109.6765
G01 X-5.8672 Y-109.6570
G01 X-5.9995 Y-109.6505
G01 X-6.1318 Y-109.6570
G01 X-6.2629 Y-109.6765
G01 X-6.3914 Y-109.7087
G01 X-6.5161 Y-109.7533
G01 X-6.6359 Y-109.8099
G01 X-6.7495 Y-109.8781
G01 X-6.8559 Y-109.9570
G01 X-6.9541 Y-110.0459
G01 X-7.0430 Y-110.1441
G01 X-7.1220 Y-110.2505
G01 X-7.1901 Y-110.3642
G01 X-7.2467 Y-110.4839
G01 X-7.2913 Y-110.6087
G01 X-7.3235 Y-110.7372
G01 X-7.3430 Y-110.8682
G01 X-7.3495 Y-111.0005
G01 X-7.3430 Y-111.1329
G01 X-7.3235 Y-111.2639
G01 X-7.2913 Y-111.3924
G01 X-7.2467 Y-111.5172
G01 X-7.1901 Y-111.6369
G01 X-7.1220 Y-111.7506
G01 X-7.0430 Y-111.8570
G01 X-6.9541 Y-111.9551
G01 X-6.8559 Y-112.0441
G01 X-6.7495 Y-112.1230
G01 X-6.6359 Y-112.1911
G01 X-6.5161 Y-112.2478
G01 X-6.3914 Y-112.2924
G01 X-6.2629 Y-112.3246
G01 X-6.1318 Y-112.3440
G01 X-5.9995 Y-112.3505
G01 X-5.8672 Y-112.3440
G01 X-5.7361 Y-112.3246
G01 X-5.6076 Y-112.2924
G01 X-5.4829 Y-112.2478
G01 X-5.3631 Y-112.1911
G01 X-5.2495 Y-112.1230
G01 X-5.1430 Y-112.0441
G01 X-5.0449 Y-111.9551
G01 X-4.9559 Y-111.8570
G01 X-4.8770 Y-111.7506
G01 X-4.8089 Y-111.6369
G01 X-4.7522 Y-111.5172
G01 X-4.7076 Y-111.3924
G01 X-4.6754 Y-111.2639
G01 X-4.6560 Y-111.1329
G01 X-4.6495 Y-111.0005
G00 X-4.6495 Y-111.0005
G01 F90.00
G01 Z-1.5000
G01 F120.00
G01 X-4.6560 Y-111.1329
G01 X-4.6754 Y-111.2639
G01 X-4.7076 Y-111.3924
G01 X-4.7522 Y-111.5172
G01 X-4.8089 Y-111.6369
G01 X-4.8770 Y-111.7506
G01 X-4.9559 Y-111.8570
G01 X-5.0449 Y-111.9551
G01 X-5.1430 Y-112.0441
G01 X-5.2495 Y-112.1230
G01 X-5.3631 Y-112.1911
G01 X-5.4829 Y-112.2478
G01 X-5.6076 Y-112.2924
G01 X-5.7361 Y-112.3246
G01 X-5.8672 Y-112.3440
G01 X-5.9995 Y-112.3505
G01 X-6.1318 Y-112.3440
G01 X-6.2629 Y-112.3246
G01 X-6.3914 Y-112.2924
G01 X-6.5161 Y-112.2478
G01 X-6.6359 Y-112.1911
G01 X-6.7495 Y-112.1230
G01 X-6.8559 Y-112.0441
G01 X-6.9541 Y-111.9551
G01 X-7.0430 Y-111.8570
G01 X-7.1220 Y-111.7506
G01 X-7.1901 Y-111.6369
G01 X-7.2467 Y-111.5172
G01 X-7.2913 Y-111.3924
G01 X-7.3235 Y-111.2639
G01 X-7.3430 Y-111.1329
G01 X-7.3495 Y-111.0005
G01 X-7.3430 Y-110.8682
G01 X-7.3235 Y-110.7372
G01 X-7.2913 Y-110.6087
G01 X-7.2467 Y-110.4839
G01 X-7.1901 Y-110.3642
G01 X-7.1220 Y-110.2505
G01 X-7.0430 Y-110.1441
G01 X-6.9541 Y-110.0459
G01 X-6.8559 Y-109.9570
G01 X-6.7495 Y-109.8781
G01 X-6.6359 Y-109.8099
G01 X-6.5161 Y-109.7533
G01 X-6.3914 Y-109.7087
G01 X-6.2629 Y-109.6765
G01 X-6.1318 Y-109.6570
G01 X-5.9995 Y-109.6505
G01 X-5.8672 Y-109.6570
G01 X-5.7361 Y-109.6765
G01 X-5.6076 Y-109.7087
G01 X-5.4829 Y-109.7533
G01 X-5.3631 Y-109.8099
G01 X-5.2495 Y-109.8781
G01 X-5.1430 Y-109.9570
G01 X-5.0449 Y-110.0459
G01 X-4.9559 Y-110.1441
G01 X-4.8770 Y-110.2505
G01 X-4.8089 Y-110.3642
G01 X-4.7522 Y-110.4839
G01 X-4.7076 Y-110.6087
G01 X-4.6754 Y-110.7372
G01 X-4.6560 Y-110.8682
G01 X-4.6495 Y-111.0005
G00 X-4.6495 Y-111.0005
G01 F90.00
G01 Z-2.0000
G01 F120.00
G01 X-4.6560 Y-110.8682
G01 X-4.6754 Y-110.7372
G01 X-4.7076 Y-110.6087
G01 X-4.7522 Y-110.4839
G01 X-4.8089 Y-110.3642
G01 X-4.8770 Y-110.2505
G01 X-4.9559 Y-110.1441
G01 X-5.0449 Y-110.0459
G01 X-5.1430 Y-109.9570
G01 X-5.2495 Y-109.8781
G01 X-5.3631 Y-109.8099
G01 X-5.4829 Y-109.7533
G01 X-5.6076 Y-109.7087
G01 X-5.7361 Y-109.6765
G01 X-5.8672 Y-109.6570
G01 X-5.9995 Y-109.6505
G01 X-6.1318 Y-109.6570
G01 X-6.2629 Y-109.6765
G01 X-6.3914 Y-109.7087
G01 X-6.5161 Y-109.7533
G01 X-6.6359 Y-109.8099
G01 X-6.7495 Y-109.8781
G01 X-6.8559 Y-109.9570
G01 X-6.9541 Y-110.0459
G01 X-7.0430 Y-110.1441
G01 X-7.1220 Y-110.2505
G01 X-7.1901 Y-110.3642
G01 X-7.2467 Y-110.4839
G01 X-7.2913 Y-110.6087
G01 X-7.3235 Y-110.7372
G01 X-7.3430 Y-110.8682
G01 X-7.3495 Y-111.0005
G01 X-7.3430 Y-111.1329
G01 X-7.3235 Y-111.2639
G01 X-7.2913 Y-111.3924
G01 X-7.2467 Y-111.5172
G01 X-7.1901 Y-111.6369
G01 X-7.1220 Y-111.7506
G01 X-7.0430 Y-111.8570
G01 X-6.9541 Y-111.9551
G01 X-6.8559 Y-112.0441
G01 X-6.7495 Y-112.1230
G01 X-6.6359 Y-112.1911
G01 X-6.5161 Y-112.2478
G01 X-6.3914 Y-112.2924
G01 X-6.2629 Y-112.3246
G01 X-6.1318 Y-112.3440
G01 X-5.9995 Y-112.3505
G01 X-5.8672 Y-112.3440
G01 X-5.7361 Y-112.3246
G01 X-5.6076 Y-112.2924
G01 X-5.4829 Y-112.2478
G01 X-5.3631 Y-112.1911
G01 X-5.2495 Y-112.1230
G01 X-5.1430 Y-112.0441
G01 X-5.0449 Y-111.9551
G01 X-4.9559 Y-111.8570
G01 X-4.8770 Y-111.7506
G01 X-4.8089 Y-111.6369
G01 X-4.7522 Y-111.5172
G01 X-4.7076 Y-111.3924
G01 X-4.6754 Y-111.2639
G01 X-4.6560 Y-111.1329
G01 X-4.6495 Y-111.0005
G00 Z2.0000
G00 X-4.4998 Y-111.0005
G01 F90.00
G01 Z-0.5000
G01 F120.00
G01 X-4.5071 Y-111.1475
G01 X-4.5286 Y-111.2931
G01 X-4.5644 Y-111.4359
G01 X-4.6140 Y-111.5744
G01 X-4.6769 Y-111.7075
G01 X-4.7526 Y-111.8337
G01 X-4.8402 Y-111.9519
G01 X-4.9391 Y-112.0610
G01 X-5.0481 Y-112.1598
G01 X-5.1663 Y-112.2475
G01 X-5.2926 Y-112.3231
G01 X-5.4256 Y-112.3860
G01 X-5.5642 Y-112.4356
G01 X-5.7069 Y-112.4714
G01 X-5.8525 Y-112.4930
G01 X-5.9995 Y-112.5002
G01 X-6.1465 Y-112.4930
G01 X-6.2920 Y-112.4714
G01 X-6.4348 Y-112.4356
G01 X-6.5734 Y-112.3860
G01 X-6.7064 Y-112.3231
G01 X-6.8326 Y-112.2475
G01 X-6.9508 Y-112.1598
G01 X-7.0599 Y-112.0610
G01 X-7.1587 Y-111.9519
G01 X-7.2464 Y-111.8337
G01 X-7.3221 Y-111.7075
G01 X-7.3850 Y-111.5744
G01 X-7.4346 Y-111.4359
G01 X-7.4703 Y-111.2931
G01 X-7.4919 Y-111.1475
G01 X-7.4991 Y-111.0005
G01 X-7.4919 Y-110.8535
G01 X-7.4703 Y-110.7080
G01 X-7.4346 Y-110.5652
G01 X-7.3850 Y-110.4266
G01 X-7.3221 Y-110.2936
G01 X-7.2464 Y-110.1674
G01 X-7.1587 Y-110.0492
G01 X-7.0599 Y-109.9401
G01 X-6.9508 Y-109.8413
G01 X-6.8326 Y-109.7536
G01 X-6.7064 Y-109.6780
G01 X-6.5734 Y-109.6150
G01 X-6.4348 Y-109.5655
G01 X-6.2920 Y-109.5297
G01 X-6.1465 Y-109.5081
G01 X-5.9995 Y-109.5009
G01 X-5.8525 Y-109.5081
G01 X-5.7069 Y-109.5297
G01 X-5.5642 Y-109.5655
G01 X-5.4256 Y-109.6150
G01 X-5.2926 Y-109.6780
G01 X-5.1663 Y-109.7536
G01 X-5.0481 Y-109.8413
G01 X-4.9391 Y-109.9401
G01 X-4.8402 Y-110.0492
G01 X-4.7526 Y-110.1674
G01 X-4.6769 Y-110.2936
G01 X-4.6140 Y-110.4266
G01 X-4.5644 Y-110.5652
G01 X-4.5286 Y-110.7080
G01 X-4.5071 Y-110.8535
G01 X-4.4998 Y-111.0005
G00 X-4.4998 Y-111.0005
G01 F90.00
G01 Z-1.0000
G01 F120.00
G01 X-4.5071 Y-111.1475
G01 X-4.5286 Y-111.2931
G01 X-4.5644 Y-111.4359
G01 X-4.6140 Y-111.5744
G01 X-4.6769 Y-111.7075
G01 X-4.7526 Y-111.8337
G01 X-4.8402 Y-111.9519
G01 X-4.9391 Y-112.0610
G01 X-5.0481 Y-112.1598
G01 X-5.1663 Y-112.2475
G01 X-5.2926 Y-112.3231
G01 X-5.4256 Y-112.3860
G01 X-5.5642 Y-112.4356
G01 X-5.7069 Y-112.4714
G01 X-5.8525 Y-112.4930
G01 X-5.9995 Y-112.5002
G01 X-6.1465 Y-112.4930
G01 X-6.2920 Y-112.4714
G01 X-6.4348 Y-112.4356
G01 X-6.5734 Y-112.3860
G01 X-6.7064 Y-112.3231
G01 X-6.8326 Y-112.2475
G01 X-6.9508 Y-112.1598
G01 X-7.0599 Y-112.0610
G01 X-7.1587 Y-111.9519
G01 X-7.2464 Y-111.8337
G01 X-7.3221 Y-111.7075
G01 X-7.3850 Y-111.5744
G01 X-7.4346 Y-111.4359
G01 X-7.4703 Y-111.2931
G01 X-7.4919 Y-111.1475
G01 X-7.4991 Y-111.0005
G01 X-7.4919 Y-110.8535
G01 X-7.4703 Y-110.7080
G01 X-7.4346 Y-110.5652
G01 X-7.3850 Y-110.4266
G01 X-7.3221 Y-110.2936
G01 X-7.2464 Y-110.1674
G01 X-7.1587 Y-110.0492
G01 X-7.0599 Y-109.9401
G01 X-6.9508 Y-109.8413
G01 X-6.8326 Y-109.7536
G01 X-6.7064 Y-109.6780
G01 X-6.5734 Y-109.6150
G01 X-6.4348 Y-109.5655
G01 X-6.2920 Y-109.5297
G01 X-6.1465 Y-109.5081
G01 X-5.9995 Y-109.5009
G01 X-5.8525 Y-109.5081
G01 X-5.7069 Y-109.5297
G01 X-5.5642 Y-109.5655
G01 X-5.4256 Y-109.6150
G01 X-5.2926 Y-109.6780
G01 X-5.1663 Y-109.7536
G01 X-5.0481 Y-109.8413
G01 X-4.9391 Y-109.9401
G01 X-4.8402 Y-110.0492
G01 X-4.7526 Y-110.1674
G01 X-4.6769 Y-110.2936
G01 X-4.6140 Y-110.4266
G01 X-4.5644 Y-110.5652
G01 X-4.5286 Y-110.7080
G01 X-4.5071 Y-110.8535
G01 X-4.4998 Y-111.0005
G00 X-4.4998 Y-111.0005
G01 F90.00
G01 Z-1.5000
G01 F120.00
G01 X-4.5071 Y-111.1475
G01 X-4.5286 Y-111.2931
G01 X-4.5644 Y-111.4359
G01 X-4.6140 Y-111.5744
G01 X-4.6769 Y-111.7075
G01 X-4.7526 Y-111.8337
G01 X-4.8402 Y-111.9519
G01 X-4.9391 Y-112.0610
G01 X-5.0481 Y-112.1598
G01 X-5.1663 Y-112.2475
G01 X-5.2926 Y-112.3231
G01 X-5.4256 Y-112.3860
G01 X-5.5642 Y-112.4356
G01 X-5.7069 Y-112.4714
G01 X-5.8525 Y-112.4930
G01 X-5.9995 Y-112.5002
G01 X-6.1465 Y-112.4930
G01 X-6.2920 Y-112.4714
G01 X-6.4348 Y-112.4356
G01 X-6.5734 Y-112.3860
G01 X-6.7064 Y-112.3231
G01 X-6.8326 Y-112.2475
G01 X-6.9508 Y-112.1598
G01 X-7.0599 Y-112.0610
G01 X-7.1587 Y-111.9519
G01 X-7.2464 Y-111.8337
G01 X-7.3221 Y-111.7075
G01 X-7.3850 Y-111.5744
G01 X-7.4346 Y-111.4359
G01 X-7.4703 Y-111.2931
G01 X-7.4919 Y-111.1475
G01 X-7.4991 Y-111.0005
G01 X-7.4919 Y-110.8535
G01 X-7.4703 Y-110.7080
G01 X-7.4346 Y-110.5652
G01 X-7.3850 Y-110.4266
G01 X-7.3221 Y-110.2936
G01 X-7.2464 Y-110.1674
G01 X-7.1587 Y-110.0492
G01 X-7.0599 Y-109.9401
G01 X-6.9508 Y-109.8413
G01 X-6.8326 Y-109.7536
G01 X-6.7064 Y-109.6780
G01 X-6.5734 Y-109.6150
G01 X-6.4348 Y-109.5655
G01 X-6.2920 Y-109.5297
G01 X-6.1465 Y-109.5081
G01 X-5.9995 Y-109.5009
G01 X-5.8525 Y-109.5081
G01 X-5.7069 Y-109.5297
G01 X-5.5642 Y-109.5655
G01 X-5.4256 Y-109.6150
G01 X-5.2926 Y-109.6780
G01 X-5.1663 Y-109.7536
G01 X-5.0481 Y-109.8413
G01 X-4.9391 Y-109.9401
G01 X-4.8402 Y-110.0492
G01 X-4.7526 Y-110.1674
G01 X-4.6769 Y-110.2936
G01 X-4.6140 Y-110.4266
G01 X-4.5644 Y-110.5652
G01 X-4.5286 Y-110.7080
G01 X-4.5071 Y-110.8535
G01 X-4.4998 Y-111.0005
G00 X-4.4998 Y-111.0005
G01 F90.00
G01 Z-2.0000
G01 F120.00
G01 X-4.5071 Y-111.1475
G01 X-4.5286 Y-111.2931
G01 X-4.5644 Y-111.4359
G01 X-4.6140 Y-111.5744
G01 X-4.6769 Y-111.7075
G01 X-4.7526 Y-111.8337
G01 X-4.8402 Y-111.9519
G01 X-4.9391 Y-112.0610
G01 X-5.0481 Y-112.1598
G01 X-5.1663 Y-112.2475
G01 X-5.2926 Y-112.3231
G01 X-5.4256 Y-112.3860
G01 X-5.5642 Y-112.4356
G01 X-5.7069 Y-112.4714
G01 X-5.8525 Y-112.4930
G01 X-5.9995 Y-112.5002
G01 X-6.1465 Y-112.4930
G01 X-6.2920 Y-112.4714
G01 X-6.4348 Y-112.4356
G01 X-6.5734 Y-112.3860
G01 X-6.7064 Y-112.3231
G01 X-6.8326 Y-112.2475
G01 X-6.9508 Y-112.1598
G01 X-7.0599 Y-112.0610
G01 X-7.1587 Y-111.9519
G01 X-7.2464 Y-111.8337
G01 X-7.3221 Y-111.7075
G01 X-7.3850 Y-111.5744
G01 X-7.4346 Y-111.4359
G01 X-7.4703 Y-111.2931
G01 X-7.4919 Y-111.1475
G01 X-7.4991 Y-111.0005
G01 X-7.4919 Y-110.8535
G01 X-7.4703 Y-110.7080
G01 X-7.4346 Y-110.5652
G01 X-7.3850 Y-110.4266
G01 X-7.3221 Y-110.2936
G01 X-7.2464 Y-110.1674
G01 X-7.1587 Y-110.0492
G01 X-7.0599 Y-109.9401
G01 X-6.9508 Y-109.8413
G01 X-6.8326 Y-109.7536
G01 X-6.7064 Y-109.6780
G01 X-6.5734 Y-109.6150
G01 X-6.4348 Y-109.5655
G01 X-6.2920 Y-109.5297
G01 X-6.1465 Y-109.5081
G01 X-5.9995 Y-109.5009
G01 X-5.8525 Y-109.5081
G01 X-5.7069 Y-109.5297
G01 X-5.5642 Y-109.5655
G01 X-5.4256 Y-109.6150
G01 X-5.2926 Y-109.6780
G01 X-5.1663 Y-109.7536
G01 X-5.0481 Y-109.8413
G01 X-4.9391 Y-109.9401
G01 X-4.8402 Y-110.0492
G01 X-4.7526 Y-110.1674
G01 X-4.6769 Y-110.2936
G01 X-4.6140 Y-110.4266
G01 X-4.5644 Y-110.5652
G01 X-4.5286 Y-110.7080
G01 X-4.5071 Y-110.8535
G01 X-4.4998 Y-111.0005
G00 Z2.0000
G00 X-174.4995 Y-111.0005
G01 F90.00
G01 Z-0.5000
G01 F120.00
G01 X-174.5067 Y-111.1475
G01 X-174.5283 Y-111.2931
G01 X-174.5641 Y-111.4359
G01 X-174.6136 Y-111.5744
G01 X-174.6766 Y-111.7075
G01 X-174.7522 Y-111.8337
G01 X-174.8399 Y-111.9519
G01 X-174.9387 Y-112.0610
G01 X-175.0478 Y-112.1598
G01 X-175.1660 Y-112.2475
G01 X-175.2922 Y-112.3231
G01 X-175.4252 Y-112.3860
G01 X-175.5638 Y-112.4356
G01 X-175.7066 Y-112.4714
G01 X-175.8521 Y-112.4930
G01 X-175.9991 Y-112.5002
G01 X-176.1461 Y-112.4930
G01 X-176.2917 Y-112.4714
G01 X-176.4345 Y-112.4356
G01 X-176.5730 Y-112.3860
G01 X-176.7061 Y-112.3231
G01 X-176.8323 Y-112.2475
G01 X-176.9505 Y-112.1598
G01 X-177.0596 Y-112.0610
G01 X-177.1584 Y-111.9519
G01 X-177.2461 Y-111.8337
G01 X-177.3217 Y-111.7075
G01 X-177.3846 Y-111.5744
G01 X-177.4342 Y-111.4359
G01 X-177.4700 Y-111.2931
G01 X-177.4916 Y-111.1475
G01 X-177.4988 Y-111.0005
G01 X-177.4916 Y-110.8535
G01 X-177.4700 Y-110.7080
G01 X-177.4342 Y-110.5652
G01 X-177.3846 Y-110.4266
G01 X-177.3217 Y-110.2936
G01 X-177.2461 Y-110.1674
G01 X-177.1584 Y-110.0492
G01 X-177.0596 Y-109.9401
G01 X-176.9505 Y-109.8413
G01 X-176.8323 Y-109.7536
G01 X-176.7061 Y-109.6780
G01 X-176.5730 Y-109.6150
G01 X-176.4345 Y-109.5655
G01 X-176.2917 Y-109.5297
G01 X-176.1461 Y-109.5081
G01 X-175.9991 Y-109.5009
G01 X-175.8521 Y-109.5081
G01 X-175.7066 Y-109.5297
G01 X-175.5638 Y-109.5655
G01 X-175.4252 Y-109.6150
G01 X-175.2922 Y-109.6780
G01 X-175.1660 Y-109.7536
G01 X-175.0478 Y-109.8413
G01 X-174.9387 Y-109.9401
G01 X-174.8399 Y-110.0492
G01 X-174.7522 Y-110.1674
G01 X-174.6766 Y-110.2936
G01 X-174.6136 Y-110.4266
G01 X-174.5641 Y-110.5652
G01 X-174.5283 Y-110.7080
G01 X-174.5067 Y-110.8535
G01 X-174.4995 Y-111.0005
G00 X-174.4995 Y-111.0005
G01 F90.00
G01 Z-1.0000
G01 F120.00
G01 X-174.5067 Y-111.1475
G01 X-174.5283 Y-111.2931
G01 X-174.5641 Y-111.4359
G01 X-174.6136 Y-111.5744
G01 X-174.6766 Y-111.7075
G01 X-174.7522 Y-111.8337
G01 X-174.8399 Y-111.9519
G01 X-174.9387 Y-112.0610
G01 X-175.0478 Y-112.1598
G01 X-175.1660 Y-112.2475
G01 X-175.2922 Y-112.3231
G01 X-175.4252 Y-112.3860
G01 X-175.5638 Y-112.4356
G01 X-175.7066 Y-112.4714
G01 X-175.8521 Y-112.4930
G01 X-175.9991 Y-112.5002
G01 X-176.1461 Y-112.4930
G01 X-176.2917 Y-112.4714
G01 X-176.4345 Y-112.4356
G01 X-176.5730 Y-112.3860
G01 X-176.7061 Y-112.3231
G01 X-176.8323 Y-112.2475
G01 X-176.9505 Y-112.1598
G01 X-177.0596 Y-112.0610
G01 X-177.1584 Y-111.9519
G01 X-177.2461 Y-111.8337
G01 X-177.3217 Y-111.7075
G01 X-177.3846 Y-111.5744
G01 X-177.4342 Y-111.4359
G01 X-177.4700 Y-111.2931
G01 X-177.4916 Y-111.1475
G01 X-177.4988 Y-111.0005
G01 X-177.4916 Y-110.8535
G01 X-177.4700 Y-110.7080
G01 X-177.4342 Y-110.5652
G01 X-177.3846 Y-110.4266
G01 X-177.3217 Y-110.2936
G01 X-177.2461 Y-110.1674
G01 X-177.1584 Y-110.0492
G01 X-177.0596 Y-109.9401
G01 X-176.9505 Y-109.8413
G01 X-176.8323 Y-109.7536
G01 X-176.7061 Y-109.6780
G01 X-176.5730 Y-109.6150
G01 X-176.4345 Y-109.5655
G01 X-176.2917 Y-109.5297
G01 X-176.1461 Y-109.5081
G01 X-175.9991 Y-109.5009
G01 X-175.8521 Y-109.5081
G01 X-175.7066 Y-109.5297
G01 X-175.5638 Y-109.5655
G01 X-175.4252 Y-109.6150
G01 X-175.2922 Y-109.6780
G01 X-175.1660 Y-109.7536
G01 X-175.0478 Y-109.8413
G01 X-174.9387 Y-109.9401
G01 X-174.8399 Y-110.0492
G01 X-174.7522 Y-110.1674
G01 X-174.6766 Y-110.2936
G01 X-174.6136 Y-110.4266
G01 X-174.5641 Y-110.5652
G01 X-174.5283 Y-110.7080
G01 X-174.5067 Y-110.8535
G01 X-174.4995 Y-111.0005
G00 X-174.4995 Y-111.0005
G01 F90.00
G01 Z-1.5000
G01 F120.00
G01 X-174.5067 Y-111.1475
G01 X-174.5283 Y-111.2931
G01 X-174.5641 Y-111.4359
G01 X-174.6136 Y-111.5744
G01 X-174.6766 Y-111.7075
G01 X-174.7522 Y-111.8337
G01 X-174.8399 Y-111.9519
G01 X-174.9387 Y-112.0610
G01 X-175.0478 Y-112.1598
G01 X-175.1660 Y-112.2475
G01 X-175.2922 Y-112.3231
G01 X-175.4252 Y-112.3860
G01 X-175.5638 Y-112.4356
G01 X-175.7066 Y-112.4714
G01 X-175.8521 Y-112.4930
G01 X-175.9991 Y-112.5002
G01 X-176.1461 Y-112.4930
G01 X-176.2917 Y-112.4714
G01 X-176.4345 Y-112.4356
G01 X-176.5730 Y-112.3860
G01 X-176.7061 Y-112.3231
G01 X-176.8323 Y-112.2475
G01 X-176.9505 Y-112.1598
G01 X-177.0596 Y-112.0610
G01 X-177.1584 Y-111.9519
G01 X-177.2461 Y-111.8337
G01 X-177.3217 Y-111.7075
G01 X-177.3846 Y-111.5744
G01 X-177.4342 Y-111.4359
G01 X-177.4700 Y-111.2931
G01 X-177.4916 Y-111.1475
G01 X-177.4988 Y-111.0005
G01 X-177.4916 Y-110.8535
G01 X-177.4700 Y-110.7080
G01 X-177.4342 Y-110.5652
G01 X-177.3846 Y-110.4266
G01 X-177.3217 Y-110.2936
G01 X-177.2461 Y-110.1674
G01 X-177.1584 Y-110.0492
G01 X-177.0596 Y-109.9401
G01 X-176.9505 Y-109.8413
G01 X-176.8323 Y-109.7536
G01 X-176.7061 Y-109.6780
G01 X-176.5730 Y-109.6150
G01 X-176.4345 Y-109.5655
G01 X-176.2917 Y-109.5297
G01 X-176.1461 Y-109.5081
G01 X-175.9991 Y-109.5009
G01 X-175.8521 Y-109.5081
G01 X-175.7066 Y-109.5297
G01 X-175.5638 Y-109.5655
G01 X-175.4252 Y-109.6150
G01 X-175.2922 Y-109.6780
G01 X-175.1660 Y-109.7536
G01 X-175.0478 Y-109.8413
G01 X-174.9387 Y-109.9401
G01 X-174.8399 Y-110.0492
G01 X-174.7522 Y-110.1674
G01 X-174.6766 Y-110.2936
G01 X-174.6136 Y-110.4266
G01 X-174.5641 Y-110.5652
G01 X-174.5283 Y-110.7080
G01 X-174.5067 Y-110.8535
G01 X-174.4995 Y-111.0005
G00 X-174.4995 Y-111.0005
G01 F90.00
G01 Z-2.0000
G01 F120.00
G01 X-174.5067 Y-111.1475
G01 X-174.5283 Y-111.2931
G01 X-174.5641 Y-111.4359
G01 X-174.6136 Y-111.5744
G01 X-174.6766 Y-111.7075
G01 X-174.7522 Y-111.8337
G01 X-174.8399 Y-111.9519
G01 X-174.9387 Y-112.0610
G01 X-175.0478 Y-112.1598
G01 X-175.1660 Y-112.2475
G01 X-175.2922 Y-112.3231
G01 X-175.4252 Y-112.3860
G01 X-175.5638 Y-112.4356
G01 X-175.7066 Y-112.4714
G01 X-175.8521 Y-112.4930
G01 X-175.9991 Y-112.5002
G01 X-176.1461 Y-112.4930
G01 X-176.2917 Y-112.4714
G01 X-176.4345 Y-112.4356
G01 X-176.5730 Y-112.3860
G01 X-176.7061 Y-112.3231
G01 X-176.8323 Y-112.2475
G01 X-176.9505 Y-112.1598
G01 X-177.0596 Y-112.0610
G01 X-177.1584 Y-111.9519
G01 X-177.2461 Y-111.8337
G01 X-177.3217 Y-111.7075
G01 X-177.3846 Y-111.5744
G01 X-177.4342 Y-111.4359
G01 X-177.4700 Y-111.2931
G01 X-177.4916 Y-111.1475
G01 X-177.4988 Y-111.0005
G01 X-177.4916 Y-110.8535
G01 X-177.4700 Y-110.7080
G01 X-177.4342 Y-110.5652
G01 X-177.3846 Y-110.4266
G01 X-177.3217 Y-110.2936
G01 X-177.2461 Y-110.1674
G01 X-177.1584 Y-110.0492
G01 X-177.0596 Y-109.9401
G01 X-176.9505 Y-109.8413
G01 X-176.8323 Y-109.7536
G01 X-176.7061 Y-109.6780
G01 X-176.5730 Y-109.6150
G01 X-176.4345 Y-109.5655
G01 X-176.2917 Y-109.5297
G01 X-176.1461 Y-109.5081
G01 X-175.9991 Y-109.5009
G01 X-175.8521 Y-109.5081
G01 X-175.7066 Y-109.5297
G01 X-175.5638 Y-109.5655
G01 X-175.4252 Y-109.6150
G01 X-175.2922 Y-109.6780
G01 X-175.1660 Y-109.7536
G01 X-175.0478 Y-109.8413
G01 X-174.9387 Y-109.9401
G01 X-174.8399 Y-110.0492
G01 X-174.7522 Y-110.1674
G01 X-174.6766 Y-110.2936
G01 X-174.6136 Y-110.4266
G01 X-174.5641 Y-110.5652
G01 X-174.5283 Y-110.7080
G01 X-174.5067 Y-110.8535
G01 X-174.4995 Y-111.0005
G00 Z2.0000
G00 X-174.6491 Y-111.0005
G01 F90.00
G01 Z-0.5000
G01 F120.00
G01 X-174.6556 Y-111.1329
G01 X-174.6751 Y-111.2639
G01 X-174.7073 Y-111.3924
G01 X-174.7519 Y-111.5172
G01 X-174.8085 Y-111.6369
G01 X-174.8767 Y-111.7506
G01 X-174.9556 Y-111.8570
G01 X-175.0445 Y-111.9551
G01 X-175.1427 Y-112.0441
G01 X-175.2491 Y-112.1230
G01 X-175.3628 Y-112.1911
G01 X-175.4825 Y-112.2478
G01 X-175.6073 Y-112.2924
G01 X-175.7358 Y-112.3246
G01 X-175.8668 Y-112.3440
G01 X-175.9991 Y-112.3505
G01 X-176.1315 Y-112.3440
G01 X-176.2625 Y-112.3246
G01 X-176.3910 Y-112.2924
G01 X-176.5158 Y-112.2478
G01 X-176.6355 Y-112.1911
G01 X-176.7492 Y-112.1230
G01 X-176.8556 Y-112.0441
G01 X-176.9537 Y-111.9551
G01 X-177.0427 Y-111.8570
G01 X-177.1216 Y-111.7506
G01 X-177.1897 Y-111.6369
G01 X-177.2464 Y-111.5172
G01 X-177.2910 Y-111.3924
G01 X-177.3232 Y-111.2639
G01 X-177.3426 Y-111.1329
G01 X-177.3491 Y-111.0005
G01 X-177.3426 Y-110.8682
G01 X-177.3232 Y-110.7372
G01 X-177.2910 Y-110.6087
G01 X-177.2464 Y-110.4839
G01 X-177.1897 Y-110.3642
G01 X-177.1216 Y-110.2505
G01 X-177.0427 Y-110.1441
G01 X-176.9537 Y-110.0459
G01 X-176.8556 Y-109.9570
G01 X-176.7492 Y-109.8781
G01 X-176.6355 Y-109.8099
G01 X-176.5158 Y-109.7533
G01 X-176.3910 Y-109.7087
G01 X-176.2625 Y-109.6765
G01 X-176.1315 Y-109.6570
G01 X-175.9991 Y-109.6505
G01 X-175.8668 Y-109.6570
G01 X-175.7358 Y-109.6765
G01 X-175.6073 Y-109.7087
G01 X-175.4825 Y-109.7533
G01 X-175.3628 Y-109.8099
G01 X-175.2491 Y-109.8781
G01 X-175.1427 Y-109.9570
G01 X-175.0445 Y-110.0459
G01 X-174.9556 Y-110.1441
G01 X-174.8767 Y-110.2505
G01 X-174.8085 Y-110.3642
G01 X-174.7519 Y-110.4839
G01 X-174.7073 Y-110.6087
G01 X-174.6751 Y-110.7372
G01 X-174.6556 Y-110.8682
G01 X-174.6491 Y-111.0005
G00 X-174.6491 Y-111.0005
G01 F90.00
G01 Z-1.0000
G01 F120.00
G01 X-174.6556 Y-110.8682
G01 X-174.6751 Y-110.7372
G01 X-174.7073 Y-110.6087
G01 X-174.7519 Y-110.4839
G01 X-174.8085 Y-110.3642
G01 X-174.8767 Y-110.2505
G01 X-174.9556 Y-110.1441
G01 X-175.0445 Y-110.0459
G01 X-175.1427 Y-109.9570
G01 X-175.2491 Y-109.8781
G01 X-175.3628 Y-109.8099
G01 X-175.4825 Y-109.7533
G01 X-175.6073 Y-109.7087
G01 X-175.7358 Y-109.6765
G01 X-175.8668 Y-109.6570
G01 X-175.9991 Y-109.6505
G01 X-176.1315 Y-109.6570
G01 X-176.2625 Y-109.6765
G01 X-176.3910 Y-109.7087
G01 X-176.5158 Y-109.7533
G01 X-176.6355 Y-109.8099
G01 X-176.7492 Y-109.8781
G01 X-176.8556 Y-109.9570
G01 X-176.9537 Y-110.0459
G01 X-177.0427 Y-110.1441
G01 X-177.1216 Y-110.2505
G01 X-177.1897 Y-110.3642
G01 X-177.2464 Y-110.4839
G01 X-177.2910 Y-110.6087
G01 X-177.3232 Y-110.7372
G01 X-177.3426 Y-110.8682
G01 X-177.3491 Y-111.0005
G01 X-177.3426 Y-111.1329
G01 X-177.3232 Y-111.2639
G01 X-177.2910 Y-111.3924
G01 X-177.2464 Y-111.5172
G01 X-177.1897 Y-111.6369
G01 X-177.1216 Y-111.7506
G01 X-177.0427 Y-111.8570
G01 X-176.9537 Y-111.9551
G01 X-176.8556 Y-112.0441
G01 X-176.7492 Y-112.1230
G01 X-176.6355 Y-112.1911
G01 X-176.5158 Y-112.2478
G01 X-176.3910 Y-112.2924
G01 X-176.2625 Y-112.3246
G01 X-176.1315 Y-112.3440
G01 X-175.9991 Y-112.3505
G01 X-175.8668 Y-112.3440
G01 X-175.7358 Y-112.3246
G01 X-175.6073 Y-112.2924
G01 X-175.4825 Y-112.2478
G01 X-175.3628 Y-112.1911
G01 X-175.2491 Y-112.1230
G01 X-175.1427 Y-112.0441
G01 X-175.0445 Y-111.9551
G01 X-174.9556 Y-111.8570
G01 X-174.8767 Y-111.7506
G01 X-174.8085 Y-111.6369
G01 X-174.7519 Y-111.5172
G01 X-174.7073 Y-111.3924
G01 X-174.6751 Y-111.2639
G01 X-174.6556 Y-111.1329
G01 X-174.6491 Y-111.0005
G00 X-174.6491 Y-111.0005
G01 F90.00
G01 Z-1.5000
G01 F120.00
G01 X-174.6556 Y-111.1329
G01 X-174.6751 Y-111.2639
G01 X-174.7073 Y-111.3924
G01 X-174.7519 Y-111.5172
G01 X-174.8085 Y-111.6369
G01 X-174.8767 Y-111.7506
G01 X-174.9556 Y-111.8570
G01 X-175.0445 Y-111.9551
G01 X-175.1427 Y-112.0441
G01 X-175.2491 Y-112.1230
G01 X-175.3628 Y-112.1911
G01 X-175.4825 Y-112.2478
G01 X-175.6073 Y-112.2924
G01 X-175.7358 Y-112.3246
G01 X-175.8668 Y-112.3440
G01 X-175.9991 Y-112.3505
G01 X-176.1315 Y-112.3440
G01 X-176.2625 Y-112.3246
G01 X-176.3910 Y-112.2924
G01 X-176.5158 Y-112.2478
G01 X-176.6355 Y-112.1911
G01 X-176.7492 Y-112.1230
G01 X-176.8556 Y-112.0441
G01 X-176.9537 Y-111.9551
G01 X-177.0427 Y-111.8570
G01 X-177.1216 Y-111.7506
G01 X-177.1897 Y-111.6369
G01 X-177.2464 Y-111.5172
G01 X-177.2910 Y-111.3924
G01 X-177.3232 Y-111.2639
G01 X-177.3426 Y-111.1329
G01 X-177.3491 Y-111.0005
G01 X-177.3426 Y-110.8682
G01 X-177.3232 Y-110.7372
G01 X-177.2910 Y-110.6087
G01 X-177.2464 Y-110.4839
G01 X-177.1897 Y-110.3642
G01 X-177.1216 Y-110.2505
G01 X-177.0427 Y-110.1441
G01 X-176.9537 Y-110.0459
G01 X-176.8556 Y-109.9570
G01 X-176.7492 Y-109.8781
G01 X-176.6355 Y-109.8099
G01 X-176.5158 Y-109.7533
G01 X-176.3910 Y-109.7087
G01 X-176.2625 Y-109.6765
G01 X-176.1315 Y-109.6570
G01 X-175.9991 Y-109.6505
G01 X-175.8668 Y-109.6570
G01 X-175.7358 Y-109.6765
G01 X-175.6073 Y-109.7087
G01 X-175.4825 Y-109.7533
G01 X-175.3628 Y-109.8099
G01 X-175.2491 Y-109.8781
G01 X-175.1427 Y-109.9570
G01 X-175.0445 Y-110.0459
G01 X-174.9556 Y-110.1441
G01 X-174.8767 Y-110.2505
G01 X-174.8085 Y-110.3642
G01 X-174.7519 Y-110.4839
G01 X-174.7073 Y-110.6087
G01 X-174.6751 Y-110.7372
G01 X-174.6556 Y-110.8682
G01 X-174.6491 Y-111.0005
G00 X-174.6491 Y-111.0005
G01 F90.00
G01 Z-2.0000
G01 F120.00
G01 X-174.6556 Y-110.8682
G01 X-174.6751 Y-110.7372
G01 X-174.7073 Y-110.6087
G01 X-174.7519 Y-110.4839
G01 X-174.8085 Y-110.3642
G01 X-174.8767 Y-110.2505
G01 X-174.9556 Y-110.1441
G01 X-175.0445 Y-110.0459
G01 X-175.1427 Y-109.9570
G01 X-175.2491 Y-109.8781
G01 X-175.3628 Y-109.8099
G01 X-175.4825 Y-109.7533
G01 X-175.6073 Y-109.7087
G01 X-175.7358 Y-109.6765
G01 X-175.8668 Y-109.6570
G01 X-175.9991 Y-109.6505
G01 X-176.1315 Y-109.6570
G01 X-176.2625 Y-109.6765
G01 X-176.3910 Y-109.7087
G01 X-176.5158 Y-109.7533
G01 X-176.6355 Y-109.8099
G01 X-176.7492 Y-109.8781
G01 X-176.8556 Y-109.9570
G01 X-176.9537 Y-110.0459
G01 X-177.0427 Y-110.1441
G01 X-177.1216 Y-110.2505
G01 X-177.1897 Y-110.3642
G01 X-177.2464 Y-110.4839
G01 X-177.2910 Y-110.6087
G01 X-177.3232 Y-110.7372
G01 X-177.3426 Y-110.8682
G01 X-177.3491 Y-111.0005
G01 X-177.3426 Y-111.1329
G01 X-177.3232 Y-111.2639
G01 X-177.2910 Y-111.3924
G01 X-177.2464 Y-111.5172
G01 X-177.1897 Y-111.6369
G01 X-177.1216 Y-111.7506
G01 X-177.0427 Y-111.8570
G01 X-176.9537 Y-111.9551
G01 X-176.8556 Y-112.0441
G01 X-176.7492 Y-112.1230
G01 X-176.6355 Y-112.1911
G01 X-176.5158 Y-112.2478
G01 X-176.3910 Y-112.2924
G01 X-176.2625 Y-112.3246
G01 X-176.1315 Y-112.3440
G01 X-175.9991 Y-112.3505
G01 X-175.8668 Y-112.3440
G01 X-175.7358 Y-112.3246
G01 X-175.6073 Y-112.2924
G01 X-175.4825 Y-112.2478
G01 X-175.3628 Y-112.1911
G01 X-175.2491 Y-112.1230
G01 X-175.1427 Y-112.0441
G01 X-175.0445 Y-111.9551
G01 X-174.9556 Y-111.8570
G01 X-174.8767 Y-111.7506
G01 X-174.8085 Y-111.6369
G01 X-174.7519 Y-111.5172
G01 X-174.7073 Y-111.3924
G01 X-174.6751 Y-111.2639
G01 X-174.6556 Y-111.1329
G01 X-174.6491 Y-111.0005
G00 Z2.0000
G00 X-175.5491 Y-111.0005
G01 F90.00
G01 Z-0.5000
G01 F120.00
G01 X-175.5578 Y-111.0883
G01 X-175.5834 Y-111.1727
G01 X-175.6250 Y-111.2505
G01 X-175.6809 Y-111.3187
G01 X-175.7491 Y-111.3747
G01 X-175.8269 Y-111.4163
G01 X-175.9113 Y-111.4419
G01 X-175.9991 Y-111.4505
G01 X-176.0869 Y-111.4419
G01 X-176.1713 Y-111.4163
G01 X-176.2491 Y-111.3747
G01 X-176.3173 Y-111.3187
G01 X-176.3733 Y-111.2505
G01 X-176.4149 Y-111.1727
G01 X-176.4405 Y-111.0883
G01 X-176.4491 Y-111.0005
G01 X-176.4405 Y-110.9127
G01 X-176.4149 Y-110.8283
G01 X-176.3733 Y-110.7505
G01 X-176.3173 Y-110.6823
G01 X-176.2491 Y-110.6264
G01 X-176.1713 Y-110.5848
G01 X-176.0869 Y-110.5592
G01 X-175.9991 Y-110.5505
G01 X-175.9113 Y-110.5592
G01 X-175.8269 Y-110.5848
G01 X-175.7491 Y-110.6264
G01 X-175.6809 Y-110.6823
G01 X-175.6250 Y-110.7505
G01 X-175.5834 Y-110.8283
G01 X-175.5578 Y-110.9127
G01 X-175.5491 Y-111.0005
G00 X-175.5491 Y-111.0005
G01 F90.00
G01 Z-1.0000
G01 F120.00
G01 X-175.5578 Y-110.9127
G01 X-175.5834 Y-110.8283
G01 X-175.6250 Y-110.7505
G01 X-175.6809 Y-110.6823
G01 X-175.7491 Y-110.6264
G01 X-175.8269 Y-110.5848
G01 X-175.9113 Y-110.5592
G01 X-175.9991 Y-110.5505
G01 X-176.0869 Y-110.5592
G01 X-176.1713 Y-110.5848
G01 X-176.2491 Y-110.6264
G01 X-176.3173 Y-110.6823
G01 X-176.3733 Y-110.7505
G01 X-176.4149 Y-110.8283
G01 X-176.4405 Y-110.9127
G01 X-176.4491 Y-111.0005
G01 X-176.4405 Y-111.0883
G01 X-176.4149 Y-111.1727
G01 X-176.3733 Y-111.2505
G01 X-176.3173 Y-111.3187
G01 X-176.2491 Y-111.3747
G01 X-176.1713 Y-111.4163
G01 X-176.0869 Y-111.4419
G01 X-175.9991 Y-111.4505
G01 X-175.9113 Y-111.4419
G01 X-175.8269 Y-111.4163
G01 X-175.7491 Y-111.3747
G01 X-175.6809 Y-111.3187
G01 X-175.6250 Y-111.2505
G01 X-175.5834 Y-111.1727
G01 X-175.5578 Y-111.0883
G01 X-175.5491 Y-111.0005
G00 X-175.5491 Y-111.0005
G01 F90.00
G01 Z-1.5000
G01 F120.00
G01 X-175.5578 Y-111.0883
G01 X-175.5834 Y-111.1727
G01 X-175.6250 Y-111.2505
G01 X-175.6809 Y-111.3187
G01 X-175.7491 Y-111.3747
G01 X-175.8269 Y-111.4163
G01 X-175.9113 Y-111.4419
G01 X-175.9991 Y-111.4505
G01 X-176.0869 Y-111.4419
G01 X-176.1713 Y-111.4163
G01 X-176.2491 Y-111.3747
G01 X-176.3173 Y-111.3187
G01 X-176.3733 Y-111.2505
G01 X-176.4149 Y-111.1727
G01 X-176.4405 Y-111.0883
G01 X-176.4491 Y-111.0005
G01 X-176.4405 Y-110.9127
G01 X-176.4149 Y-110.8283
G01 X-176.3733 Y-110.7505
G01 X-176.3173 Y-110.6823
G01 X-176.2491 Y-110.6264
G01 X-176.1713 Y-110.5848
G01 X-176.0869 Y-110.5592
G01 X-175.9991 Y-110.5505
G01 X-175.9113 Y-110.5592
G01 X-175.8269 Y-110.5848
G01 X-175.7491 Y-110.6264
G01 X-175.6809 Y-110.6823
G01 X-175.6250 Y-110.7505
G01 X-175.5834 Y-110.8283
G01 X-175.5578 Y-110.9127
G01 X-175.5491 Y-111.0005
G00 X-175.5491 Y-111.0005
G01 F90.00
G01 Z-2.0000
G01 F120.00
G01 X-175.5578 Y-110.9127
G01 X-175.5834 Y-110.8283
G01 X-175.6250 Y-110.7505
G01 X-175.6809 Y-110.6823
G01 X-175.7491 Y-110.6264
G01 X-175.8269 Y-110.5848
G01 X-175.9113 Y-110.5592
G01 X-175.9991 Y-110.5505
G01 X-176.0869 Y-110.5592
G01 X-176.1713 Y-110.5848
G01 X-176.2491 Y-110.6264
G01 X-176.3173 Y-110.6823
G01 X-176.3733 Y-110.7505
G01 X-176.4149 Y-110.8283
G01 X-176.4405 Y-110.9127
G01 X-176.4491 Y-111.0005
G01 X-176.4405 Y-111.0883
G01 X-176.4149 Y-111.1727
G01 X-176.3733 Y-111.2505
G01 X-176.3173 Y-111.3187
G01 X-176.2491 Y-111.3747
G01 X-176.1713 Y-111.4163
G01 X-176.0869 Y-111.4419
G01 X-175.9991 Y-111.4505
G01 X-175.9113 Y-111.4419
G01 X-175.8269 Y-111.4163
G01 X-175.7491 Y-111.3747
G01 X-175.6809 Y-111.3187
G01 X-175.6250 Y-111.2505
G01 X-175.5834 Y-111.1727
G01 X-175.5578 Y-111.0883
G01 X-175.5491 Y-111.0005
G00 Z2.0000
G00 X-175.5491 Y-21.0007
G01 F90.00
G01 Z-0.5000
G01 F120.00
G01 X-175.5578 Y-21.0885
G01 X-175.5834 Y-21.1729
G01 X-175.6250 Y-21.2507
G01 X-175.6809 Y-21.3189
G01 X-175.7491 Y-21.3749
G01 X-175.8269 Y-21.4165
G01 X-175.9113 Y-21.4421
G01 X-175.9991 Y-21.4507
G01 X-176.0869 Y-21.4421
G01 X-176.1713 Y-21.4165
G01 X-176.2491 Y-21.3749
G01 X-176.3173 Y-21.3189
G01 X-176.3733 Y-21.2507
G01 X-176.4149 Y-21.1729
G01 X-176.4405 Y-21.0885
G01 X-176.4491 Y-21.0007
G01 X-176.4405 Y-20.9129
G01 X-176.4149 Y-20.8285
G01 X-176.3733 Y-20.7507
G01 X-176.3173 Y-20.6825
G01 X-176.2491 Y-20.6266
G01 X-176.1713 Y-20.5850
G01 X-176.0869 Y-20.5594
G01 X-175.9991 Y-20.5507
G01 X-175.9113 Y-20.5594
G01 X-175.8269 Y-20.5850
G01 X-175.7491 Y-20.6266
G01 X-175.6809 Y-20.6825
G01 X-175.6250 Y-20.7507
G01 X-175.5834 Y-20.8285
G01 X-175.5578 Y-20.9129
G01 X-175.5491 Y-21.0007
G00 X-175.5491 Y-21.0007
G01 F90.00
G01 Z-1.0000
G01 F120.00
G01 X-175.5578 Y-20.9129
G01 X-175.5834 Y-20.8285
G01 X-175.6250 Y-20.7507
G01 X-175.6809 Y-20.6825
G01 X-175.7491 Y-20.6266
G01 X-175.8269 Y-20.5850
G01 X-175.9113 Y-20.5594
G01 X-175.9991 Y-20.5507
G01 X-176.0869 Y-20.5594
G01 X-176.1713 Y-20.5850
G01 X-176.2491 Y-20.6266
G01 X-176.3173 Y-20.6825
G01 X-176.3733 Y-20.7507
G01 X-176.4149 Y-20.8285
G01 X-176.4405 Y-20.9129
G01 X-176.4491 Y-21.0007
G01 X-176.4405 Y-21.0885
G01 X-176.4149 Y-21.1729
G01 X-176.3733 Y-21.2507
G01 X-176.3173 Y-21.3189
G01 X-176.2491 Y-21.3749
G01 X-176.1713 Y-21.4165
G01 X-176.0869 Y-21.4421
G01 X-175.9991 Y-21.4507
G01 X-175.9113 Y-21.4421
G01 X-175.8269 Y-21.4165
G01 X-175.7491 Y-21.3749
G01 X-175.6809 Y-21.3189
G01 X-175.6250 Y-21.2507
G01 X-175.5834 Y-21.1729
G01 X-175.5578 Y-21.0885
G01 X-175.5491 Y-21.0007
G00 X-175.5491 Y-21.0007
G01 F90.00
G01 Z-1.5000
G01 F120.00
G01 X-175.5578 Y-21.0885
G01 X-175.5834 Y-21.1729
G01 X-175.6250 Y-21.2507
G01 X-175.6809 Y-21.3189
G01 X-175.7491 Y-21.3749
G01 X-175.8269 Y-21.4165
G01 X-175.9113 Y-21.4421
G01 X-175.9991 Y-21.4507
G01 X-176.0869 Y-21.4421
G01 X-176.1713 Y-21.4165
G01 X-176.2491 Y-21.3749
G01 X-176.3173 Y-21.3189
G01 X-176.3733 Y-21.2507
G01 X-176.4149 Y-21.1729
G01 X-176.4405 Y-21.0885
G01 X-176.4491 Y-21.0007
G01 X-176.4405 Y-20.9129
G01 X-176.4149 Y-20.8285
G01 X-176.3733 Y-20.7507
G01 X-176.3173 Y-20.6825
G01 X-176.2491 Y-20.6266
G01 X-176.1713 Y-20.5850
G01 X-176.0869 Y-20.5594
G01 X-175.9991 Y-20.5507
G01 X-175.9113 Y-20.5594
G01 X-175.8269 Y-20.5850
G01 X-175.7491 Y-20.6266
G01 X-175.6809 Y-20.6825
G01 X-175.6250 Y-20.7507
G01 X-175.5834 Y-20.8285
G01 X-175.5578 Y-20.9129
G01 X-175.5491 Y-21.0007
G00 X-175.5491 Y-21.0007
G01 F90.00
G01 Z-2.0000
G01 F120.00
G01 X-175.5578 Y-20.9129
G01 X-175.5834 Y-20.8285
G01 X-175.6250 Y-20.7507
G01 X-175.6809 Y-20.6825
G01 X-175.7491 Y-20.6266
G01 X-175.8269 Y-20.5850
G01 X-175.9113 Y-20.5594
G01 X-175.9991 Y-20.5507
G01 X-176.0869 Y-20.5594
G01 X-176.1713 Y-20.5850
G01 X-176.2491 Y-20.6266
G01 X-176.3173 Y-20.6825
G01 X-176.3733 Y-20.7507
G01 X-176.4149 Y-20.8285
G01 X-176.4405 Y-20.9129
G01 X-176.4491 Y-21.0007
G01 X-176.4405 Y-21.0885
G01 X-176.4149 Y-21.1729
G01 X-176.3733 Y-21.2507
G01 X-176.3173 Y-21.3189
G01 X-176.2491 Y-21.3749
G01 X-176.1713 Y-21.4165
G01 X-176.0869 Y-21.4421
G01 X-175.9991 Y-21.4507
G01 X-175.9113 Y-21.4421
G01 X-175.8269 Y-21.4165
G01 X-175.7491 Y-21.3749
G01 X-175.6809 Y-21.3189
G01 X-175.6250 Y-21.2507
G01 X-175.5834 Y-21.1729
G01 X-175.5578 Y-21.0885
G01 X-175.5491 Y-21.0007
G00 Z2.0000
G00 X-174.6491 Y-21.0007
G01 F90.00
G01 Z-0.5000
G01 F120.00
G01 X-174.6556 Y-21.1330
G01 X-174.6751 Y-21.2641
G01 X-174.7073 Y-21.3926
G01 X-174.7519 Y-21.5173
G01 X-174.8085 Y-21.6371
G01 X-174.8767 Y-21.7507
G01 X-174.9556 Y-21.8572
G01 X-175.0445 Y-21.9553
G01 X-175.1427 Y-22.0443
G01 X-175.2491 Y-22.1232
G01 X-175.3628 Y-22.1913
G01 X-175.4825 Y-22.2480
G01 X-175.6073 Y-22.2926
G01 X-175.7358 Y-22.3248
G01 X-175.8668 Y-22.3442
G01 X-175.9991 Y-22.3507
G01 X-176.1315 Y-22.3442
G01 X-176.2625 Y-22.3248
G01 X-176.3910 Y-22.2926
G01 X-176.5158 Y-22.2480
G01 X-176.6355 Y-22.1913
G01 X-176.7492 Y-22.1232
G01 X-176.8556 Y-22.0443
G01 X-176.9537 Y-21.9553
G01 X-177.0427 Y-21.8572
G01 X-177.1216 Y-21.7507
G01 X-177.1897 Y-21.6371
G01 X-177.2464 Y-21.5173
G01 X-177.2910 Y-21.3926
G01 X-177.3232 Y-21.2641
G01 X-177.3426 Y-21.1330
G01 X-177.3491 Y-21.0007
G01 X-177.3426 Y-20.8684
G01 X-177.3232 Y-20.7373
G01 X-177.2910 Y-20.6088
G01 X-177.2464 Y-20.4841
G01 X-177.1897 Y-20.3643
G01 X-177.1216 Y-20.2507
G01 X-177.0427 Y-20.1443
G01 X-176.9537 Y-20.0461
G01 X-176.8556 Y-19.9572
G01 X-176.7492 Y-19.8782
G01 X-176.6355 Y-19.8101
G01 X-176.5158 Y-19.7535
G01 X-176.3910 Y-19.7089
G01 X-176.2625 Y-19.6767
G01 X-176.1315 Y-19.6572
G01 X-175.9991 Y-19.6507
G01 X-175.8668 Y-19.6572
G01 X-175.7358 Y-19.6767
G01 X-175.6073 Y-19.7089
G01 X-175.4825 Y-19.7535
G01 X-175.3628 Y-19.8101
G01 X-175.2491 Y-19.8782
G01 X-175.1427 Y-19.9572
G01 X-175.0445 Y-20.0461
G01 X-174.9556 Y-20.1443
G01 X-174.8767 Y-20.2507
G01 X-174.8085 Y-20.3643
G01 X-174.7519 Y-20.4841
G01 X-174.7073 Y-20.6088
G01 X-174.6751 Y-20.7373
G01 X-174.6556 Y-20.8684
G01 X-174.6491 Y-21.0007
G00 X-174.6491 Y-21.0007
G01 F90.00
G01 Z-1.0000
G01 F120.00
G01 X-174.6556 Y-20.8684
G01 X-174.6751 Y-20.7373
G01 X-174.7073 Y-20.6088
G01 X-174.7519 Y-20.4841
G01 X-174.8085 Y-20.3643
G01 X-174.8767 Y-20.2507
G01 X-174.9556 Y-20.1443
G01 X-175.0445 Y-20.0461
G01 X-175.1427 Y-19.9572
G01 X-175.2491 Y-19.8782
G01 X-175.3628 Y-19.8101
G01 X-175.4825 Y-19.7535
G01 X-175.6073 Y-19.7089
G01 X-175.7358 Y-19.6767
G01 X-175.8668 Y-19.6572
G01 X-175.9991 Y-19.6507
G01 X-176.1315 Y-19.6572
G01 X-176.2625 Y-19.6767
G01 X-176.3910 Y-19.7089
G01 X-176.5158 Y-19.7535
G01 X-176.6355 Y-19.8101
G01 X-176.7492 Y-19.8782
G01 X-176.8556 Y-19.9572
G01 X-176.9537 Y-20.0461
G01 X-177.0427 Y-20.1443
G01 X-177.1216 Y-20.2507
G01 X-177.1897 Y-20.3643
G01 X-177.2464 Y-20.4841
G01 X-177.2910 Y-20.6088
G01 X-177.3232 Y-20.7373
G01 X-177.3426 Y-20.8684
G01 X-177.3491 Y-21.0007
G01 X-177.3426 Y-21.1330
G01 X-177.3232 Y-21.2641
G01 X-177.2910 Y-21.3926
G01 X-177.2464 Y-21.5173
G01 X-177.1897 Y-21.6371
G01 X-177.1216 Y-21.7507
G01 X-177.0427 Y-21.8572
G01 X-176.9537 Y-21.9553
G01 X-176.8556 Y-22.0443
G01 X-176.7492 Y-22.1232
G01 X-176.6355 Y-22.1913
G01 X-176.5158 Y-22.2480
G01 X-176.3910 Y-22.2926
G01 X-176.2625 Y-22.3248
G01 X-176.1315 Y-22.3442
G01 X-175.9991 Y-22.3507
G01 X-175.8668 Y-22.3442
G01 X-175.7358 Y-22.3248
G01 X-175.6073 Y-22.2926
G01 X-175.4825 Y-22.2480
G01 X-175.3628 Y-22.1913
G01 X-175.2491 Y-22.1232
G01 X-175.1427 Y-22.0443
G01 X-175.0445 Y-21.9553
G01 X-174.9556 Y-21.8572
G01 X-174.8767 Y-21.7507
G01 X-174.8085 Y-21.6371
G01 X-174.7519 Y-21.5173
G01 X-174.7073 Y-21.3926
G01 X-174.6751 Y-21.2641
G01 X-174.6556 Y-21.1330
G01 X-174.6491 Y-21.0007
G00 X-174.6491 Y-21.0007
G01 F90.00
G01 Z-1.5000
G01 F120.00
G01 X-174.6556 Y-21.1330
G01 X-174.6751 Y-21.2641
G01 X-174.7073 Y-21.3926
G01 X-174.7519 Y-21.5173
G01 X-174.8085 Y-21.6371
G01 X-174.8767 Y-21.7507
G01 X-174.9556 Y-21.8572
G01 X-175.0445 Y-21.9553
G01 X-175.1427 Y-22.0443
G01 X-175.2491 Y-22.1232
G01 X-175.3628 Y-22.1913
G01 X-175.4825 Y-22.2480
G01 X-175.6073 Y-22.2926
G01 X-175.7358 Y-22.3248
G01 X-175.8668 Y-22.3442
G01 X-175.9991 Y-22.3507
G01 X-176.1315 Y-22.3442
G01 X-176.2625 Y-22.3248
G01 X-176.3910 Y-22.2926
G01 X-176.5158 Y-22.2480
G01 X-176.6355 Y-22.1913
G01 X-176.7492 Y-22.1232
G01 X-176.8556 Y-22.0443
G01 X-176.9537 Y-21.9553
G01 X-177.0427 Y-21.8572
G01 X-177.1216 Y-21.7507
G01 X-177.1897 Y-21.6371
G01 X-177.2464 Y-21.5173
G01 X-177.2910 Y-21.3926
G01 X-177.3232 Y-21.2641
G01 X-177.3426 Y-21.1330
G01 X-177.3491 Y-21.0007
G01 X-177.3426 Y-20.8684
G01 X-177.3232 Y-20.7373
G01 X-177.2910 Y-20.6088
G01 X-177.2464 Y-20.4841
G01 X-177.1897 Y-20.3643
G01 X-177.1216 Y-20.2507
G01 X-177.0427 Y-20.1443
G01 X-176.9537 Y-20.0461
G01 X-176.8556 Y-19.9572
G01 X-176.7492 Y-19.8782
G01 X-176.6355 Y-19.8101
G01 X-176.5158 Y-19.7535
G01 X-176.3910 Y-19.7089
G01 X-176.2625 Y-19.6767
G01 X-176.1315 Y-19.6572
G01 X-175.9991 Y-19.6507
G01 X-175.8668 Y-19.6572
G01 X-175.7358 Y-19.6767
G01 X-175.6073 Y-19.7089
G01 X-175.4825 Y-19.7535
G01 X-175.3628 Y-19.8101
G01 X-175.2491 Y-19.8782
G01 X-175.1427 Y-19.9572
G01 X-175.0445 Y-20.0461
G01 X-174.9556 Y-20.1443
G01 X-174.8767 Y-20.2507
G01 X-174.8085 Y-20.3643
G01 X-174.7519 Y-20.4841
G01 X-174.7073 Y-20.6088
G01 X-174.6751 Y-20.7373
G01 X-174.6556 Y-20.8684
G01 X-174.6491 Y-21.0007
G00 X-174.6491 Y-21.0007
G01 F90.00
G01 Z-2.0000
G01 F120.00
G01 X-174.6556 Y-20.8684
G01 X-174.6751 Y-20.7373
G01 X-174.7073 Y-20.6088
G01 X-174.7519 Y-20.4841
G01 X-174.8085 Y-20.3643
G01 X-174.8767 Y-20.2507
G01 X-174.9556 Y-20.1443
G01 X-175.0445 Y-20.0461
G01 X-175.1427 Y-19.9572
G01 X-175.2491 Y-19.8782
G01 X-175.3628 Y-19.8101
G01 X-175.4825 Y-19.7535
G01 X-175.6073 Y-19.7089
G01 X-175.7358 Y-19.6767
G01 X-175.8668 Y-19.6572
G01 X-175.9991 Y-19.6507
G01 X-176.1315 Y-19.6572
G01 X-176.2625 Y-19.6767
G01 X-176.3910 Y-19.7089
G01 X-176.5158 Y-19.7535
G01 X-176.6355 Y-19.8101
G01 X-176.7492 Y-19.8782
G01 X-176.8556 Y-19.9572
G01 X-176.9537 Y-20.0461
G01 X-177.0427 Y-20.1443
G01 X-177.1216 Y-20.2507
G01 X-177.1897 Y-20.3643
G01 X-177.2464 Y-20.4841
G01 X-177.2910 Y-20.6088
G01 X-177.3232 Y-20.7373
G01 X-177.3426 Y-20.8684
G01 X-177.3491 Y-21.0007
G01 X-177.3426 Y-21.1330
G01 X-177.3232 Y-21.2641
G01 X-177.2910 Y-21.3926
G01 X-177.2464 Y-21.5173
G01 X-177.1897 Y-21.6371
G01 X-177.1216 Y-21.7507
G01 X-177.0427 Y-21.8572
G01 X-176.9537 Y-21.9553
G01 X-176.8556 Y-22.0443
G01 X-176.7492 Y-22.1232
G01 X-176.6355 Y-22.1913
G01 X-176.5158 Y-22.2480
G01 X-176.3910 Y-22.2926
G01 X-176.2625 Y-22.3248
G01 X-176.1315 Y-22.3442
G01 X-175.9991 Y-22.3507
G01 X-175.8668 Y-22.3442
G01 X-175.7358 Y-22.3248
G01 X-175.6073 Y-22.2926
G01 X-175.4825 Y-22.2480
G01 X-175.3628 Y-22.1913
G01 X-175.2491 Y-22.1232
G01 X-175.1427 Y-22.0443
G01 X-175.0445 Y-21.9553
G01 X-174.9556 Y-21.8572
G01 X-174.8767 Y-21.7507
G01 X-174.8085 Y-21.6371
G01 X-174.7519 Y-21.5173
G01 X-174.7073 Y-21.3926
G01 X-174.6751 Y-21.2641
G01 X-174.6556 Y-21.1330
G01 X-174.6491 Y-21.0007
G00 Z2.0000
G00 X-174.4995 Y-21.0007
G01 F90.00
G01 Z-0.5000
G01 F120.00
G01 X-174.5067 Y-21.1477
G01 X-174.5283 Y-21.2933
G01 X-174.5641 Y-21.4360
G01 X-174.6136 Y-21.5746
G01 X-174.6766 Y-21.7076
G01 X-174.7522 Y-21.8339
G01 X-174.8399 Y-21.9521
G01 X-174.9387 Y-22.0611
G01 X-175.0478 Y-22.1600
G01 X-175.1660 Y-22.2476
G01 X-175.2922 Y-22.3233
G01 X-175.4252 Y-22.3862
G01 X-175.5638 Y-22.4358
G01 X-175.7066 Y-22.4716
G01 X-175.8521 Y-22.4931
G01 X-175.9991 Y-22.5004
G01 X-176.1461 Y-22.4931
G01 X-176.2917 Y-22.4716
G01 X-176.4345 Y-22.4358
G01 X-176.5730 Y-22.3862
G01 X-176.7061 Y-22.3233
G01 X-176.8323 Y-22.2476
G01 X-176.9505 Y-22.1600
G01 X-177.0596 Y-22.0611
G01 X-177.1584 Y-21.9521
G01 X-177.2461 Y-21.8339
G01 X-177.3217 Y-21.7076
G01 X-177.3846 Y-21.5746
G01 X-177.4342 Y-21.4360
G01 X-177.4700 Y-21.2933
G01 X-177.4916 Y-21.1477
G01 X-177.4988 Y-21.0007
G01 X-177.4916 Y-20.8537
G01 X-177.4700 Y-20.7082
G01 X-177.4342 Y-20.5654
G01 X-177.3846 Y-20.4268
G01 X-177.3217 Y-20.2938
G01 X-177.2461 Y-20.1676
G01 X-177.1584 Y-20.0494
G01 X-177.0596 Y-19.9403
G01 X-176.9505 Y-19.8415
G01 X-176.8323 Y-19.7538
G01 X-176.7061 Y-19.6781
G01 X-176.5730 Y-19.6152
G01 X-176.4345 Y-19.5656
G01 X-176.2917 Y-19.5299
G01 X-176.1461 Y-19.5083
G01 X-175.9991 Y-19.5011
G01 X-175.8521 Y-19.5083
G01 X-175.7066 Y-19.5299
G01 X-175.5638 Y-19.5656
G01 X-175.4252 Y-19.6152
G01 X-175.2922 Y-19.6781
G01 X-175.1660 Y-19.7538
G01 X-175.0478 Y-19.8415
G01 X-174.9387 Y-19.9403
G01 X-174.8399 Y-20.0494
G01 X-174.7522 Y-20.1676
G01 X-174.6766 Y-20.2938
G01 X-174.6136 Y-20.4268
G01 X-174.5641 Y-20.5654
G01 X-174.5283 Y-20.7082
G01 X-174.5067 Y-20.8537
G01 X-174.4995 Y-21.0007
G00 X-174.4995 Y-21.0007
G01 F90.00
G01 Z-1.0000
G01 F120.00
G01 X-174.5067 Y-21.1477
G01 X-174.5283 Y-21.2933
G01 X-174.5641 Y-21.4360
G01 X-174.6136 Y-21.5746
G01 X-174.6766 Y-21.7076
G01 X-174.7522 Y-21.8339
G01 X-174.8399 Y-21.9521
G01 X-174.9387 Y-22.0611
G01 X-175.0478 Y-22.1600
G01 X-175.1660 Y-22.2476
G01 X-175.2922 Y-22.3233
G01 X-175.4252 Y-22.3862
G01 X-175.5638 Y-22.4358
G01 X-175.7066 Y-22.4716
G01 X-175.8521 Y-22.4931
G01 X-175.9991 Y-22.5004
G01 X-176.1461 Y-22.4931
G01 X-176.2917 Y-22.4716
G01 X-176.4345 Y-22.4358
G01 X-176.5730 Y-22.3862
G01 X-176.7061 Y-22.3233
G01 X-176.8323 Y-22.2476
G01 X-176.9505 Y-22.1600
G01 X-177.0596 Y-22.0611
G01 X-177.1584 Y-21.9521
G01 X-177.2461 Y-21.8339
G01 X-177.3217 Y-21.7076
G01 X-177.3846 Y-21.5746
G01 X-177.4342 Y-21.4360
G01 X-177.4700 Y-21.2933
G01 X-177.4916 Y-21.1477
G01 X-177.4988 Y-21.0007
G01 X-177.4916 Y-20.8537
G01 X-177.4700 Y-20.7082
G01 X-177.4342 Y-20.5654
G01 X-177.3846 Y-20.4268
G01 X-177.3217 Y-20.2938
G01 X-177.2461 Y-20.1676
G01 X-177.1584 Y-20.0494
G01 X-177.0596 Y-19.9403
G01 X-176.9505 Y-19.8415
G01 X-176.8323 Y-19.7538
G01 X-176.7061 Y-19.6781
G01 X-176.5730 Y-19.6152
G01 X-176.4345 Y-19.5656
G01 X-176.2917 Y-19.5299
G01 X-176.1461 Y-19.5083
G01 X-175.9991 Y-19.5011
G01 X-175.8521 Y-19.5083
G01 X-175.7066 Y-19.5299
G01 X-175.5638 Y-19.5656
G01 X-175.4252 Y-19.6152
G01 X-175.2922 Y-19.6781
G01 X-175.1660 Y-19.7538
G01 X-175.0478 Y-19.8415
G01 X-174.9387 Y-19.9403
G01 X-174.8399 Y-20.0494
G01 X-174.7522 Y-20.1676
G01 X-174.6766 Y-20.2938
G01 X-174.6136 Y-20.4268
G01 X-174.5641 Y-20.5654
G01 X-174.5283 Y-20.7082
G01 X-174.5067 Y-20.8537
G01 X-174.4995 Y-21.0007
G00 X-174.4995 Y-21.0007
G01 F90.00
G01 Z-1.5000
G01 F120.00
G01 X-174.5067 Y-21.1477
G01 X-174.5283 Y-21.2933
G01 X-174.5641 Y-21.4360
G01 X-174.6136 Y-21.5746
G01 X-174.6766 Y-21.7076
G01 X-174.7522 Y-21.8339
G01 X-174.8399 Y-21.9521
G01 X-174.9387 Y-22.0611
G01 X-175.0478 Y-22.1600
G01 X-175.1660 Y-22.2476
G01 X-175.2922 Y-22.3233
G01 X-175.4252 Y-22.3862
G01 X-175.5638 Y-22.4358
G01 X-175.7066 Y-22.4716
G01 X-175.8521 Y-22.4931
G01 X-175.9991 Y-22.5004
G01 X-176.1461 Y-22.4931
G01 X-176.2917 Y-22.4716
G01 X-176.4345 Y-22.4358
G01 X-176.5730 Y-22.3862
G01 X-176.7061 Y-22.3233
G01 X-176.8323 Y-22.2476
G01 X-176.9505 Y-22.1600
G01 X-177.0596 Y-22.0611
G01 X-177.1584 Y-21.9521
G01 X-177.2461 Y-21.8339
G01 X-177.3217 Y-21.7076
G01 X-177.3846 Y-21.5746
G01 X-177.4342 Y-21.4360
G01 X-177.4700 Y-21.2933
G01 X-177.4916 Y-21.1477
G01 X-177.4988 Y-21.0007
G01 X-177.4916 Y-20.8537
G01 X-177.4700 Y-20.7082
G01 X-177.4342 Y-20.5654
G01 X-177.3846 Y-20.4268
G01 X-177.3217 Y-20.2938
G01 X-177.2461 Y-20.1676
G01 X-177.1584 Y-20.0494
G01 X-177.0596 Y-19.9403
G01 X-176.9505 Y-19.8415
G01 X-176.8323 Y-19.7538
G01 X-176.7061 Y-19.6781
G01 X-176.5730 Y-19.6152
G01 X-176.4345 Y-19.5656
G01 X-176.2917 Y-19.5299
G01 X-176.1461 Y-19.5083
G01 X-175.9991 Y-19.5011
G01 X-175.8521 Y-19.5083
G01 X-175.7066 Y-19.5299
G01 X-175.5638 Y-19.5656
G01 X-175.4252 Y-19.6152
G01 X-175.2922 Y-19.6781
G01 X-175.1660 Y-19.7538
G01 X-175.0478 Y-19.8415
G01 X-174.9387 Y-19.9403
G01 X-174.8399 Y-20.0494
G01 X-174.7522 Y-20.1676
G01 X-174.6766 Y-20.2938
G01 X-174.6136 Y-20.4268
G01 X-174.5641 Y-20.5654
G01 X-174.5283 Y-20.7082
G01 X-174.5067 Y-20.8537
G01 X-174.4995 Y-21.0007
G00 X-174.4995 Y-21.0007
G01 F90.00
G01 Z-2.0000
G01 F120.00
G01 X-174.5067 Y-21.1477
G01 X-174.5283 Y-21.2933
G01 X-174.5641 Y-21.4360
G01 X-174.6136 Y-21.5746
G01 X-174.6766 Y-21.7076
G01 X-174.7522 Y-21.8339
G01 X-174.8399 Y-21.9521
G01 X-174.9387 Y-22.0611
G01 X-175.0478 Y-22.1600
G01 X-175.1660 Y-22.2476
G01 X-175.2922 Y-22.3233
G01 X-175.4252 Y-22.3862
G01 X-175.5638 Y-22.4358
G01 X-175.7066 Y-22.4716
G01 X-175.8521 Y-22.4931
G01 X-175.9991 Y-22.5004
G01 X-176.1461 Y-22.4931
G01 X-176.2917 Y-22.4716
G01 X-176.4345 Y-22.4358
G01 X-176.5730 Y-22.3862
G01 X-176.7061 Y-22.3233
G01 X-176.8323 Y-22.2476
G01 X-176.9505 Y-22.1600
G01 X-177.0596 Y-22.0611
G01 X-177.1584 Y-21.9521
G01 X-177.2461 Y-21.8339
G01 X-177.3217 Y-21.7076
G01 X-177.3846 Y-21.5746
G01 X-177.4342 Y-21.4360
G01 X-177.4700 Y-21.2933
G01 X-177.4916 Y-21.1477
G01 X-177.4988 Y-21.0007
G01 X-177.4916 Y-20.8537
G01 X-177.4700 Y-20.7082
G01 X-177.4342 Y-20.5654
G01 X-177.3846 Y-20.4268
G01 X-177.3217 Y-20.2938
G01 X-177.2461 Y-20.1676
G01 X-177.1584 Y-20.0494
G01 X-177.0596 Y-19.9403
G01 X-176.9505 Y-19.8415
G01 X-176.8323 Y-19.7538
G01 X-176.7061 Y-19.6781
G01 X-176.5730 Y-19.6152
G01 X-176.4345 Y-19.5656
G01 X-176.2917 Y-19.5299
G01 X-176.1461 Y-19.5083
G01 X-175.9991 Y-19.5011
G01 X-175.8521 Y-19.5083
G01 X-175.7066 Y-19.5299
G01 X-175.5638 Y-19.5656
G01 X-175.4252 Y-19.6152
G01 X-175.2922 Y-19.6781
G01 X-175.1660 Y-19.7538
G01 X-175.0478 Y-19.8415
G01 X-174.9387 Y-19.9403
G01 X-174.8399 Y-20.0494
G01 X-174.7522 Y-20.1676
G01 X-174.6766 Y-20.2938
G01 X-174.6136 Y-20.4268
G01 X-174.5641 Y-20.5654
G01 X-174.5283 Y-20.7082
G01 X-174.5067 Y-20.8537
G01 X-174.4995 Y-21.0007
G00 Z2.0000
M05
G00 Z2.0000
G00 Z15.00


