(G-CODE GENERATED BY FLATCAM vUnstable - www.flatcam.org - Version Date: 2022/3/1)

(Name: digiMatex_DS410-Edge_Cuts_cutout_cnc)
(Type: G-code from Geometry)
(Units: MM)

(Created on Sunday, 06 February 2022 at 19:18)

(This preprocessor is the default preprocessor used by FlatCAM.)
(It is made to work with MACH3 compatible motion controllers.)

(TOOL DIAMETER: 1.0 mm)
(Feedrate_XY: 120.0 mm/min)
(Feedrate_Z: 90.0 mm/min)
(Feedrate rapids 1500.0 mm/min)

(Z_Cut: -2.0 mm)
(DepthPerCut: 0.5 mm <=>4 passes)
(Z_Move: 2.0 mm)
(Z Start: None mm)
(Z End: 15.0 mm)
(X,Y End: None mm)
(Steps per circle: 16)
(Preprocessor Geometry: default)

(X range: -181.6500 ...   -0.3500  mm)
(Y range: -116.6500 ...   -0.3500  mm)

(Spindle Speed: 300.0 RPM)
G21
G90
G94

G01 F120.00
G00 Z2.0000

M03 S300.0
G01 F120.00
G00 X-181.4840 Y-114.8919
G01 F90.00
G01 Z-0.5000
G01 F120.00
G01 X-181.6375 Y-114.1268
G01 X-181.6500 Y-114.0000
G01 X-181.6500 Y-3.0000
G01 X-181.6375 Y-2.8732
G01 X-181.4788 Y-2.0791
G01 X-181.4364 Y-1.9590
G01 X-181.3882 Y-1.8735
G01 X-180.9547 Y-1.2247
G01 X-180.8525 Y-1.1058
G01 X-180.7753 Y-1.0453
G01 X-180.0974 Y-0.5935
G01 X-179.9866 Y-0.5411
G01 X-179.8922 Y-0.5147
G01 X-179.1268 Y-0.3625
G01 X-179.0000 Y-0.3500
G01 X-97.9657 Y-0.3509
G01 X-97.8732 Y-0.3625
G01 X-97.1078 Y-0.5147
G01 X-97.0134 Y-0.5411
G01 X-96.8735 Y-0.6118
G01 X-96.2247 Y-1.0453
G01 X-96.1475 Y-1.1058
G01 X-96.0623 Y-1.2006
G01 X-95.6118 Y-1.8735
G01 X-95.5394 Y-2.0180
G01 X-95.5147 Y-2.1078
G01 X-95.3625 Y-2.8732
G01 X-95.3500 Y-3.0000
G01 X-95.3500 Y-11.9360
G01 X-95.2354 Y-12.5117
G01 X-94.9456 Y-12.9456
G01 X-94.5117 Y-13.2354
G01 X-93.9360 Y-13.3500
G01 X-3.0000 Y-13.3500
G01 X-2.8732 Y-13.3625
G01 X-2.0791 Y-13.5212
G01 X-1.9590 Y-13.5636
G01 X-1.8735 Y-13.6118
G01 X-1.2247 Y-14.0453
G01 X-1.1058 Y-14.1475
G01 X-1.0453 Y-14.2247
G01 X-0.5935 Y-14.9026
G01 X-0.5411 Y-15.0134
G01 X-0.5147 Y-15.1078
G01 X-0.3625 Y-15.8732
G01 X-0.3500 Y-16.0000
G01 X-0.3500 Y-114.0000
G01 X-0.3625 Y-114.1268
G01 X-0.5212 Y-114.9209
G01 X-0.5636 Y-115.0410
G01 X-0.6118 Y-115.1265
G01 X-1.0453 Y-115.7753
G01 X-1.1475 Y-115.8942
G01 X-1.2247 Y-115.9547
G01 X-1.9026 Y-116.4065
G01 X-2.0134 Y-116.4589
G01 X-2.1078 Y-116.4853
G01 X-2.8732 Y-116.6375
G01 X-3.0000 Y-116.6500
G01 X-179.0000 Y-116.6500
G01 X-179.1268 Y-116.6375
G01 X-179.8922 Y-116.4853
G01 X-179.9866 Y-116.4589
G01 X-180.1265 Y-116.3882
G01 X-180.7994 Y-115.9377
G01 X-180.8525 Y-115.8942
G01 X-180.9377 Y-115.7994
G01 X-181.3882 Y-115.1265
G01 X-181.4589 Y-114.9866
G01 X-181.4840 Y-114.8919
G00 X-181.4840 Y-114.8919
G01 F90.00
G01 Z-1.0000
G01 F120.00
G01 X-181.4589 Y-114.9866
G01 X-181.3882 Y-115.1265
G01 X-180.9377 Y-115.7994
G01 X-180.8525 Y-115.8942
G01 X-180.7994 Y-115.9377
G01 X-180.1265 Y-116.3882
G01 X-179.9866 Y-116.4589
G01 X-179.8922 Y-116.4853
G01 X-179.1268 Y-116.6375
G01 X-179.0000 Y-116.6500
G01 X-3.0000 Y-116.6500
G01 X-2.8732 Y-116.6375
G01 X-2.1078 Y-116.4853
G01 X-2.0134 Y-116.4589
G01 X-1.9026 Y-116.4065
G01 X-1.2247 Y-115.9547
G01 X-1.1475 Y-115.8942
G01 X-1.0453 Y-115.7753
G01 X-0.6118 Y-115.1265
G01 X-0.5636 Y-115.0410
G01 X-0.5212 Y-114.9209
G01 X-0.3625 Y-114.1268
G01 X-0.3500 Y-114.0000
G01 X-0.3500 Y-16.0000
G01 X-0.3625 Y-15.8732
G01 X-0.5147 Y-15.1078
G01 X-0.5411 Y-15.0134
G01 X-0.5935 Y-14.9026
G01 X-1.0453 Y-14.2247
G01 X-1.1058 Y-14.1475
G01 X-1.2247 Y-14.0453
G01 X-1.8735 Y-13.6118
G01 X-1.9590 Y-13.5636
G01 X-2.0791 Y-13.5212
G01 X-2.8732 Y-13.3625
G01 X-3.0000 Y-13.3500
G01 X-93.9360 Y-13.3500
G01 X-94.5117 Y-13.2354
G01 X-94.9456 Y-12.9456
G01 X-95.2354 Y-12.5117
G01 X-95.3500 Y-11.9360
G01 X-95.3500 Y-3.0000
G01 X-95.3625 Y-2.8732
G01 X-95.5147 Y-2.1078
G01 X-95.5394 Y-2.0180
G01 X-95.6118 Y-1.8735
G01 X-96.0623 Y-1.2006
G01 X-96.1475 Y-1.1058
G01 X-96.2247 Y-1.0453
G01 X-96.8735 Y-0.6118
G01 X-97.0134 Y-0.5411
G01 X-97.1078 Y-0.5147
G01 X-97.8732 Y-0.3625
G01 X-97.9657 Y-0.3509
G01 X-179.0000 Y-0.3500
G01 X-179.1268 Y-0.3625
G01 X-179.8922 Y-0.5147
G01 X-179.9866 Y-0.5411
G01 X-180.0974 Y-0.5935
G01 X-180.7753 Y-1.0453
G01 X-180.8525 Y-1.1058
G01 X-180.9547 Y-1.2247
G01 X-181.3882 Y-1.8735
G01 X-181.4364 Y-1.9590
G01 X-181.4788 Y-2.0791
G01 X-181.6375 Y-2.8732
G01 X-181.6500 Y-3.0000
G01 X-181.6500 Y-114.0000
G01 X-181.6375 Y-114.1268
G01 X-181.4840 Y-114.8919
G00 X-181.4840 Y-114.8919
G01 F90.00
G01 Z-1.5000
G01 F120.00
G01 X-181.6375 Y-114.1268
G01 X-181.6500 Y-114.0000
G01 X-181.6500 Y-3.0000
G01 X-181.6375 Y-2.8732
G01 X-181.4788 Y-2.0791
G01 X-181.4364 Y-1.9590
G01 X-181.3882 Y-1.8735
G01 X-180.9547 Y-1.2247
G01 X-180.8525 Y-1.1058
G01 X-180.7753 Y-1.0453
G01 X-180.0974 Y-0.5935
G01 X-179.9866 Y-0.5411
G01 X-179.8922 Y-0.5147
G01 X-179.1268 Y-0.3625
G01 X-179.0000 Y-0.3500
G01 X-97.9657 Y-0.3509
G01 X-97.8732 Y-0.3625
G01 X-97.1078 Y-0.5147
G01 X-97.0134 Y-0.5411
G01 X-96.8735 Y-0.6118
G01 X-96.2247 Y-1.0453
G01 X-96.1475 Y-1.1058
G01 X-96.0623 Y-1.2006
G01 X-95.6118 Y-1.8735
G01 X-95.5394 Y-2.0180
G01 X-95.5147 Y-2.1078
G01 X-95.3625 Y-2.8732
G01 X-95.3500 Y-3.0000
G01 X-95.3500 Y-11.9360
G01 X-95.2354 Y-12.5117
G01 X-94.9456 Y-12.9456
G01 X-94.5117 Y-13.2354
G01 X-93.9360 Y-13.3500
G01 X-3.0000 Y-13.3500
G01 X-2.8732 Y-13.3625
G01 X-2.0791 Y-13.5212
G01 X-1.9590 Y-13.5636
G01 X-1.8735 Y-13.6118
G01 X-1.2247 Y-14.0453
G01 X-1.1058 Y-14.1475
G01 X-1.0453 Y-14.2247
G01 X-0.5935 Y-14.9026
G01 X-0.5411 Y-15.0134
G01 X-0.5147 Y-15.1078
G01 X-0.3625 Y-15.8732
G01 X-0.3500 Y-16.0000
G01 X-0.3500 Y-114.0000
G01 X-0.3625 Y-114.1268
G01 X-0.5212 Y-114.9209
G01 X-0.5636 Y-115.0410
G01 X-0.6118 Y-115.1265
G01 X-1.0453 Y-115.7753
G01 X-1.1475 Y-115.8942
G01 X-1.2247 Y-115.9547
G01 X-1.9026 Y-116.4065
G01 X-2.0134 Y-116.4589
G01 X-2.1078 Y-116.4853
G01 X-2.8732 Y-116.6375
G01 X-3.0000 Y-116.6500
G01 X-179.0000 Y-116.6500
G01 X-179.1268 Y-116.6375
G01 X-179.8922 Y-116.4853
G01 X-179.9866 Y-116.4589
G01 X-180.1265 Y-116.3882
G01 X-180.7994 Y-115.9377
G01 X-180.8525 Y-115.8942
G01 X-180.9377 Y-115.7994
G01 X-181.3882 Y-115.1265
G01 X-181.4589 Y-114.9866
G01 X-181.4840 Y-114.8919
G00 X-181.4840 Y-114.8919
G01 F90.00
G01 Z-2.0000
G01 F120.00
G01 X-181.4589 Y-114.9866
G01 X-181.3882 Y-115.1265
G01 X-180.9377 Y-115.7994
G01 X-180.8525 Y-115.8942
G01 X-180.7994 Y-115.9377
G01 X-180.1265 Y-116.3882
G01 X-179.9866 Y-116.4589
G01 X-179.8922 Y-116.4853
G01 X-179.1268 Y-116.6375
G01 X-179.0000 Y-116.6500
G01 X-3.0000 Y-116.6500
G01 X-2.8732 Y-116.6375
G01 X-2.1078 Y-116.4853
G01 X-2.0134 Y-116.4589
G01 X-1.9026 Y-116.4065
G01 X-1.2247 Y-115.9547
G01 X-1.1475 Y-115.8942
G01 X-1.0453 Y-115.7753
G01 X-0.6118 Y-115.1265
G01 X-0.5636 Y-115.0410
G01 X-0.5212 Y-114.9209
G01 X-0.3625 Y-114.1268
G01 X-0.3500 Y-114.0000
G01 X-0.3500 Y-16.0000
G01 X-0.3625 Y-15.8732
G01 X-0.5147 Y-15.1078
G01 X-0.5411 Y-15.0134
G01 X-0.5935 Y-14.9026
G01 X-1.0453 Y-14.2247
G01 X-1.1058 Y-14.1475
G01 X-1.2247 Y-14.0453
G01 X-1.8735 Y-13.6118
G01 X-1.9590 Y-13.5636
G01 X-2.0791 Y-13.5212
G01 X-2.8732 Y-13.3625
G01 X-3.0000 Y-13.3500
G01 X-93.9360 Y-13.3500
G01 X-94.5117 Y-13.2354
G01 X-94.9456 Y-12.9456
G01 X-95.2354 Y-12.5117
G01 X-95.3500 Y-11.9360
G01 X-95.3500 Y-3.0000
G01 X-95.3625 Y-2.8732
G01 X-95.5147 Y-2.1078
G01 X-95.5394 Y-2.0180
G01 X-95.6118 Y-1.8735
G01 X-96.0623 Y-1.2006
G01 X-96.1475 Y-1.1058
G01 X-96.2247 Y-1.0453
G01 X-96.8735 Y-0.6118
G01 X-97.0134 Y-0.5411
G01 X-97.1078 Y-0.5147
G01 X-97.8732 Y-0.3625
G01 X-97.9657 Y-0.3509
G01 X-179.0000 Y-0.3500
G01 X-179.1268 Y-0.3625
G01 X-179.8922 Y-0.5147
G01 X-179.9866 Y-0.5411
G01 X-180.0974 Y-0.5935
G01 X-180.7753 Y-1.0453
G01 X-180.8525 Y-1.1058
G01 X-180.9547 Y-1.2247
G01 X-181.3882 Y-1.8735
G01 X-181.4364 Y-1.9590
G01 X-181.4788 Y-2.0791
G01 X-181.6375 Y-2.8732
G01 X-181.6500 Y-3.0000
G01 X-181.6500 Y-114.0000
G01 X-181.6375 Y-114.1268
G01 X-181.4840 Y-114.8919
G00 Z2.0000
M05
G00 Z2.0000
G00 Z15.00


